%
(Header)
(Generated by gcodetools from Inkscape.)
(Using default header. To add your own header create file "header" in the output dir.)
M3
(Header end.)
G21 (All units in mm)

(Start cutting path id: rect3346)
(vplot gcode)
(Change tool to Default tool)

G00 Z5.000000
G00 X373.944447 Y1128.888932

G01 Z-1.000000 F100.0(Penetrate)
G01 X417.159725 Y1128.888932 Z-1.000000 F400.000000
G01 X460.375003 Y1128.888932 Z-1.000000
G01 X503.590281 Y1128.888932 Z-1.000000
G01 X546.805559 Y1128.888932 Z-1.000000
G01 X590.020837 Y1128.888932 Z-1.000000
G01 X633.236115 Y1128.888932 Z-1.000000
G01 X676.451393 Y1128.888932 Z-1.000000
G01 X719.666671 Y1128.888932 Z-1.000000
G01 X762.881949 Y1128.888932 Z-1.000000
G01 X806.097227 Y1128.888932 Z-1.000000
G01 X849.312505 Y1128.888932 Z-1.000000
G01 X892.527783 Y1128.888932 Z-1.000000
G01 X935.743061 Y1128.888932 Z-1.000000
G01 X978.958339 Y1128.888932 Z-1.000000
G01 X1022.173617 Y1128.888932 Z-1.000000
G01 X1065.388895 Y1128.888932 Z-1.000000
G01 X1065.388895 Y1090.083376 Z-1.000000
G01 X1065.388895 Y1051.277821 Z-1.000000
G01 X1065.388895 Y1012.472265 Z-1.000000
G01 X1065.388895 Y973.666709 Z-1.000000
G01 X1065.388895 Y934.861153 Z-1.000000
G01 X1065.388895 Y896.055597 Z-1.000000
G01 X1065.388895 Y857.250042 Z-1.000000
G01 X1065.388895 Y818.444486 Z-1.000000
G01 X1065.388895 Y779.638930 Z-1.000000
G01 X1065.388895 Y740.833374 Z-1.000000
G01 X1065.388895 Y702.027819 Z-1.000000
G01 X1065.388895 Y663.222263 Z-1.000000
G01 X1065.388895 Y624.416707 Z-1.000000
G01 X1065.388895 Y585.611151 Z-1.000000
G01 X1065.388895 Y546.805607 Z-1.000000
G01 X1065.388895 Y508.000051 Z-1.000000
G01 X1022.173617 Y508.000051 Z-1.000000
G01 X978.958339 Y508.000051 Z-1.000000
G01 X935.743061 Y508.000051 Z-1.000000
G01 X892.527783 Y508.000051 Z-1.000000
G01 X849.312505 Y508.000051 Z-1.000000
G01 X806.097227 Y508.000051 Z-1.000000
G01 X762.881949 Y508.000051 Z-1.000000
G01 X719.666671 Y508.000051 Z-1.000000
G01 X676.451393 Y508.000051 Z-1.000000
G01 X633.236115 Y508.000051 Z-1.000000
G01 X590.020837 Y508.000051 Z-1.000000
G01 X546.805559 Y508.000051 Z-1.000000
G01 X503.590281 Y508.000051 Z-1.000000
G01 X460.375003 Y508.000051 Z-1.000000
G01 X417.159725 Y508.000051 Z-1.000000
G01 X373.944447 Y508.000051 Z-1.000000
G01 X373.944447 Y546.805607 Z-1.000000
G01 X373.944447 Y585.611151 Z-1.000000
G01 X373.944447 Y624.416707 Z-1.000000
G01 X373.944447 Y663.222263 Z-1.000000
G01 X373.944447 Y702.027819 Z-1.000000
G01 X373.944447 Y740.833374 Z-1.000000
G01 X373.944447 Y779.638930 Z-1.000000
G01 X373.944447 Y818.444486 Z-1.000000
G01 X373.944447 Y857.250042 Z-1.000000
G01 X373.944447 Y896.055597 Z-1.000000
G01 X373.944447 Y934.861153 Z-1.000000
G01 X373.944447 Y973.666709 Z-1.000000
G01 X373.944447 Y1012.472265 Z-1.000000
G01 X373.944447 Y1051.277821 Z-1.000000
G01 X373.944447 Y1090.083376 Z-1.000000
G01 X373.944447 Y1128.888932 Z-1.000000
G00 Z5.000000

(End cutting path id: rect3346)


(Footer)
M5
G00 X0.0000 Y0.0000
M2
(Using default footer. To add your own footer create file "footer" in the output dir.)
(end)
%