%
(Header)
(Generated by gcodetools from Inkscape.)
(Using default header. To add your own header create file "header" in the output dir.)
M3
(Header end.)
G21 (All units in mm)

(Start cutting path id: path4703)
(vplot gcode)
(Change tool to Default tool)

G00 Z5.000000
G00 X1085.500446 Y651.398788

G01 Z-1.000000 F100.0(Penetrate)
G01 X1074.028282 Y651.398788 Z-1.000000 F400.000000
G01 X1072.167929 Y729.843613 Z-1.000000
G01 X1087.360798 Y729.843613 Z-1.000000
G01 X1085.500446 Y651.398788 Z-1.000000
G01 X1085.500446 Y651.398788 Z-1.000000
G00 Z5.000000

(End cutting path id: path4703)


(Start cutting path id: path4703)
(vplot gcode)
(Change tool to Default tool)

G00 Z5.000000
G00 X1072.012905 Y620.625475

G01 Z-1.000000 F100.0(Penetrate)
G01 X1072.012905 Y636.205919 Z-1.000000 F400.000000
G01 X1087.050749 Y636.205919 Z-1.000000
G01 X1087.050749 Y620.625475 Z-1.000000
G01 X1072.012905 Y620.625475 Z-1.000000
G01 X1072.012905 Y620.625475 Z-1.000000
G00 Z5.000000

(End cutting path id: path4703)


(Start cutting path id: path4701)
(vplot gcode)
(Change tool to Default tool)

G00 Z5.000000
G00 X1049.998753 Y676.358494

G01 Z-1.000000 F100.0(Penetrate)
G02 X1048.189890 Y659.901235 Z-1.000000 I-75.769529 J-0.000000 F400.000000
G02 X1043.409993 Y646.747907 Z-1.000000 I-52.845829 J11.758919
G02 X1035.347303 Y635.546196 Z-1.000000 I-42.876605 J22.358914
G02 X1024.728970 Y627.369259 Z-1.000000 I-32.826533 J31.644788
G02 X1012.161654 Y622.452516 Z-1.000000 I-24.274486 J43.526619
G02 X996.823711 Y620.625475 Z-1.000000 I-15.337943 J63.467219
G01 X955.973484 Y620.625475 Z-1.000000
G01 X955.973484 Y729.843613 Z-1.000000
G01 X992.095304 Y729.843613 Z-1.000000
G02 X1018.216336 Y725.692313 Z-1.000000 I0.000000 J-84.255746
G02 X1034.883382 Y715.890969 Z-1.000000 I-13.959891 J-42.810304
G02 X1045.616557 Y700.089936 Z-1.000000 I-28.152688 J-30.669170
G02 X1049.998753 Y676.358494 Z-1.000000 I-62.066797 J-23.731442
G01 X1049.998753 Y676.358494 Z-1.000000
G00 Z5.000000

(End cutting path id: path4701)


(Start cutting path id: path4701)
(vplot gcode)
(Change tool to Default tool)

G00 Z5.000000
G00 X1035.115933 Y676.358494

G01 Z-1.000000 F100.0(Penetrate)
G03 X1031.811250 Y695.250035 Z-1.000000 I-55.650009 J0.000000 F400.000000
G03 X1023.953818 Y707.286860 Z-1.000000 I-29.405897 J-10.612652
G03 X1011.575305 Y714.779734 Z-1.000000 I-22.687864 J-23.509894
G03 X991.785254 Y717.983873 Z-1.000000 I-19.790050 J-59.513579
G01 X970.778777 Y717.983873 Z-1.000000
G01 X970.778777 Y632.485215 Z-1.000000
G01 X995.118384 Y632.485215 Z-1.000000
G03 X1006.747342 Y633.916809 Z-1.000000 I-0.000000 J47.947305
G03 X1016.202359 Y637.756223 Z-1.000000 I-8.821407 J35.285533
G03 X1024.176477 Y644.125523 Z-1.000000 I-16.916240 J29.354771
G03 X1030.232501 Y652.949092 Z-1.000000 I-27.370022 J25.275363
G03 X1033.756745 Y663.187320 Z-1.000000 I-38.696128 J19.045814
G03 X1035.115933 Y676.358494 Z-1.000000 I-63.137830 J13.171174
G01 X1035.115933 Y676.358494 Z-1.000000
G00 Z5.000000

(End cutting path id: path4701)


(Start cutting path id: path4699)
(vplot gcode)
(Change tool to Default tool)

G00 Z5.000000
G00 X867.606770 Y620.625475

G01 Z-1.000000 F100.0(Penetrate)
G01 X867.606770 Y729.843613 Z-1.000000 F400.000000
G01 X882.412092 Y729.843613 Z-1.000000
G01 X882.412092 Y632.717766 Z-1.000000
G01 X937.602510 Y632.717766 Z-1.000000
G01 X937.602510 Y620.625475 Z-1.000000
G01 X867.606770 Y620.625475 Z-1.000000
G01 X867.606770 Y620.625475 Z-1.000000
G00 Z5.000000

(End cutting path id: path4699)


(Start cutting path id: path4697)
(vplot gcode)
(Change tool to Default tool)

G00 Z5.000000
G00 X830.089700 Y620.625475

G01 Z-1.000000 F100.0(Penetrate)
G01 X801.719339 Y665.971531 Z-1.000000 F400.000000
G01 X767.690395 Y665.971531 Z-1.000000
G01 X767.690395 Y620.625475 Z-1.000000
G01 X752.885101 Y620.625475 Z-1.000000
G01 X752.885101 Y729.843613 Z-1.000000
G01 X804.277317 Y729.843613 Z-1.000000
G02 X821.821942 Y727.338175 Z-1.000000 I0.000000 J-62.681881
G02 X832.725176 Y721.549553 Z-1.000000 I-8.512187 J-29.196016
G02 X839.990729 Y711.997857 Z-1.000000 I-16.186778 J-19.851707
G02 X842.802090 Y698.605197 Z-1.000000 I-30.494056 J-13.392660
G02 X840.863974 Y687.154057 Z-1.000000 I-34.797951 J-0.000000
G02 X835.670758 Y678.141348 Z-1.000000 I-26.358636 J9.185574
G02 X827.599142 Y671.628550 Z-1.000000 I-21.235843 J18.060409
G02 X816.137057 Y667.676858 Z-1.000000 I-17.989436 J33.580258
G01 X847.142922 Y620.625475 Z-1.000000
G01 X830.089700 Y620.625475 Z-1.000000
G01 X830.089700 Y620.625475 Z-1.000000
G00 Z5.000000

(End cutting path id: path4697)


(Start cutting path id: path4697)
(vplot gcode)
(Change tool to Default tool)

G00 Z5.000000
G00 X827.919270 Y698.450172

G01 Z-1.000000 F100.0(Penetrate)
G03 X826.072236 Y707.069698 Z-1.000000 I-21.035822 J-0.000000 F400.000000
G03 X821.408065 Y712.945416 Z-1.000000 I-13.897157 J-6.242547
G03 X814.440385 Y716.436066 Z-1.000000 I-12.096420 J-15.446230
G03 X802.804540 Y717.983873 Z-1.000000 I-11.635845 J-42.963101
G01 X767.690395 Y717.983873 Z-1.000000
G01 X767.690395 Y677.676246 Z-1.000000
G01 X803.424639 Y677.676246 Z-1.000000
G03 X814.527578 Y679.308045 Z-1.000000 I0.000000 J38.588697
G03 X821.485563 Y683.102278 Z-1.000000 I-5.537430 J18.431718
G03 X826.107227 Y689.440322 Z-1.000000 I-11.036480 J12.901805
G03 X827.919270 Y698.450172 Z-1.000000 I-21.493398 J9.009851
G01 X827.919270 Y698.450172 Z-1.000000
G00 Z5.000000

(End cutting path id: path4697)


(Start cutting path id: path4695)
(vplot gcode)
(Change tool to Default tool)

G00 Z5.000000
G00 X732.343726 Y675.738395

G01 Z-1.000000 F100.0(Penetrate)
G02 X730.532008 Y659.044521 Z-1.000000 I-77.817756 J0.000000 F400.000000
G02 X725.754966 Y645.740233 Z-1.000000 I-53.863770 J11.830573
G02 X717.716803 Y634.333188 Z-1.000000 I-42.969807 J21.743750
G02 X706.996417 Y625.973981 Z-1.000000 I-33.150426 J31.460385
G02 X694.250246 Y620.977222 Z-1.000000 I-24.181555 J42.929022
G02 X678.083456 Y619.075172 Z-1.000000 I-16.166791 J67.755140
G02 X661.753710 Y620.965526 Z-1.000000 I0.000000 J71.477095
G02 X649.015470 Y625.896483 Z-1.000000 I11.274512 J48.044627
G02 X638.385051 Y634.186101 Z-1.000000 I21.846951 J38.976948
G02 X630.411945 Y645.585180 Z-1.000000 I34.583720 J32.677585
G02 X625.749762 Y658.946106 Z-1.000000 I50.612828 J25.154800
G02 X623.978238 Y675.738395 Z-1.000000 I78.701360 J16.792289
G02 X628.147116 Y700.243990 Z-1.000000 I74.109111 J0.000000
G02 X638.318457 Y716.666121 Z-1.000000 I42.235831 J-14.798552
G02 X654.465837 Y727.205069 Z-1.000000 I31.299502 J-30.316241
G02 X678.238480 Y731.471414 Z-1.000000 I23.772643 J-64.098998
G02 X694.435074 Y729.628424 Z-1.000000 I-0.000000 J-72.091083
G02 X707.151470 Y724.805156 Z-1.000000 I-11.274364 J-48.899330
G02 X717.865285 Y716.717166 Z-1.000000 I-20.854893 J-38.765648
G02 X725.832493 Y705.581533 Z-1.000000 I-32.843594 J-31.916560
G02 X730.535567 Y692.508137 Z-1.000000 I-47.448283 J-24.451880
G02 X732.343726 Y675.738395 Z-1.000000 I-76.861273 J-16.769741
G01 X732.343726 Y675.738395 Z-1.000000
G00 Z5.000000

(End cutting path id: path4695)


(Start cutting path id: path4695)
(vplot gcode)
(Change tool to Default tool)

G00 Z5.000000
G00 X717.228356 Y675.738395

G01 Z-1.000000 F100.0(Penetrate)
G03 X714.226319 Y694.991933 Z-1.000000 I-63.242223 J-0.000000 F400.000000
G03 X706.996417 Y707.751934 Z-1.000000 I-34.123350 J-10.906261
G03 X695.331459 Y716.054403 Z-1.000000 I-23.221111 J-20.279771
G03 X678.238480 Y719.379123 Z-1.000000 I-17.092978 J-42.276667
G03 X660.956380 Y716.083981 Z-1.000000 I0.000000 J-46.967463
G03 X649.248021 Y707.906959 Z-1.000000 I11.387217 J-28.775796
G03 X642.048861 Y695.278826 Z-1.000000 I25.997679 J-23.187138
G03 X639.016082 Y675.738395 Z-1.000000 I61.433871 J-19.540431
G03 X642.013311 Y656.301261 Z-1.000000 I64.523864 J-0.000000
G03 X649.325519 Y643.104729 Z-1.000000 I36.207395 J11.438428
G03 X661.255625 Y634.463900 Z-1.000000 I24.326570 J21.030723
G03 X678.083456 Y631.089964 Z-1.000000 I16.827830 J40.278249
G03 X695.464751 Y634.445600 Z-1.000000 I0.000000 J46.693044
G03 X707.073943 Y642.717153 Z-1.000000 I-11.270199 J28.100392
G03 X714.195022 Y655.554273 Z-1.000000 I-26.832021 J23.278089
G03 X717.228356 Y675.738395 Z-1.000000 I-65.636964 J20.184122
G01 X717.228356 Y675.738395 Z-1.000000
G00 Z5.000000

(End cutting path id: path4695)


(Start cutting path id: path4693)
(vplot gcode)
(Change tool to Default tool)

G00 Z5.000000
G00 X583.825653 Y620.625475

G01 Z-1.000000 F100.0(Penetrate)
G01 X566.152313 Y620.625475 Z-1.000000 F400.000000
G01 X547.238739 Y690.001088 Z-1.000000
G02 X545.542026 Y696.552991 Z-1.000000 I130.681101 J37.337457
G02 X541.812712 Y713.332992 Z-1.000000 I853.911454 J198.584165
G02 X539.785934 Y704.343899 Z-1.000000 I-3544.337385 J794.421383
G02 X538.402067 Y698.295147 Z-1.000000 I-1606.232342 J364.300027
G02 X536.888916 Y692.278871 Z-1.000000 I-154.215895 J35.588366
G02 X517.240568 Y620.625475 Z-1.000000 I-21903.476480 J5967.714122
G01 X499.567228 Y620.625475 Z-1.000000
G01 X467.398650 Y729.843613 Z-1.000000
G01 X482.824065 Y729.843613 Z-1.000000
G01 X502.435269 Y660.468000 Z-1.000000
G02 X505.751199 Y647.404111 Z-1.000000 I-495.461693 J-132.712900
G02 X508.868985 Y633.647942 Z-1.000000 I-546.256046 J-131.038348
G02 X510.773843 Y642.164392 Z-1.000000 I815.011235 J-177.820731
G02 X513.132293 Y652.251438 Z-1.000000 I1145.705255 J-262.557882
G02 X515.760950 Y662.289199 Z-1.000000 I341.091003 J-83.960759
G02 X534.681365 Y729.843613 Z-1.000000 I15471.574362 J-4296.800246
G01 X548.866546 Y729.843613 Z-1.000000
G01 X567.857635 Y661.863278 Z-1.000000
G02 X572.051024 Y645.162590 Z-1.000000 I-946.966060 J-246.651274
G02 X574.678923 Y633.647942 Z-1.000000 I-447.491292 J-108.184684
G01 X575.376554 Y636.360944 Z-1.000000
G02 X577.471609 Y645.274622 Z-1.000000 I18389.802646 J-4317.570538
G02 X578.787198 Y650.856188 Z-1.000000 I7211.975172 J-1696.942910
G02 X580.218284 Y656.485747 Z-1.000000 I140.478934 J-32.714356
G02 X600.568816 Y729.843613 Z-1.000000 I23884.294611 J-6586.346823
G01 X615.994228 Y729.843613 Z-1.000000
G01 X583.825653 Y620.625475 Z-1.000000
G01 X583.825653 Y620.625475 Z-1.000000
G00 Z5.000000

(End cutting path id: path4693)


(Start cutting path id: path4691)
(vplot gcode)
(Change tool to Default tool)

G00 Z5.000000
G00 X980.080539 Y874.175896

G01 Z-1.000000 F100.0(Penetrate)
G02 X978.268821 Y857.482022 Z-1.000000 I-77.817756 J0.000000 F400.000000
G02 X973.491779 Y844.177734 Z-1.000000 I-53.863770 J11.830573
G02 X965.453639 Y832.770691 Z-1.000000 I-42.969652 J21.743577
G02 X954.733258 Y824.411482 Z-1.000000 I-33.150360 J31.460275
G02 X941.987087 Y819.414724 Z-1.000000 I-24.181536 J42.928987
G02 X925.820269 Y817.512673 Z-1.000000 I-16.166819 J67.755322
G02 X909.490523 Y819.403027 Z-1.000000 I0.000000 J71.477095
G02 X896.752283 Y824.333984 Z-1.000000 I11.274512 J48.044627
G02 X886.121869 Y832.623605 Z-1.000000 I21.846893 J38.976844
G02 X878.148786 Y844.022681 Z-1.000000 I34.583590 J32.677413
G02 X873.486582 Y857.383610 Z-1.000000 I50.612649 J25.154822
G02 X871.715051 Y874.175896 Z-1.000000 I78.700999 J16.792286
G02 X875.883929 Y898.681491 Z-1.000000 I74.109111 J0.000000
G02 X886.055270 Y915.103622 Z-1.000000 I42.235831 J-14.798552
G02 X902.202675 Y925.642573 Z-1.000000 I31.299560 J-30.316357
G02 X925.975322 Y929.908915 Z-1.000000 I23.772646 J-64.099052
G02 X942.171887 Y928.065927 Z-1.000000 I-0.000000 J-72.090893
G02 X954.888283 Y923.242657 Z-1.000000 I-11.274383 J-48.899366
G02 X965.602098 Y915.154667 Z-1.000000 I-20.854893 J-38.765648
G02 X973.569306 Y904.019034 Z-1.000000 I-32.843594 J-31.916560
G02 X978.272380 Y890.945638 Z-1.000000 I-47.448283 J-24.451880
G02 X980.080539 Y874.175896 Z-1.000000 I-76.861273 J-16.769741
G01 X980.080539 Y874.175896 Z-1.000000
G00 Z5.000000

(End cutting path id: path4691)


(Start cutting path id: path4691)
(vplot gcode)
(Change tool to Default tool)

G00 Z5.000000
G00 X964.965169 Y874.175896

G01 Z-1.000000 F100.0(Penetrate)
G03 X961.963139 Y893.429439 Z-1.000000 I-63.242398 J-0.000000 F400.000000
G03 X954.733258 Y906.189435 Z-1.000000 I-34.123370 J-10.906237
G03 X943.068276 Y914.491909 Z-1.000000 I-23.221185 J-20.279893
G03 X925.975322 Y917.816624 Z-1.000000 I-17.092955 J-42.276609
G03 X908.693194 Y914.521480 Z-1.000000 I0.000000 J-46.967576
G03 X896.984834 Y906.344460 Z-1.000000 I11.387199 J-28.775778
G03 X889.785674 Y893.716327 Z-1.000000 I25.997679 J-23.187138
G03 X886.752895 Y874.175896 Z-1.000000 I61.433871 J-19.540431
G03 X889.750131 Y854.738767 Z-1.000000 I64.523687 J0.000000
G03 X897.062360 Y841.542230 Z-1.000000 I36.207371 J11.438452
G03 X908.992465 Y832.901399 Z-1.000000 I24.326588 J21.030739
G03 X925.820269 Y829.527465 Z-1.000000 I16.827803 J40.278145
G03 X943.201587 Y832.883106 Z-1.000000 I0.000000 J46.693107
G03 X954.810756 Y841.154654 Z-1.000000 I-11.270149 J28.100269
G03 X961.931835 Y853.991774 Z-1.000000 I-26.832021 J23.278089
G03 X964.965169 Y874.175896 Z-1.000000 I-65.636964 J20.184122
G01 X964.965169 Y874.175896 Z-1.000000
G00 Z5.000000

(End cutting path id: path4691)


(Start cutting path id: path4689)
(vplot gcode)
(Change tool to Default tool)

G00 Z5.000000
G00 X788.851897 Y819.062976

G01 Z-1.000000 F100.0(Penetrate)
G01 X788.851897 Y928.281114 Z-1.000000 F400.000000
G01 X803.657190 Y928.281114 Z-1.000000
G01 X803.657190 Y831.155267 Z-1.000000
G01 X858.847637 Y831.155267 Z-1.000000
G01 X858.847637 Y819.062976 Z-1.000000
G01 X788.851897 Y819.062976 Z-1.000000
G01 X788.851897 Y819.062976 Z-1.000000
G00 Z5.000000

(End cutting path id: path4689)


(Start cutting path id: path4687)
(vplot gcode)
(Change tool to Default tool)

G00 Z5.000000
G00 X700.485212 Y819.062976

G01 Z-1.000000 F100.0(Penetrate)
G01 X700.485212 Y928.281114 Z-1.000000 F400.000000
G01 X715.290505 Y928.281114 Z-1.000000
G01 X715.290505 Y831.155267 Z-1.000000
G01 X770.480923 Y831.155267 Z-1.000000
G01 X770.480923 Y819.062976 Z-1.000000
G01 X700.485212 Y819.062976 Z-1.000000
G01 X700.485212 Y819.062976 Z-1.000000
G00 Z5.000000

(End cutting path id: path4687)


(Start cutting path id: path4685)
(vplot gcode)
(Change tool to Default tool)

G00 Z5.000000
G00 X594.445158 Y819.062976

G01 Z-1.000000 F100.0(Penetrate)
G01 X594.445158 Y928.281114 Z-1.000000 F400.000000
G01 X677.308332 Y928.281114 Z-1.000000
G01 X677.308332 Y916.188823 Z-1.000000
G01 X609.250443 Y916.188823 Z-1.000000
G01 X609.250443 Y881.152204 Z-1.000000
G01 X672.657451 Y881.152204 Z-1.000000
G01 X672.657451 Y869.214966 Z-1.000000
G01 X609.250443 Y869.214966 Z-1.000000
G01 X609.250443 Y831.155267 Z-1.000000
G01 X680.486409 Y831.155267 Z-1.000000
G01 X680.486409 Y819.062976 Z-1.000000
G01 X594.445158 Y819.062976 Z-1.000000
G01 X594.445158 Y819.062976 Z-1.000000
G00 Z5.000000

(End cutting path id: path4685)


(Start cutting path id: path4683)
(vplot gcode)
(Change tool to Default tool)

G00 Z5.000000
G00 X553.594939 Y819.062976

G01 Z-1.000000 F100.0(Penetrate)
G01 X553.594939 Y869.680040 Z-1.000000 F400.000000
G01 X494.528777 Y869.680040 Z-1.000000
G01 X494.528777 Y819.062976 Z-1.000000
G01 X479.723478 Y819.062976 Z-1.000000
G01 X479.723478 Y928.281114 Z-1.000000
G01 X494.528777 Y928.281114 Z-1.000000
G01 X494.528777 Y882.082380 Z-1.000000
G01 X553.594939 Y882.082380 Z-1.000000
G01 X553.594939 Y928.281114 Z-1.000000
G01 X568.400235 Y928.281114 Z-1.000000
G01 X568.400235 Y819.062976 Z-1.000000
G01 X553.594939 Y819.062976 Z-1.000000
G01 X553.594939 Y819.062976 Z-1.000000
G00 Z5.000000

(End cutting path id: path4683)


(Footer)
M5
G00 X0.0000 Y0.0000
M2
(Using default footer. To add your own footer create file "footer" in the output dir.)
(end)
%