%
(Header)
(Generated by gcodetools from Inkscape.)
(Using default header. To add your own header create file "header" in the output dir.)
M3
(Header end.)
G21 (All units in mm)

(Start cutting path id: path3336)
(vplot gcode)
(Change tool to Default tool)

G00 Z5.000000
G00 X800.133875 Y751.380801

G01 Z-1.000000 F100.0(Penetrate)
G02 X800.339507 Y751.270957 Z-1.000000 I-8.925612 J-16.956564 F400.000000
G02 X800.543303 Y751.158892 Z-1.000000 I-9.135406 J-16.854399
G02 X800.745748 Y751.044369 Z-1.000000 I-9.344028 J-16.753840
G02 X800.946337 Y750.927669 Z-1.000000 I-9.564893 J-16.671424
G02 X801.145512 Y750.808590 Z-1.000000 I-9.805404 J-16.626826
G02 X801.342864 Y750.687385 Z-1.000000 I-10.160807 J-16.765528
G02 X801.538761 Y750.563850 Z-1.000000 I-10.280712 J-16.519874
G02 X801.732835 Y750.438247 Z-1.000000 I-10.691832 J-16.733173
G02 X801.925402 Y750.310378 Z-1.000000 I-10.790010 J-16.458321
G02 X802.116114 Y750.180507 Z-1.000000 I-11.102935 J-16.509419
G02 X802.305324 Y750.048429 Z-1.000000 I-11.173111 J-16.207683
G02 X802.492654 Y749.914396 Z-1.000000 I-11.524633 J-16.305247
G02 X802.678451 Y749.778238 Z-1.000000 I-11.630045 J-16.064820
G02 X802.862362 Y749.640186 Z-1.000000 I-12.051474 J-16.246311
G02 X803.044701 Y749.500041 Z-1.000000 I-12.213856 J-16.079916
G02 X803.225146 Y749.358064 Z-1.000000 I-12.445975 J-16.003780
G02 X803.403969 Y749.214083 Z-1.000000 I-12.603020 J-15.835884
G02 X803.580915 Y749.068324 Z-1.000000 I-13.146076 J-16.139062
G02 X803.756203 Y748.920593 Z-1.000000 I-13.272750 J-15.926416
G02 X803.929574 Y748.771155 Z-1.000000 I-13.328113 J-15.637976
G02 X804.101279 Y748.619819 Z-1.000000 I-13.501095 J-15.491325
G02 X804.271033 Y748.466827 Z-1.000000 I-13.801230 J-15.484080
G02 X804.439122 Y748.312006 Z-1.000000 I-13.924820 J-15.286679
G02 X804.605245 Y748.155594 Z-1.000000 I-14.309670 J-15.364599
G02 X804.769664 Y747.997368 Z-1.000000 I-14.633194 J-15.370484
G02 X804.932095 Y747.837642 Z-1.000000 I-14.652453 J-15.063031
G02 X805.092791 Y747.676170 Z-1.000000 I-14.922980 J-15.012046
G02 X805.251490 Y747.513244 Z-1.000000 I-15.126132 J-14.892373
G02 X805.408418 Y747.348652 Z-1.000000 I-15.405484 J-14.845305
G02 X805.563339 Y747.182650 Z-1.000000 I-15.376692 J-14.505516
G02 X805.716484 Y747.015015 Z-1.000000 I-15.878051 J-14.659363
G02 X805.867571 Y746.846072 Z-1.000000 I-15.727148 J-14.216876
G02 X806.016884 Y746.675539 Z-1.000000 I-16.089654 J-14.238263
G02 X806.164094 Y746.503779 Z-1.000000 I-16.149349 J-13.990095
G02 X806.309516 Y746.330452 Z-1.000000 I-16.454943 J-13.953396
G02 X806.452840 Y746.155962 Z-1.000000 I-16.754819 J-13.908282
G02 X806.594318 Y745.980007 Z-1.000000 I-16.784303 J-13.640398
G02 X806.733692 Y745.802912 Z-1.000000 I-16.884435 J-13.431552
G02 X806.871204 Y745.624391 Z-1.000000 I-17.129421 J-13.336685
G02 X807.006560 Y745.444840 Z-1.000000 I-17.192476 J-13.101425
G02 X807.140050 Y745.263912 Z-1.000000 I-17.358888 J-12.947287
G02 X807.271395 Y745.081995 Z-1.000000 I-17.700640 J-12.918354
G02 X807.400826 Y744.898741 Z-1.000000 I-17.689565 J-12.631360
G02 X807.528061 Y744.714609 Z-1.000000 I-17.919117 J-12.518049
G02 X807.653405 Y744.529167 Z-1.000000 I-17.930301 J-12.254601
G02 X807.776510 Y744.342933 Z-1.000000 I-18.024877 J-12.048593
G02 X807.897707 Y744.155424 Z-1.000000 I-18.041343 J-11.794015
G02 X808.016651 Y743.967175 Z-1.000000 I-18.309979 J-11.700725
G02 X808.133653 Y743.777732 Z-1.000000 I-18.209143 J-11.377072
G02 X808.248367 Y743.587608 Z-1.000000 I-18.242384 J-11.136495
G02 X808.361134 Y743.396340 Z-1.000000 I-18.386746 J-10.969193
G02 X808.471614 Y743.204463 Z-1.000000 I-18.729134 J-10.911704
G02 X808.580097 Y743.011480 Z-1.000000 I-18.741175 J-10.662182
G02 X808.686275 Y742.817969 Z-1.000000 I-18.740338 J-10.408482
G02 X808.790429 Y742.623397 Z-1.000000 I-19.166205 J-10.384826
G02 X808.892258 Y742.428377 Z-1.000000 I-18.639382 J-9.856591
G02 X808.992059 Y742.232328 Z-1.000000 I-18.841200 J-9.714677
G02 X809.089494 Y742.035918 Z-1.000000 I-18.954668 J-9.525496
G02 X809.184884 Y741.838520 Z-1.000000 I-18.940111 J-9.274248
G02 X809.277891 Y741.640843 Z-1.000000 I-19.051952 J-9.084695
G02 X809.368833 Y741.442197 Z-1.000000 I-18.816786 J-8.734681
G02 X809.457356 Y741.243361 Z-1.000000 I-19.050967 J-8.600701
G02 X809.543803 Y741.043622 Z-1.000000 I-19.181303 J-8.420221
G02 X809.627820 Y740.843745 Z-1.000000 I-18.663848 J-7.962830
G02 X809.936941 Y740.063258 Z-1.000000 I-24.910994 J-10.317731
G02 X810.215859 Y739.289564 Z-1.000000 I-24.755073 J-9.361384
G02 X810.470495 Y738.507523 Z-1.000000 I-24.822133 J-8.514670
G02 X810.696533 Y737.731595 Z-1.000000 I-24.692049 J-7.613997
G02 X810.898167 Y736.948936 Z-1.000000 I-24.781754 J-6.801757
G02 X811.072634 Y736.171701 Z-1.000000 I-24.810075 J-5.977343
G02 X811.222702 Y735.389355 Z-1.000000 I-24.939111 J-5.189337
G02 X811.346886 Y734.611723 Z-1.000000 I-24.986127 J-4.388889
G02 X811.446907 Y733.830601 Z-1.000000 I-25.105897 J-3.611737
G02 X811.522127 Y733.053566 Z-1.000000 I-25.307485 J-2.842021
G02 X811.573528 Y732.274561 Z-1.000000 I-25.454712 J-2.070760
G02 X811.601082 Y731.499050 Z-1.000000 I-25.686125 J-1.300873
G02 X811.605314 Y730.723044 Z-1.000000 I-25.754100 J-0.528485
G02 X811.586542 Y729.950060 Z-1.000000 I-26.349664 J0.253203
G02 X811.545083 Y729.177939 Z-1.000000 I-26.298967 J1.024943
G02 X811.481300 Y728.408436 Z-1.000000 I-26.811916 J1.835008
G02 X811.395562 Y727.641079 Z-1.000000 I-26.975516 J2.625543
G02 X811.288149 Y726.876084 Z-1.000000 I-27.405093 J3.457922
G02 X811.159544 Y726.114333 Z-1.000000 I-27.625396 J4.272186
G02 X811.009835 Y725.354804 Z-1.000000 I-28.110068 J5.146212
G02 X810.839774 Y724.599576 Z-1.000000 I-28.345773 J5.986100
G02 X810.649151 Y723.846520 Z-1.000000 I-28.881522 J6.910200
G02 X810.439043 Y723.098643 Z-1.000000 I-29.025823 J7.751051
G02 X810.208866 Y722.353054 Z-1.000000 I-29.638059 J8.741470
G02 X809.960095 Y721.613433 Z-1.000000 I-29.815445 J9.616744
G02 X809.691773 Y720.876269 Z-1.000000 I-30.422377 J10.656094
G02 X809.405697 Y720.145785 Z-1.000000 I-30.652324 J11.582967
G02 X809.100595 Y719.418026 Z-1.000000 I-31.145485 J12.629430
G02 X808.778644 Y718.697584 Z-1.000000 I-31.311393 J13.560277
G02 X808.438172 Y717.980210 Z-1.000000 I-31.883327 J14.692645
G02 X808.081682 Y717.270672 Z-1.000000 I-32.053528 J15.660193
G02 X807.707249 Y716.564663 Z-1.000000 I-32.521716 J16.795631
G02 X807.317609 Y715.866941 Z-1.000000 I-32.629451 J17.764142
G02 X806.910619 Y715.173267 Z-1.000000 I-33.126007 J18.969337
G02 X806.489184 Y714.488245 Z-1.000000 I-33.136288 J19.913777
G02 X806.051028 Y713.807844 Z-1.000000 I-33.610567 J21.162782
G02 X805.599186 Y713.136453 Z-1.000000 I-33.590898 J22.118745
G02 X805.131293 Y712.470298 Z-1.000000 I-33.913614 J23.322810
G02 X804.650400 Y711.813454 Z-1.000000 I-33.912636 J24.323859
G02 X804.154159 Y711.162472 Z-1.000000 I-34.125683 J25.499227
G02 X803.645576 Y710.521074 Z-1.000000 I-34.070566 J26.493225
G02 X803.122420 Y709.886227 Z-1.000000 I-34.223598 J27.669534
G02 X802.587536 Y709.261196 Z-1.000000 I-33.979703 J28.537506
G02 X802.038845 Y708.643406 Z-1.000000 I-34.126125 J29.756608
G02 X801.479017 Y708.035692 Z-1.000000 I-33.847446 J30.618654
G02 X800.906225 Y707.435912 Z-1.000000 I-33.877330 J31.779563
G02 X800.322818 Y706.846426 Z-1.000000 I-33.515636 J32.586527
G02 X799.727309 Y706.265589 Z-1.000000 I-33.356404 J33.603329
G02 X799.121703 Y705.695249 Z-1.000000 I-32.990741 J34.423997
G02 X798.504888 Y705.134277 Z-1.000000 I-32.648356 J35.278765
G02 X797.878469 Y704.584040 Z-1.000000 I-32.182256 J36.006336
G02 X797.241755 Y704.043860 Z-1.000000 I-31.895475 J36.950034
G02 X796.595898 Y703.514666 Z-1.000000 I-31.315921 J37.560975
G02 X795.940657 Y702.996200 Z-1.000000 I-30.778547 J38.224898
G02 X795.276722 Y702.488957 Z-1.000000 I-30.161301 J38.790195
G02 X794.604408 Y701.993161 Z-1.000000 I-29.574297 J39.399927
G02 X793.923779 Y701.508813 Z-1.000000 I-28.868612 J39.847106
G02 X793.235757 Y701.036585 Z-1.000000 I-28.176572 J40.315128
G02 X792.539814 Y700.576093 Z-1.000000 I-27.488676 J40.787543
G02 X791.837471 Y700.128354 Z-1.000000 I-26.603270 J40.956351
G02 X791.127604 Y699.692641 Z-1.000000 I-25.877006 J41.362913
G02 X790.412344 Y699.270310 Z-1.000000 I-24.933522 J41.410624
G02 X789.689950 Y698.860341 Z-1.000000 I-24.165858 J41.740425
G02 X788.963168 Y698.464338 Z-1.000000 I-23.166385 J41.652218
G02 X787.121456 Y697.519160 Z-1.000000 I-30.338869 J56.849445
G02 X785.287735 Y696.651183 Z-1.000000 I-28.041342 J56.870194
G02 X783.427079 Y695.842530 Z-1.000000 I-26.037125 J57.364694
G02 X781.573737 Y695.106839 Z-1.000000 I-23.916354 J57.547463
G02 X779.697733 Y694.430905 Z-1.000000 I-21.990278 J58.091014
G02 X777.828420 Y693.824127 Z-1.000000 I-20.009008 J58.459399
G02 X775.940676 Y693.277140 Z-1.000000 I-18.114478 J58.985150
G02 X774.059008 Y692.795932 Z-1.000000 I-16.228068 J59.537031
G02 X772.163068 Y692.374135 Z-1.000000 I-14.363994 J60.092946
G02 X770.272748 Y692.015116 Z-1.000000 I-12.525022 J60.791240
G02 X768.372175 Y691.714761 Z-1.000000 I-10.668895 J61.346874
G02 X766.476887 Y691.474543 Z-1.000000 I-8.841952 J62.164898
G02 X764.575174 Y691.291910 Z-1.000000 I-6.983962 J62.729725
G02 X762.678671 Y691.167056 Z-1.000000 I-5.146387 J63.706302
G02 X760.779269 Y691.098464 Z-1.000000 I-3.271005 J64.245997
G02 X758.885326 Y691.085538 Z-1.000000 I-1.392736 J65.305497
G02 X756.991758 Y691.127297 Z-1.000000 I0.500460 J65.646389
G02 X755.104097 Y691.222852 Z-1.000000 I2.443860 J66.970175
G02 X753.219833 Y691.371365 Z-1.000000 I4.364958 J67.408191
G02 X751.342232 Y691.571842 Z-1.000000 I6.364681 J68.502342
G02 X749.470750 Y691.823492 Z-1.000000 I8.324433 J68.992214
G02 X747.606954 Y692.125370 Z-1.000000 I10.396035 J70.089763
G02 X745.751754 Y692.476573 Z-1.000000 I12.376310 J70.452245
G02 X743.905511 Y692.876320 Z-1.000000 I14.527827 J71.560625
G02 X742.070120 Y693.323506 Z-1.000000 I16.529158 J71.830912
G02 X740.245149 Y693.817555 Z-1.000000 I18.731008 J72.808166
G02 X738.433079 Y694.357140 Z-1.000000 I20.749893 J72.996289
G02 X736.633092 Y694.941898 Z-1.000000 I22.978924 J73.795755
G02 X734.847872 Y695.570379 Z-1.000000 I25.022741 J73.927584
G02 X733.076610 Y696.242274 Z-1.000000 I27.249152 J74.505421
G02 X731.321770 Y696.956077 Z-1.000000 I29.259203 J74.445884
G02 X729.582904 Y697.711483 Z-1.000000 I31.518198 J74.930648
G02 X727.862033 Y698.507105 Z-1.000000 I33.496693 J74.709701
G02 X726.159243 Y699.342431 Z-1.000000 I35.701596 J74.929960
G02 X724.475911 Y700.216315 Z-1.000000 I37.617150 J74.518837
G02 X722.812853 Y701.127939 Z-1.000000 I39.762346 J74.510437
G02 X721.170628 Y702.076603 Z-1.000000 I41.604116 J73.916321
G02 X719.550979 Y703.060912 Z-1.000000 I43.665332 J73.674604
G02 X717.953469 Y704.080810 Z-1.000000 I45.411169 J72.890563
G02 X716.380868 Y705.134193 Z-1.000000 I47.269723 J72.269771
G02 X714.831695 Y706.221781 Z-1.000000 I48.973040 J71.404892
G02 X713.309745 Y707.340644 Z-1.000000 I50.549247 J70.354929
G02 X711.812531 Y708.492400 Z-1.000000 I52.151753 J69.343177
G02 X710.344856 Y709.673129 Z-1.000000 I53.581530 J68.105702
G02 X708.903241 Y710.885504 Z-1.000000 I54.973801 J66.831714
G02 X707.493448 Y712.124511 Z-1.000000 I56.178119 J65.343326
G02 X706.111061 Y713.393976 Z-1.000000 I57.388863 J63.881164
G02 X704.762769 Y714.687653 Z-1.000000 I58.344648 J62.157219
G02 X703.443239 Y716.010650 Z-1.000000 I59.354150 J60.518108
G02 X702.160041 Y717.355399 Z-1.000000 I60.025069 J58.562307
G02 X700.907051 Y718.728366 Z-1.000000 I60.883154 J56.821049
G02 X699.692489 Y720.120651 Z-1.000000 I61.256692 J54.663289
G02 X698.509715 Y721.540009 Z-1.000000 I61.963152 J52.837386
G02 X697.367383 Y722.976234 Z-1.000000 I62.028064 J50.507784
G02 X696.258481 Y724.438403 Z-1.000000 I62.524910 J48.570136
G02 X695.191969 Y725.915029 Z-1.000000 I62.293767 J46.115935
G02 X694.160616 Y727.416407 Z-1.000000 I62.666629 J44.152999
G02 X693.173449 Y728.929880 Z-1.000000 I62.212224 J41.656770
G02 X692.223335 Y730.466877 Z-1.000000 I62.445308 J39.663499
G02 X691.319092 Y732.013671 Z-1.000000 I61.709291 J37.112449
G02 X690.453897 Y733.582634 Z-1.000000 I61.766075 J35.083576
G02 X689.636146 Y735.159265 Z-1.000000 I60.850436 J32.561671
G02 X688.859523 Y736.756548 Z-1.000000 I60.749328 J30.524686
G02 X688.131811 Y738.359504 Z-1.000000 I59.727070 J28.081631
G02 X687.051106 Y740.941384 Z-1.000000 I78.165667 J34.235143
G02 X686.078187 Y743.498284 Z-1.000000 I77.349655 J30.895661
G02 X685.190234 Y746.085934 Z-1.000000 I77.456998 J28.025577
G02 X684.404334 Y748.650416 Z-1.000000 I76.918319 J24.974712
G02 X683.704210 Y751.239628 Z-1.000000 I77.091720 J22.234889
G02 X683.100997 Y753.807592 Z-1.000000 I76.795158 J19.393972
G02 X682.583786 Y756.394263 Z-1.000000 I77.041705 J16.749709
G02 X682.158944 Y758.961545 Z-1.000000 I77.001802 J14.061304
G02 X681.819727 Y761.541559 Z-1.000000 I77.252903 J11.469408
G02 X681.568943 Y764.103966 Z-1.000000 I77.475876 J8.876076
G02 X681.402827 Y766.673304 Z-1.000000 I77.766957 J6.317914
G02 X681.321740 Y769.226588 Z-1.000000 I78.199473 J3.761390
G02 X681.323865 Y771.781229 Z-1.000000 I78.533200 J1.212005
G02 X681.408103 Y774.321124 Z-1.000000 I79.117074 J-1.352655
G02 X681.573645 Y776.857092 Z-1.000000 I79.458836 J-3.913483
G02 X681.818800 Y779.379285 Z-1.000000 I80.251834 J-6.527415
G02 X682.142961 Y781.892608 Z-1.000000 I80.589985 J-9.116694
G02 X682.544576 Y784.392784 Z-1.000000 I81.464959 J-11.803765
G02 X683.022618 Y786.879535 Z-1.000000 I81.770213 J-14.429805
G02 X683.576223 Y789.353312 Z-1.000000 I82.760933 J-17.222200
G02 X684.203406 Y791.809548 Z-1.000000 I83.022827 J-19.891108
G02 X684.904463 Y794.252623 Z-1.000000 I84.014353 J-22.786370
G02 X685.676135 Y796.674376 Z-1.000000 I84.260576 J-25.515107
G02 X686.520064 Y799.082387 Z-1.000000 I85.293865 J-28.540832
G02 X687.431572 Y801.465698 Z-1.000000 I85.382905 J-31.289110
G02 X688.413794 Y803.834358 Z-1.000000 I86.483842 J-34.474632
G02 X689.460524 Y806.175255 Z-1.000000 I86.473890 J-37.262251
G02 X690.576399 Y808.500228 Z-1.000000 I87.414141 J-40.524291
G02 X691.753766 Y810.794703 Z-1.000000 I87.309243 J-43.351829
G02 X692.998669 Y813.071688 Z-1.000000 I88.157322 J-46.719706
G02 X694.302075 Y815.315755 Z-1.000000 I87.878319 J-49.541215
G02 X695.671350 Y817.540491 Z-1.000000 I88.544933 J-52.963661
G02 X697.096206 Y819.730086 Z-1.000000 I88.157854 J-55.809403
G02 X698.585188 Y821.898350 Z-1.000000 I88.591104 J-59.241528
G02 X700.126943 Y824.029414 Z-1.000000 I88.021766 J-62.057659
G02 X701.730949 Y826.136935 Z-1.000000 I88.289356 J-65.531687
G02 X703.385044 Y828.205415 Z-1.000000 I87.555727 J-68.319801
G02 X705.099404 Y830.248001 Z-1.000000 I87.460215 J-71.665392
G02 X706.861274 Y832.249794 Z-1.000000 I86.565186 J-74.413765
G02 X708.681319 Y834.223238 Z-1.000000 I86.226450 J-77.697932
G02 X710.546364 Y836.154240 Z-1.000000 I85.055133 J-80.283712
G02 X712.467441 Y838.054379 Z-1.000000 I84.470885 J-83.480494
G02 X714.431100 Y839.910457 Z-1.000000 I83.155171 J-86.008192
G02 X716.448514 Y841.733116 Z-1.000000 I82.209112 J-88.965502
G02 X718.506230 Y843.510160 Z-1.000000 I80.664509 J-91.325042
G02 X720.615329 Y845.251161 Z-1.000000 I79.477367 J-94.133197
G02 X722.762491 Y846.945024 Z-1.000000 I77.741728 J-96.338554
G02 X724.958632 Y848.600246 Z-1.000000 I76.209348 J-98.829676
G02 X727.190646 Y850.206777 Z-1.000000 I74.308734 J-100.886126
G02 X729.469192 Y851.772085 Z-1.000000 I72.521432 J-103.125034
G02 X731.781459 Y853.287120 Z-1.000000 I70.430594 J-104.970103
G02 X734.137752 Y854.758368 Z-1.000000 I68.430886 J-106.973742
G02 X736.525646 Y856.177751 Z-1.000000 I66.146548 J-108.563087
G02 X738.955082 Y857.550829 Z-1.000000 I63.933171 J-110.283507
G02 X741.413998 Y858.870395 Z-1.000000 I61.529644 J-111.705204
G02 X743.911950 Y860.141158 Z-1.000000 I59.057199 J-112.998885
G02 X746.437221 Y861.356739 Z-1.000000 I56.564422 J-114.277216
G02 X748.999101 Y862.521110 Z-1.000000 I53.959448 J-115.322457
G02 X751.586098 Y863.628519 Z-1.000000 I51.349157 J-116.380324
G02 X754.207303 Y864.682354 Z-1.000000 I48.612842 J-117.127966
G02 X756.851377 Y865.677462 Z-1.000000 I45.883303 J-117.904971
G02 X759.527324 Y866.616625 Z-1.000000 I43.046382 J-118.369785
G02 X762.223774 Y867.495247 Z-1.000000 I40.268595 J-119.005399
G02 X764.949910 Y868.315634 Z-1.000000 I37.358554 J-119.202503
G02 X768.767169 Y869.361854 Z-1.000000 I40.912104 J-141.785755
G02 X772.560442 Y870.293227 Z-1.000000 I36.840100 J-141.851093
G02 X776.377236 Y871.123048 Z-1.000000 I32.975469 J-142.479232
G02 X780.170120 Y871.842552 Z-1.000000 I29.033119 J-142.691968
G02 X783.980762 Y872.461200 Z-1.000000 I25.208651 J-143.230713
G02 X787.767381 Y872.973655 Z-1.000000 I21.371219 J-143.669260
G02 X791.566183 Y873.386294 Z-1.000000 I17.581383 J-144.163813
G02 X795.340663 Y873.696540 Z-1.000000 I13.789492 J-144.648944
G02 X799.121984 Y873.908334 Z-1.000000 I10.024594 J-145.115323
G02 X802.878425 Y874.021231 Z-1.000000 I6.257705 J-145.663064
G02 X806.636586 Y874.037328 Z-1.000000 I2.504663 J-146.045179
G02 X810.369106 Y873.957753 Z-1.000000 I-1.258005 J-146.586434
G02 X814.098452 Y873.783271 Z-1.000000 I-5.003077 J-146.876713
G02 X817.801142 Y873.516132 Z-1.000000 I-8.776127 J-147.436452
G02 X821.496029 Y873.156155 Z-1.000000 I-12.516321 J-147.612995
G02 X825.162994 Y872.706372 Z-1.000000 I-16.303006 J-148.086860
G02 X828.817739 Y872.165980 Z-1.000000 I-20.036670 J-148.139569
G02 X832.443075 Y871.538518 Z-1.000000 I-23.849755 J-148.585648
G02 X836.052044 Y870.822773 Z-1.000000 I-27.556310 J-148.402498
G02 X839.629847 Y870.022595 Z-1.000000 I-31.389730 J-148.750384
G02 X843.187360 Y869.136509 Z-1.000000 I-35.085091 J-148.446165
G02 X846.711723 Y868.168587 Z-1.000000 I-38.893051 J-148.516430
G02 X850.212139 Y867.117200 Z-1.000000 I-42.549548 J-148.014197
G02 X853.677187 Y865.986539 Z-1.000000 I-46.348407 J-147.915255
G02 X857.114771 Y864.774862 Z-1.000000 I-49.965295 J-147.235963
G02 X860.514653 Y863.486476 Z-1.000000 I-53.707381 J-146.856913
G02 X863.883746 Y862.119508 Z-1.000000 I-57.238088 J-145.906948
G02 X867.212580 Y860.678424 Z-1.000000 I-60.939849 J-145.333346
G02 X870.507416 Y859.161172 Z-1.000000 I-64.394757 J-144.174530
G02 X873.759408 Y857.572386 Z-1.000000 I-67.938071 J-143.180955
G02 X876.974293 Y855.909826 Z-1.000000 I-71.301634 J-141.815294
G02 X880.143549 Y854.178386 Z-1.000000 I-74.710669 J-140.517897
G02 X883.272763 Y852.375523 Z-1.000000 I-77.926491 J-138.873434
G02 X886.353487 Y850.506472 Z-1.000000 I-81.187097 J-137.292763
G02 X889.391228 Y848.568290 Z-1.000000 I-84.288452 J-135.456167
G02 X892.377660 Y846.566626 Z-1.000000 I-87.302580 J-133.481881
G02 X895.318178 Y844.498126 Z-1.000000 I-90.226502 J-131.387656
G02 X898.204481 Y842.368894 Z-1.000000 I-93.020931 J-129.116378
G02 X901.041989 Y840.175084 Z-1.000000 I-95.779610 J-126.814789
G02 X903.822410 Y837.923280 Z-1.000000 I-98.246002 J-124.152006
G02 X906.551149 Y835.609162 Z-1.000000 I-100.827132 J-121.658204
G02 X909.219886 Y833.239830 Z-1.000000 I-102.999361 J-118.702730
G02 X911.834037 Y830.810428 Z-1.000000 I-105.393154 J-116.029182
G02 X914.385345 Y828.328548 Z-1.000000 I-107.216609 J-112.768143
G02 X916.879116 Y825.788881 Z-1.000000 I-109.422915 J-109.939631
G02 X919.307248 Y823.199459 Z-1.000000 I-110.949464 J-106.471778
G02 X921.674808 Y820.554570 Z-1.000000 I-112.867279 J-103.414777
G02 X923.974008 Y817.862566 Z-1.000000 I-114.169624 J-99.838386
G02 X926.209568 Y815.117522 Z-1.000000 I-115.827825 J-96.612841
G02 X928.374110 Y812.327937 Z-1.000000 I-116.835322 J-92.891411
G02 X930.471824 Y809.487788 Z-1.000000 I-118.346532 J-89.604695
G02 X932.495943 Y806.605555 Z-1.000000 I-118.910857 J-85.659937
G02 X934.450029 Y803.675388 Z-1.000000 I-120.213202 J-82.285095
G02 X936.328016 Y800.705445 Z-1.000000 I-120.654871 J-78.372523
G02 X938.132608 Y797.690382 Z-1.000000 I-121.715550 J-74.897442
G02 X939.858695 Y794.637631 Z-1.000000 I-121.872669 J-70.923635
G02 X941.508042 Y791.542789 Z-1.000000 I-122.733682 J-67.395852
G02 X943.076488 Y788.412139 Z-1.000000 I-122.675082 J-63.418070
G02 X944.564747 Y785.242664 Z-1.000000 I-123.434629 J-59.894154
G02 X945.969784 Y782.038994 Z-1.000000 I-123.170245 J-55.928843
G02 X947.291221 Y778.800021 Z-1.000000 I-123.763542 J-52.382122
G02 X948.527069 Y775.528219 Z-1.000000 I-123.377730 J-48.472409
G02 X949.675890 Y772.224901 Z-1.000000 I-123.854068 J-44.925114
G02 X950.736755 Y768.889821 Z-1.000000 I-123.458007 J-41.107401
G02 X951.993347 Y764.508882 Z-1.000000 I-143.561391 J-43.548617
G02 X953.096019 Y760.171654 Z-1.000000 I-142.279505 J-38.481119
G02 X954.066025 Y755.802832 Z-1.000000 I-142.255950 J-33.877075
G02 X954.888962 Y751.475442 Z-1.000000 I-141.387990 J-29.129584
G02 X955.579093 Y747.124866 Z-1.000000 I-141.370678 J-24.655651
G02 X956.128254 Y742.813490 Z-1.000000 I-140.810163 J-20.126318
G02 X956.545213 Y738.487283 Z-1.000000 I-140.873195 J-15.760554
G02 X956.826612 Y734.198126 Z-1.000000 I-140.576883 J-11.376624
G02 X956.977057 Y729.902334 Z-1.000000 I-140.680579 J-7.077391
G02 X956.996683 Y725.641656 Z-1.000000 I-140.666155 J-2.778343
G02 X956.887295 Y721.382304 Z-1.000000 I-140.708892 J1.482590
G02 X956.651186 Y717.156427 Z-1.000000 I-140.988646 J5.757834
G02 X956.288561 Y712.939475 Z-1.000000 I-141.030727 J10.003443
G02 X955.802812 Y708.754727 Z-1.000000 I-141.518168 J14.306329
G02 X955.193523 Y704.586115 Z-1.000000 I-141.540723 J18.558896
G02 X954.464232 Y700.448880 Z-1.000000 I-142.111823 J22.917864
G02 X953.614815 Y696.334566 Z-1.000000 I-142.105838 J27.193512
G02 X952.648141 Y692.251215 Z-1.000000 I-142.815272 J31.653328
G02 X951.565098 Y688.197120 Z-1.000000 I-142.678549 J35.944558
G02 X950.367255 Y684.174038 Z-1.000000 I-143.528533 J40.544706
G02 X949.057010 Y680.186109 Z-1.000000 I-143.332317 J44.883016
G02 X947.634221 Y676.229675 Z-1.000000 I-144.076891 J49.578025
G02 X946.103208 Y672.313826 Z-1.000000 I-143.762892 J53.950989
G02 X944.461757 Y668.430455 Z-1.000000 I-144.494110 J58.787224
G02 X942.716353 Y664.592644 Z-1.000000 I-144.018542 J63.182591
G02 X940.862532 Y660.788683 Z-1.000000 I-144.654401 J68.142139
G02 X938.909093 Y657.034854 Z-1.000000 I-144.002171 J72.551489
G02 X936.849240 Y653.316686 Z-1.000000 I-144.454046 J77.597397
G02 X934.694127 Y649.652850 Z-1.000000 I-143.633684 J82.021344
G02 X932.434598 Y646.026750 Z-1.000000 I-143.927001 J87.168048
G02 X930.084100 Y642.458925 Z-1.000000 I-142.893972 J91.581007
G02 X927.631254 Y638.931243 Z-1.000000 I-142.926864 J96.762402
G02 X925.091702 Y635.465430 Z-1.000000 I-141.647382 J101.127887
G02 X922.451925 Y632.042453 Z-1.000000 I-141.388684 J106.308650
G02 X919.729604 Y628.684705 Z-1.000000 I-139.870225 J110.618438
G02 X916.909280 Y625.372705 Z-1.000000 I-139.347294 J115.803979
G02 X914.010520 Y622.129096 Z-1.000000 I-137.523858 J119.985737
G02 X911.016037 Y618.934318 Z-1.000000 I-136.687559 J125.117224
G02 X907.947118 Y615.810933 Z-1.000000 I-134.626559 J129.209517
G02 X904.784842 Y612.739612 Z-1.000000 I-133.366186 J134.152105
G02 X901.552096 Y609.742550 Z-1.000000 I-131.048351 J138.111754
G02 X898.228437 Y606.800901 Z-1.000000 I-129.486876 J142.953903
G02 X894.838141 Y603.936277 Z-1.000000 I-126.930819 J146.784725
G02 X891.359468 Y601.130508 Z-1.000000 I-124.931419 J151.334195
G02 X887.817970 Y598.404457 Z-1.000000 I-122.125099 J154.993093
G02 X884.190629 Y595.740749 Z-1.000000 I-119.779494 J159.309712
G02 X880.504243 Y593.159403 Z-1.000000 I-116.731150 J162.779287
G02 X876.734636 Y590.643943 Z-1.000000 I-114.073404 J166.865316
G02 X872.909704 Y588.213450 Z-1.000000 I-110.765334 J170.089504
G02 X869.004161 Y585.852407 Z-1.000000 I-107.776107 J173.868186
G02 X865.047019 Y583.578919 Z-1.000000 I-104.259586 J176.889492
G02 X861.011897 Y581.378464 Z-1.000000 I-100.968216 J180.352200
G02 X856.928926 Y579.268141 Z-1.000000 I-97.228576 J183.109134
G02 X852.770514 Y577.234427 Z-1.000000 I-93.668389 J186.259009
G02 X848.568085 Y575.293424 Z-1.000000 I-89.747279 J188.790346
G02 X844.292730 Y573.432618 Z-1.000000 I-85.941034 J191.614686
G02 X839.977195 Y571.667083 Z-1.000000 I-81.848607 J193.907305
G02 X835.591237 Y569.985352 Z-1.000000 I-77.848389 J196.468616
G02 X831.169003 Y568.401448 Z-1.000000 I-73.587302 J198.489104
G02 X826.678684 Y566.904952 Z-1.000000 I-69.390541 J200.725231
G02 X822.156170 Y565.508824 Z-1.000000 I-64.995510 J202.518635
G02 X817.567787 Y564.203733 Z-1.000000 I-60.644871 J204.494323
G02 X812.951411 Y563.001523 Z-1.000000 I-56.128157 J206.062536
G02 X808.271239 Y561.894014 Z-1.000000 I-51.639740 J207.779604
G02 X802.471383 Y560.666518 Z-1.000000 I-51.736720 J230.137433
G02 X796.715361 Y559.598256 Z-1.000000 I-45.620760 J229.772843
G02 X790.934360 Y558.674369 Z-1.000000 I-39.748159 J230.166040
G02 X785.197657 Y557.904002 Z-1.000000 I-33.797945 J229.938714
G02 X779.443494 Y557.276874 Z-1.000000 I-28.005133 J230.246743
G02 X773.734281 Y556.797959 Z-1.000000 I-22.177325 J230.109747
G02 X768.014904 Y556.460757 Z-1.000000 I-16.448177 J230.309517
G02 X762.341390 Y556.266838 Z-1.000000 I-10.708877 J230.218435
G02 X756.664758 Y556.212755 Z-1.000000 I-5.032582 J230.285063
G02 X751.035115 Y556.297348 Z-1.000000 I0.643669 J230.202673
G02 X745.409175 Y556.519596 Z-1.000000 I6.273039 J230.112815
G02 X739.831613 Y556.876196 Z-1.000000 I11.903959 J229.986775
G02 X734.264319 Y557.368013 Z-1.000000 I17.488330 J229.721305
G02 X728.747062 Y557.990091 Z-1.000000 I23.083881 J229.510435
G02 X723.246329 Y558.744738 Z-1.000000 I28.620418 J229.043691
G02 X717.797594 Y559.625742 Z-1.000000 I34.179419 J228.678891
G02 X712.371375 Y560.636497 Z-1.000000 I39.667534 J228.025020
G02 X706.999342 Y561.769856 Z-1.000000 I45.177836 J227.437557
G02 X701.655603 Y563.030017 Z-1.000000 I50.605265 J226.552795
G02 X696.368485 Y564.409144 Z-1.000000 I56.060690 J225.742364
G02 X691.115189 Y565.912025 Z-1.000000 I61.408646 J224.585736
G02 X685.921178 Y567.530314 Z-1.000000 I66.791519 J223.516480
G02 X680.766273 Y569.269243 Z-1.000000 I72.039205 J222.064063
G02 X675.673553 Y571.120074 Z-1.000000 I77.321454 J220.688596
G02 X670.625044 Y573.088385 Z-1.000000 I82.462987 J218.967380
G02 X665.641767 Y575.165131 Z-1.000000 I87.601677 J217.222689
G02 X660.707640 Y577.356174 Z-1.000000 I92.618290 J215.223405
G02 X655.841974 Y579.652197 Z-1.000000 I97.574838 J213.081327
G02 X651.030250 Y582.059314 Z-1.000000 I102.447400 J210.800718
G02 X646.290307 Y584.567979 Z-1.000000 I107.204617 J208.287699
G02 X641.609041 Y587.184521 Z-1.000000 I111.895818 J205.689184
G02 X637.002968 Y589.899187 Z-1.000000 I116.420235 J202.799417
G02 X632.460155 Y592.718505 Z-1.000000 I120.902313 J199.881498
G02 X627.996043 Y595.632528 Z-1.000000 I125.157229 J196.609921
G02 X623.599793 Y598.647960 Z-1.000000 I129.441142 J193.426830
G02 X619.285734 Y601.754708 Z-1.000000 I133.399672 J189.788649
G02 X615.044079 Y604.959602 Z-1.000000 I137.427972 J186.294347
G02 X610.888174 Y608.252442 Z-1.000000 I141.053033 J182.292585
G02 X606.809209 Y611.640121 Z-1.000000 I144.854742 J178.563127
G02 X602.819517 Y615.112433 Z-1.000000 I148.118276 J174.216339
G02 X598.911309 Y618.676220 Z-1.000000 I151.633638 J170.213075
G02 X595.095896 Y622.321394 Z-1.000000 I154.576918 J165.615454
G02 X591.366569 Y626.054587 Z-1.000000 I157.849601 J161.415428
G02 X587.733491 Y629.866029 Z-1.000000 I160.371044 J156.503480
G02 X584.191137 Y633.761921 Z-1.000000 I163.371293 J152.104326
G02 X580.748432 Y637.733050 Z-1.000000 I165.600626 J147.042556
G02 X577.401159 Y641.784908 Z-1.000000 I168.312883 J142.453206
G02 X574.156877 Y645.909171 Z-1.000000 I170.150283 J137.184010
G02 X571.012787 Y650.110250 Z-1.000000 I172.599879 J132.450919
G02 X567.974980 Y654.381088 Z-1.000000 I174.171568 J127.102373
G02 X565.042172 Y658.724629 Z-1.000000 I176.355383 J122.239070
G02 X562.218921 Y663.135504 Z-1.000000 I177.559188 J116.758579
G02 X559.505461 Y667.614744 Z-1.000000 I179.580498 J111.848839
G02 X556.904785 Y672.159149 Z-1.000000 I180.504231 J106.315465
G02 X554.418782 Y676.767259 Z-1.000000 I182.277240 J101.310341
G02 X552.048774 Y681.438734 Z-1.000000 I183.004558 J95.781763
G02 X549.798279 Y686.168884 Z-1.000000 I184.550030 J90.705034
G02 X547.667020 Y690.960948 Z-1.000000 I185.133614 J85.207689
G02 X545.660083 Y695.806316 Z-1.000000 I186.480042 J80.077784
G02 X543.775703 Y700.712501 Z-1.000000 I186.968488 J74.626328
G02 X542.020308 Y705.666243 Z-1.000000 I188.120323 J69.449704
G02 X540.390931 Y710.680102 Z-1.000000 I188.548958 J64.045296
G02 X538.895088 Y715.735369 Z-1.000000 I189.576997 J58.844414
G02 X537.528884 Y720.850484 Z-1.000000 I190.017682 J53.492108
G02 X536.071362 Y726.998980 Z-1.000000 I206.543184 J52.208776
G02 X534.817222 Y733.088203 Z-1.000000 I204.993462 J45.394348
G02 X533.744460 Y739.212039 Z-1.000000 I204.926185 J39.054460
G02 X532.866763 Y745.279229 Z-1.000000 I203.817707 J32.581935
G02 X532.169991 Y751.369924 Z-1.000000 I203.799394 J26.399706
G02 X531.660843 Y757.406569 Z-1.000000 I203.065416 J20.166920
G02 X531.331301 Y763.455719 Z-1.000000 I203.056467 J14.095550
G02 X531.182801 Y769.453164 Z-1.000000 I202.718556 J8.019993
G02 X531.211770 Y775.452441 Z-1.000000 I202.701861 J2.020901
G02 X531.415994 Y781.402001 Z-1.000000 I202.653550 J-3.977995
G02 X531.794752 Y787.343098 Z-1.000000 I202.611253 J-9.934264
G02 X532.343692 Y793.236085 Z-1.000000 I202.858140 J-15.924474
G02 X533.063628 Y799.110734 Z-1.000000 I202.790142 J-21.870404
G02 X533.949300 Y804.938400 Z-1.000000 I203.170385 J-27.896111
G02 X535.001775 Y810.738337 Z-1.000000 I203.017104 J-33.844669
G02 X536.216084 Y816.491890 Z-1.000000 I203.597907 J-39.965211
G02 X537.592581 Y822.208885 Z-1.000000 I203.360275 J-45.939396
G02 X539.127406 Y827.879560 Z-1.000000 I204.028060 J-52.179206
G02 X540.819420 Y833.505416 Z-1.000000 I203.640410 J-58.178864
G02 X542.666602 Y839.084395 Z-1.000000 I204.296248 J-64.546514
G02 X544.665669 Y844.610865 Z-1.000000 I203.757855 J-70.579709
G02 X546.817008 Y850.089380 Z-1.000000 I204.337499 J-77.078905
G02 X549.114698 Y855.508201 Z-1.000000 I203.595306 J-83.131993
G02 X551.561915 Y860.877479 Z-1.000000 I204.158407 J-89.809276
G02 X554.149877 Y866.180422 Z-1.000000 I203.132116 J-95.850343
G02 X556.884706 Y871.431676 Z-1.000000 I203.507488 J-102.647974
G02 X559.754552 Y876.610444 Z-1.000000 I202.228048 J-108.681383
G02 X562.768671 Y881.734957 Z-1.000000 I202.349605 J-115.568642
G02 X565.912106 Y886.781255 Z-1.000000 I200.875335 J-121.626865
G02 X569.197171 Y891.770305 Z-1.000000 I200.632128 J-128.531140
G02 X572.605860 Y896.675801 Z-1.000000 I198.864154 J-134.548008
G02 X576.153541 Y901.520707 Z-1.000000 I198.260310 J-141.454704
G02 X579.819160 Y906.277039 Z-1.000000 I196.128664 J-147.362150
G02 X583.621073 Y910.969125 Z-1.000000 I195.252117 J-154.322902
G02 X587.535346 Y915.567920 Z-1.000000 I192.763348 J-160.105662
G02 X591.583127 Y920.098566 Z-1.000000 I191.480248 J-166.999230
G02 X595.737755 Y924.531427 Z-1.000000 I188.625736 J-172.623111
G02 X600.023038 Y928.891972 Z-1.000000 I186.857939 J-179.346861
G02 X604.409728 Y933.150507 Z-1.000000 I183.670978 J-184.809733
G02 X608.924121 Y937.332371 Z-1.000000 I181.508109 J-191.413448
G02 X613.534578 Y941.408113 Z-1.000000 I178.010521 J-196.718980
G02 X618.269712 Y945.402725 Z-1.000000 I175.352610 J-203.055742
G02 X623.095618 Y949.287220 Z-1.000000 I171.544396 J-208.178371
G02 X628.043148 Y953.085999 Z-1.000000 I168.359956 J-214.150781
G02 X633.076190 Y956.770793 Z-1.000000 I164.237889 J-219.052033
G02 X638.227766 Y960.365178 Z-1.000000 I160.631384 J-224.732632
G02 X643.459595 Y963.841790 Z-1.000000 I156.180195 J-229.355052
G02 X648.806903 Y967.223268 Z-1.000000 I152.176986 J-234.726760
G02 X654.229152 Y970.483205 Z-1.000000 I147.400570 J-239.031771
G02 X659.763848 Y973.643231 Z-1.000000 I143.038548 J-244.101029
G02 X665.368199 Y976.678010 Z-1.000000 I137.994206 J-248.142817
G02 X671.081985 Y979.608054 Z-1.000000 I133.231006 J-252.773475
G02 X676.860046 Y982.409185 Z-1.000000 I127.922387 J-256.513168
G02 X682.744605 Y985.100720 Z-1.000000 I122.872919 J-260.861113
G02 X688.687986 Y987.659702 Z-1.000000 I117.302965 J-264.261396
G02 X694.735067 Y990.104194 Z-1.000000 I111.945143 J-268.223389
G02 X700.835377 Y992.412564 Z-1.000000 I106.147797 J-271.301056
G02 X707.036685 Y994.601481 Z-1.000000 I100.544674 J-274.969133
G02 X713.285508 Y996.650734 Z-1.000000 I94.548652 J-277.757015
G02 X719.632795 Y998.575546 Z-1.000000 I88.730325 J-281.170433
G02 X726.021713 Y1000.357221 Z-1.000000 I82.538811 J-283.630532
G02 X732.506735 Y1002.009373 Z-1.000000 I76.502576 J-286.734073
G02 X739.027314 Y1003.515013 Z-1.000000 I70.159936 J-288.974202
G02 X745.641840 Y1004.885947 Z-1.000000 I63.920324 J-291.762308
G02 X753.387855 Y1006.301575 Z-1.000000 I61.431073 J-314.237674
G02 X761.074795 Y1007.512441 Z-1.000000 I53.363850 J-313.764692
G02 X768.789145 Y1008.534769 Z-1.000000 I45.557110 J-314.150859
G02 X776.443359 Y1009.359354 Z-1.000000 I37.669870 J-313.733276
G02 X784.115451 Y1009.997092 Z-1.000000 I29.962840 J-313.990873
G02 X791.726090 Y1010.443660 Z-1.000000 I22.227182 J-313.731397
G02 X799.345388 Y1010.705493 Z-1.000000 I14.597786 J-313.802610
G02 X806.901595 Y1010.782290 Z-1.000000 I6.963713 J-313.399506
G02 X814.457511 Y1010.676929 Z-1.000000 I-0.584979 J-312.939579
G02 X821.948455 Y1010.392238 Z-1.000000 I-8.146533 J-313.050863
G02 X829.430463 Y1009.928235 Z-1.000000 I-15.629766 J-312.584277
G02 X836.845231 Y1009.290436 Z-1.000000 I-23.104230 J-312.018402
G02 X844.242800 Y1008.476457 Z-1.000000 I-30.520570 J-311.398102
G02 X851.570573 Y1007.493877 Z-1.000000 I-37.935658 J-310.727616
G02 X858.873117 Y1006.338497 Z-1.000000 I-45.276732 J-309.825497
G02 X866.102994 Y1005.019515 Z-1.000000 I-52.612400 J-308.864567
G02 X873.299993 Y1003.531305 Z-1.000000 I-59.860873 J-307.634277
G02 X880.421124 Y1001.884302 Z-1.000000 I-67.097846 J-306.328568
G02 X887.501991 Y1000.071806 Z-1.000000 I-74.253475 J-304.823182
G02 X894.503545 Y998.105211 Z-1.000000 I-81.371715 J-303.149923
G02 X901.457694 Y995.976970 Z-1.000000 I-88.390619 J-301.247073
G02 X908.328838 Y993.699215 Z-1.000000 I-95.376578 J-299.218628
G02 X915.145659 Y991.263725 Z-1.000000 I-102.256274 J-296.968161
G02 X921.875587 Y988.683268 Z-1.000000 I-109.074593 J-294.536716
G02 X928.544515 Y985.949029 Z-1.000000 I-115.774940 J-291.880175
G02 X935.122374 Y983.074341 Z-1.000000 I-122.349748 J-288.923676
G02 X941.632740 Y980.049862 Z-1.000000 I-128.843136 J-285.861574
G02 X948.047780 Y976.889388 Z-1.000000 I-135.191962 J-282.499537
G02 X954.388959 Y973.583161 Z-1.000000 I-141.477910 J-279.081704
G02 X960.630435 Y970.145362 Z-1.000000 I-147.446358 J-275.080099
G02 X966.791733 Y966.565908 Z-1.000000 I-153.502782 J-271.316133
G02 X972.848875 Y962.859255 Z-1.000000 I-159.128234 J-266.838134
G02 X978.819641 Y959.015049 Z-1.000000 I-164.905037 J-262.687099
G02 X984.681705 Y955.048022 Z-1.000000 I-170.186750 J-257.799116
G02 X990.451224 Y950.947571 Z-1.000000 I-175.638880 J-253.241034
G02 X996.107507 Y946.728613 Z-1.000000 I-180.540547 J-247.948702
G02 X1001.665077 Y942.380439 Z-1.000000 I-185.651059 J-243.013554
G02 X1007.104865 Y937.917982 Z-1.000000 I-190.078825 J-237.255167
G02 X1012.439771 Y933.330645 Z-1.000000 I-194.833524 J-231.980115
G02 X1017.652382 Y928.633144 Z-1.000000 I-198.887470 J-225.937598
G02 X1022.753880 Y923.815163 Z-1.000000 I-203.309375 J-220.383013
G02 X1027.728643 Y918.891010 Z-1.000000 I-206.868372 J-213.969581
G02 X1032.585969 Y913.850987 Z-1.000000 I-210.999018 J-208.211147
G02 X1037.312228 Y908.708552 Z-1.000000 I-214.010838 J-201.434073
G02 X1041.914659 Y903.455076 Z-1.000000 I-217.784236 J-195.437733
G02 X1046.381698 Y898.102765 Z-1.000000 I-220.441784 J-188.521001
G02 X1050.718516 Y892.644422 Z-1.000000 I-223.839510 J-182.299261
G02 X1054.915681 Y887.090580 Z-1.000000 I-226.104372 J-175.235114
G02 X1058.976120 Y881.436032 Z-1.000000 I-229.189492 J-168.862411
G02 X1062.892736 Y875.688972 Z-1.000000 I-231.043806 J-161.664209
G02 X1066.666083 Y869.846877 Z-1.000000 I-233.804286 J-155.151347
G02 X1070.291468 Y863.914891 Z-1.000000 I-235.396062 J-147.938210
G02 X1073.767009 Y857.893968 Z-1.000000 I-237.852218 J-141.312310
G02 X1077.090461 Y851.785333 Z-1.000000 I-239.110890 J-134.048582
G02 X1080.257502 Y845.594259 Z-1.000000 I-241.331543 J-127.358617
G02 X1083.268272 Y839.317250 Z-1.000000 I-242.420176 J-120.137535
G02 X1086.116172 Y832.964738 Z-1.000000 I-244.405184 J-113.384089
G02 X1088.803509 Y826.527573 Z-1.000000 I-245.256696 J-106.167376
G02 X1091.321633 Y820.022429 Z-1.000000 I-247.046017 J-99.370807
G02 X1093.674775 Y813.433318 Z-1.000000 I-247.889798 J-92.242620
G02 X1095.852525 Y806.784256 Z-1.000000 I-249.502381 J-85.400030
G02 X1097.860631 Y800.051416 Z-1.000000 I-250.306318 J-78.321100
G02 X1099.687476 Y793.267193 Z-1.000000 I-251.739567 J-71.426116
G02 X1101.339682 Y786.398820 Z-1.000000 I-252.669103 J-64.413141
G02 X1103.008711 Y778.485785 Z-1.000000 I-269.258602 J-60.924941
G02 X1104.423822 Y770.647389 Z-1.000000 I-267.436936 J-52.328888
G02 X1105.608611 Y762.770805 Z-1.000000 I-267.364206 J-44.244103
G02 X1106.549430 Y754.965839 Z-1.000000 I-266.053019 J-36.029507
G02 X1107.260882 Y747.136548 Z-1.000000 I-266.023030 J-28.120625
G02 X1107.737255 Y739.376000 Z-1.000000 I-265.153657 J-20.171076
G02 X1107.986290 Y731.604765 Z-1.000000 I-265.042151 J-12.383062
G02 X1108.008068 Y723.899743 Z-1.000000 I-264.643803 J-4.600572
G02 X1107.805532 Y716.197269 Z-1.000000 I-264.513478 J3.101478
G02 X1107.382664 Y708.558874 Z-1.000000 I-264.475406 J10.810674
G02 X1106.739324 Y700.935809 Z-1.000000 I-264.282663 J18.465148
G02 X1105.881745 Y693.375244 Z-1.000000 I-264.540859 J26.177424
G02 X1104.808372 Y685.842202 Z-1.000000 I-264.227110 J33.806359
G02 X1103.526128 Y678.370682 Z-1.000000 I-264.762692 J41.592155
G02 X1102.033379 Y670.938253 Z-1.000000 I-264.364115 J49.229454
G02 X1100.336538 Y663.567016 Z-1.000000 I-264.949313 J57.109784
G02 X1098.435075 Y656.245811 Z-1.000000 I-264.377590 J64.756607
G02 X1096.333748 Y648.986097 Z-1.000000 I-265.032929 J72.779929
G02 X1094.034127 Y641.786684 Z-1.000000 I-264.310048 J80.458342
G02 X1091.538527 Y634.649764 Z-1.000000 I-264.931002 J88.634858
G02 X1088.851262 Y627.582712 Z-1.000000 I-263.951136 J96.323678
G02 X1085.971626 Y620.579834 Z-1.000000 I-264.531405 J104.683801
G02 X1082.907197 Y613.655759 Z-1.000000 I-263.313504 J112.396045
G02 X1079.653815 Y606.798155 Z-1.000000 I-263.598703 J120.855873
G02 X1076.222665 Y600.027678 Z-1.000000 I-262.110193 J128.577851
G02 X1072.605866 Y593.326556 Z-1.000000 I-262.193858 J137.187380
G02 X1068.818383 Y586.720329 Z-1.000000 I-260.356080 J144.878530
G02 X1064.848526 Y580.186878 Z-1.000000 I-260.132127 J153.588757
G02 X1060.715096 Y573.755578 Z-1.000000 I-257.904476 J161.212605
G02 X1056.402545 Y567.400954 Z-1.000000 I-257.287171 J169.966695
G02 X1051.933548 Y561.155293 Z-1.000000 I-254.694435 J177.521416
G02 X1047.288694 Y554.990623 Z-1.000000 I-253.559960 J186.215971
G02 X1042.494487 Y548.941335 Z-1.000000 I-250.564577 J193.654059
G02 X1037.527743 Y542.977718 Z-1.000000 I-249.014226 J202.339176
G02 X1032.418668 Y537.135562 Z-1.000000 I-245.585727 J209.614297
G02 X1027.140465 Y531.384076 Z-1.000000 I-243.513319 J218.177173
G02 X1021.726846 Y525.759834 Z-1.000000 I-239.686315 J225.292710
G02 X1016.147609 Y520.231532 Z-1.000000 I-237.044054 J233.648613
G02 X1010.439802 Y514.836022 Z-1.000000 I-232.809574 J240.567953
G02 X1004.569921 Y509.541923 Z-1.000000 I-229.572314 J248.639200
G02 X998.578301 Y504.385978 Z-1.000000 I-224.903839 J255.296907
G02 X992.428174 Y499.337081 Z-1.000000 I-221.142910 J263.106837
G02 X986.163112 Y494.431551 Z-1.000000 I-216.044892 J269.466674
G02 X979.743162 Y489.638847 Z-1.000000 I-211.769399 J276.974372
G02 X973.214993 Y484.994589 Z-1.000000 I-206.275903 J283.039997
G02 X966.535587 Y480.469055 Z-1.000000 I-201.456217 J290.144877
G02 X959.754762 Y476.096949 Z-1.000000 I-195.554007 J295.845992
G02 X952.826268 Y471.849539 Z-1.000000 I-190.258091 J302.579644
G02 X945.803153 Y467.760466 Z-1.000000 I-184.008201 J307.964320
G02 X938.635905 Y463.802137 Z-1.000000 I-178.224042 J314.237873
G02 X931.380981 Y460.006984 Z-1.000000 I-171.629969 J319.260878
G02 X923.985340 Y456.348683 Z-1.000000 I-165.428369 J325.126189
G02 X916.508994 Y452.858332 Z-1.000000 I-158.518595 J329.795126
G02 X908.895252 Y449.511014 Z-1.000000 I-151.932966 J335.250908
G02 X901.207971 Y446.336347 Z-1.000000 I-144.720037 J339.537068
G02 X893.386458 Y443.310965 Z-1.000000 I-137.796242 J344.621172
G02 X885.498711 Y440.462856 Z-1.000000 I-130.313693 J348.553189
G02 X877.479707 Y437.770372 Z-1.000000 I-123.063156 J353.230293
G02 X869.401971 Y435.259684 Z-1.000000 I-115.339002 J356.834982
G02 X861.195770 Y432.911071 Z-1.000000 I-107.809312 J361.181727
G02 X852.938562 Y430.748660 Z-1.000000 I-99.851302 J364.437718
G02 X844.555373 Y428.754898 Z-1.000000 I-92.063314 J368.478157
G02 X836.129205 Y426.951597 Z-1.000000 I-83.896929 J371.431826
G02 X827.579309 Y425.323689 Z-1.000000 I-75.872962 J375.224184
G02 X817.889129 Y423.713812 Z-1.000000 I-71.093376 J397.957154
G02 X808.273039 Y422.354740 Z-1.000000 I-61.066384 J397.375304
G02 X798.626806 Y421.228608 Z-1.000000 I-51.326865 J397.779341
G02 X789.056317 Y420.344875 Z-1.000000 I-41.509489 J397.267550
G02 X779.467249 Y419.691865 Z-1.000000 I-31.883838 J397.463794
G02 X769.955937 Y419.273392 Z-1.000000 I-22.230244 J396.964566
G02 X760.437240 Y419.082914 Z-1.000000 I-12.703961 J396.917130
G02 X750.998627 Y419.119590 Z-1.000000 I-3.179233 J396.355757
G02 X741.563483 Y419.381085 Z-1.000000 I6.254869 J396.033404
G02 X732.211157 Y419.862766 Z-1.000000 I15.672618 J395.333150
G02 X722.872770 Y420.565709 Z-1.000000 I25.015488 J394.703728
G02 X713.620278 Y421.482218 Z-1.000000 I34.336213 J393.798220
G02 X704.391845 Y422.616113 Z-1.000000 I43.582438 J392.825218
G02 X695.252760 Y423.957245 Z-1.000000 I52.803459 J391.636355
G02 X686.147470 Y425.511626 Z-1.000000 I61.940494 J390.282392
G02 X677.135376 Y427.267144 Z-1.000000 I71.048953 J388.745349
G02 X668.166438 Y429.231567 Z-1.000000 I80.063407 J387.001239
G02 X659.294853 Y431.391214 Z-1.000000 I89.030395 J385.028385
G02 X650.475481 Y433.755260 Z-1.000000 I97.900833 J382.864254
G02 X641.757961 Y436.308752 Z-1.000000 I106.691757 J380.398777
G02 X633.101418 Y439.062017 Z-1.000000 I115.395845 J377.801335
G02 X624.551473 Y441.999057 Z-1.000000 I123.972641 J374.806970
G02 X616.070987 Y445.131154 Z-1.000000 I132.467546 J371.716995
G02 X607.702115 Y448.441427 Z-1.000000 I140.799161 J368.195594
G02 X599.411011 Y451.941972 Z-1.000000 I149.071104 J364.646704
G02 X591.236705 Y455.615161 Z-1.000000 I157.067813 J360.470521
G02 X583.148244 Y459.473778 Z-1.000000 I165.075791 J356.439887
G02 X575.181924 Y463.499553 Z-1.000000 I172.746283 J351.730239
G02 X567.309452 Y467.705875 Z-1.000000 I180.440751 J347.179618
G02 X559.564611 Y472.073907 Z-1.000000 I187.690053 J341.838323
G02 X551.921431 Y476.617555 Z-1.000000 I195.052655 J336.811768
G02 X544.411470 Y481.317517 Z-1.000000 I201.845605 J330.874385
G02 X537.010979 Y486.188098 Z-1.000000 I208.883786 J325.441117
G02 X529.749273 Y491.209681 Z-1.000000 I215.157604 J318.900613
G02 X522.604846 Y496.396800 Z-1.000000 I221.833090 J313.053259
G02 X515.604769 Y501.729699 Z-1.000000 I227.578240 J305.984776
G02 X508.729820 Y507.222943 Z-1.000000 I233.859311 J299.730175
G02 X502.004753 Y512.856869 Z-1.000000 I239.050275 J292.178684
G02 X495.412661 Y518.645808 Z-1.000000 I244.876672 J285.498500
G02 X488.975951 Y524.570488 Z-1.000000 I249.566289 J277.593432
G02 X482.680141 Y530.644664 Z-1.000000 I254.935549 J270.537452
G02 X476.545112 Y536.849855 Z-1.000000 I259.110567 J262.316246
G02 X470.559026 Y543.198789 Z-1.000000 I264.075553 J254.979849
G02 X464.739031 Y549.674268 Z-1.000000 I267.626799 J246.389292
G02 X459.076075 Y556.287454 Z-1.000000 I272.182697 J238.804734
G02 X453.584457 Y563.023022 Z-1.000000 I275.244098 J230.017465
G02 X448.258058 Y569.889922 Z-1.000000 I279.393357 J222.214259
G02 X443.108139 Y576.875419 Z-1.000000 I281.984533 J213.278577
G02 X438.131701 Y583.985467 Z-1.000000 I285.713186 J205.271874
G02 X433.336838 Y591.210756 Z-1.000000 I287.919335 J196.273331
G02 X428.723750 Y598.553354 Z-1.000000 I291.271818 J188.115935
G02 X424.297311 Y606.008331 Z-1.000000 I293.080305 J179.059843
G02 X420.060947 Y613.572851 Z-1.000000 I296.119749 J170.804696
G02 X416.016322 Y621.247441 Z-1.000000 I297.631065 J161.759143
G02 X412.170017 Y629.023231 Z-1.000000 I300.357487 J153.411399
G02 X408.520626 Y636.907386 Z-1.000000 I301.677776 J144.426296
G02 X405.077683 Y644.883774 Z-1.000000 I304.120374 J136.002331
G02 X401.836984 Y652.967466 Z-1.000000 I305.324731 J127.094112
G02 X398.810663 Y661.133737 Z-1.000000 I307.512506 J118.604318
G02 X395.992157 Y669.406977 Z-1.000000 I308.682661 J109.777932
G02 X393.395659 Y677.752442 Z-1.000000 I310.672420 J101.235151
G02 X391.012897 Y686.205209 Z-1.000000 I311.924617 J92.491077
G02 X388.859380 Y694.719165 Z-1.000000 I313.750466 J83.889277
G02 X386.925971 Y703.341464 Z-1.000000 I315.129692 J75.190574
G02 X385.040818 Y713.017896 Z-1.000000 I331.831193 J69.668887
G02 X383.460574 Y722.604452 Z-1.000000 I329.746351 J59.278766
G02 X382.159677 Y732.232991 Z-1.000000 I329.647020 J49.440265
G02 X381.152087 Y741.775018 Z-1.000000 I328.151973 J39.475385
G02 X380.422369 Y751.342405 Z-1.000000 I328.049749 J29.832335
G02 X379.975606 Y760.826457 Z-1.000000 I327.083401 J20.160408
G02 X379.804026 Y770.319550 Z-1.000000 I326.955427 J10.657538
G02 X379.906227 Y779.732021 Z-1.000000 I326.460921 J1.162073
G02 X380.279795 Y789.137750 Z-1.000000 I326.273649 J-8.248339
G02 X380.919046 Y798.465068 Z-1.000000 I326.175000 J-17.668961
G02 X381.824830 Y807.770378 Z-1.000000 I325.895625 J-27.026123
G02 X382.989158 Y816.998851 Z-1.000000 I326.114425 J-36.457153
G02 X384.414294 Y826.190757 Z-1.000000 I325.710150 J-45.792484
G02 X386.091655 Y835.306685 Z-1.000000 I326.164244 J-55.303024
G02 X388.023343 Y844.372207 Z-1.000000 I325.582830 J-64.636873
G02 X390.201637 Y853.361845 Z-1.000000 I326.164861 J-74.274823
G02 X392.627149 Y862.288064 Z-1.000000 I325.376140 J-83.621456
G02 X395.294196 Y871.137646 Z-1.000000 I325.988077 J-93.418113
G02 X398.200862 Y879.911572 Z-1.000000 I324.956681 J-102.784692
G02 X401.344429 Y888.607382 Z-1.000000 I325.523200 J-112.761735
G02 X404.719636 Y897.216046 Z-1.000000 I324.207469 J-122.146317
G02 X408.327431 Y905.744349 Z-1.000000 I324.579645 J-132.282224
G02 X412.158613 Y914.174746 Z-1.000000 I322.944528 J-141.675943
G02 X416.218296 Y922.521841 Z-1.000000 I323.090371 J-151.977075
G02 X420.492943 Y930.760975 Z-1.000000 I321.055513 J-161.342327
G02 X424.992122 Y938.913131 Z-1.000000 I320.859648 J-171.764945
G02 X429.697747 Y946.947966 Z-1.000000 I318.416426 J-181.086206
G02 X434.624001 Y954.891557 Z-1.000000 I317.826111 J-191.601962
G02 X439.748152 Y962.709006 Z-1.000000 I314.954391 J-200.857006
G02 X445.089040 Y970.430372 Z-1.000000 I313.786069 J-211.338753
G02 X450.619269 Y978.017323 Z-1.000000 I310.473782 J-220.499443
G02 X456.362311 Y985.502890 Z-1.000000 I308.832792 J-230.995400
G02 X462.286201 Y992.846214 Z-1.000000 I305.016108 J-239.996688
G02 X468.418918 Y1000.082428 Z-1.000000 I302.751272 J-250.365937
G02 X474.724053 Y1007.168941 Z-1.000000 I298.448170 J-259.192239
G02 X481.233959 Y1014.142238 Z-1.000000 I295.519830 J-269.356591
G02 X487.907919 Y1020.958754 Z-1.000000 I290.679089 J-277.924554
G02 X494.782554 Y1027.655657 Z-1.000000 I287.161375 J-287.905495
G02 X501.812896 Y1034.188917 Z-1.000000 I281.801614 J-296.193170
G02 X509.039755 Y1040.595959 Z-1.000000 I277.668065 J-305.917941
G02 X516.414067 Y1046.832744 Z-1.000000 I271.751530 J-313.838240
G02 X523.980681 Y1052.936439 Z-1.000000 I266.942752 J-323.181054
G02 X531.686492 Y1058.863450 Z-1.000000 I260.563936 J-330.790963
G02 X539.580431 Y1064.650411 Z-1.000000 I255.142325 J-339.759723
G02 X547.605298 Y1070.254361 Z-1.000000 I248.299739 J-347.017936
G02 X555.814078 Y1075.711130 Z-1.000000 I242.233736 J-355.496668
G02 X564.145522 Y1080.978747 Z-1.000000 I234.928061 J-362.347879
G02 X572.656742 Y1086.091931 Z-1.000000 I228.286503 J-370.357057
G02 X581.282247 Y1091.009897 Z-1.000000 I220.568161 J-376.826337
G02 X590.083523 Y1095.766110 Z-1.000000 I213.365010 J-384.306201
G02 X598.990558 Y1100.321096 Z-1.000000 I205.266151 J-390.400982
G02 X608.069492 Y1104.706918 Z-1.000000 I197.549328 J-397.349956
G02 X617.245539 Y1108.885665 Z-1.000000 I189.033033 J-402.930596
G02 X626.589749 Y1112.887715 Z-1.000000 I180.961933 J-409.610408
G02 X636.022248 Y1116.676882 Z-1.000000 I172.085248 J-414.742573
G02 X645.619390 Y1120.281730 Z-1.000000 I163.561526 J-420.870170
G02 X655.295770 Y1123.668069 Z-1.000000 I154.360978 J-425.564596
G02 X665.133513 Y1126.862323 Z-1.000000 I145.502888 J-431.376943
G02 X675.041175 Y1129.832505 Z-1.000000 I136.023362 J-435.724628
G02 X685.107238 Y1132.602725 Z-1.000000 I126.795410 J-441.059185
G02 X695.233560 Y1135.143542 Z-1.000000 I117.042279 J-445.017713
G02 X705.515617 Y1137.476293 Z-1.000000 I107.511516 J-450.051588
G02 X715.848030 Y1139.574490 Z-1.000000 I97.504953 J-453.666140
G02 X726.333770 Y1141.456281 Z-1.000000 I87.683318 J-458.434841
G02 X731.902484 Y1142.355566 Z-1.000000 I77.085570 J-459.651950
G02 X737.476711 Y1143.186830 Z-1.000000 I71.833482 J-462.590234
G02 X743.060505 Y1143.950969 Z-1.000000 I66.400010 J-464.421348
G02 X748.648456 Y1144.647563 Z-1.000000 I61.056864 J-467.026209
G02 X754.244339 Y1145.277381 Z-1.000000 I55.602658 J-468.850570
G02 X759.843027 Y1145.840134 Z-1.000000 I50.197192 J-471.268082
G02 X765.447994 Y1146.336421 Z-1.000000 I44.698694 J-472.918827
G02 X771.054376 Y1146.766112 Z-1.000000 I39.232586 J-475.096656
G02 X776.665472 Y1147.129698 Z-1.000000 I33.677192 J-476.250355
G02 X782.276526 Y1147.427131 Z-1.000000 I28.185088 J-478.634631
G02 X787.890719 Y1147.658832 Z-1.000000 I22.604419 J-479.579685
G02 X793.503454 Y1147.824822 Z-1.000000 I17.041498 J-481.259325
G02 X799.117775 Y1147.925439 Z-1.000000 I11.449826 J-482.201961
G02 X804.729158 Y1147.960797 Z-1.000000 I5.855054 J-483.918235
G02 X810.340591 Y1147.931204 Z-1.000000 I0.269098 J-481.011106
G02 X815.947616 Y1147.836647 Z-1.000000 I-5.410488 J-487.117569
G02 X821.553188 Y1147.677522 Z-1.000000 I-10.994124 J-486.109412
G02 X827.152826 Y1147.454025 Z-1.000000 I-16.649242 J-487.400737
G02 X832.749519 Y1147.166235 Z-1.000000 I-22.275177 J-487.753067
G02 X838.338765 Y1146.814542 Z-1.000000 I-27.918447 J-488.279880
G02 X843.923623 Y1146.398881 Z-1.000000 I-33.552961 J-488.547390
G02 X849.499432 Y1145.919789 Z-1.000000 I-39.200061 J-488.908022
G02 X855.069426 Y1145.377088 Z-1.000000 I-44.793317 J-488.589227
G02 X860.628826 Y1144.771399 Z-1.000000 I-50.436075 J-488.751642
G02 X866.180957 Y1144.102459 Z-1.000000 I-56.020047 J-488.336111
G02 X871.720901 Y1143.370983 Z-1.000000 I-61.582033 J-487.745231
G02 X877.252196 Y1142.576611 Z-1.000000 I-67.184144 J-487.464808
G02 X882.769702 Y1141.720174 Z-1.000000 I-72.684269 J-486.461822
G02 X888.277129 Y1140.801169 Z-1.000000 I-78.228414 J-485.770803
G02 X893.769160 Y1139.820561 Z-1.000000 I-83.693938 J-484.609169
G02 X899.249743 Y1138.777738 Z-1.000000 I-89.159677 J-483.504042
G02 X904.713319 Y1137.673779 Z-1.000000 I-94.586908 J-482.189239
G02 X910.164010 Y1136.507936 Z-1.000000 I-100.031901 J-481.006177
G02 X915.596111 Y1135.281458 Z-1.000000 I-105.376999 J-479.359995
G02 X921.013947 Y1133.993394 Z-1.000000 I-110.784541 J-478.018660
G02 X926.411580 Y1132.645190 Z-1.000000 I-115.929624 J-475.611601
G02 X931.793517 Y1131.235719 Z-1.000000 I-121.292617 J-474.124945
G02 X937.153680 Y1129.766586 Z-1.000000 I-126.339293 J-471.464370
G02 X942.496750 Y1128.236520 Z-1.000000 I-131.576770 J-469.567240
G02 X947.816410 Y1126.647300 Z-1.000000 I-136.607507 J-466.969517
G02 X953.117591 Y1124.997435 Z-1.000000 I-141.739343 J-464.764419
G02 X958.393769 Y1123.288921 Z-1.000000 I-146.591523 J-461.700395
G02 X963.650045 Y1121.520055 Z-1.000000 I-151.692608 J-459.456266
G02 X968.879734 Y1119.693063 Z-1.000000 I-156.403634 J-456.097364
G02 X974.088091 Y1117.806025 Z-1.000000 I-161.334588 J-453.426121
G02 X979.268304 Y1115.861336 Z-1.000000 I-165.814202 J-449.563283
G02 X984.425722 Y1113.856941 Z-1.000000 I-170.763300 J-447.020699
G02 X989.553479 Y1111.795393 Z-1.000000 I-175.097353 J-442.933489
G02 X994.656940 Y1109.674435 Z-1.000000 I-179.907590 J-440.095212
G02 X999.729211 Y1107.496825 Z-1.000000 I-184.094221 J-435.803855
G02 X1004.775702 Y1105.260117 Z-1.000000 I-188.748011 J-432.666961
G02 X1009.789524 Y1102.967245 Z-1.000000 I-192.874858 J-428.387664
G02 X1014.776048 Y1100.615608 Z-1.000000 I-197.297758 J-424.822416
G02 X1019.728393 Y1098.208283 Z-1.000000 I-201.188473 J-420.182182
G02 X1024.651912 Y1095.742519 Z-1.000000 I-205.660274 J-416.800964
G02 X1029.539818 Y1093.221552 Z-1.000000 I-209.363417 J-411.934041
G02 X1034.397302 Y1090.642481 Z-1.000000 I-213.593576 J-408.151162
G02 X1039.217775 Y1088.008642 Z-1.000000 I-217.197952 J-403.245595
G02 X1044.006224 Y1085.317108 Z-1.000000 I-221.218882 J-399.170884
G02 X1048.756263 Y1082.571228 Z-1.000000 I-224.671421 J-394.135794
G02 X1053.472658 Y1079.767996 Z-1.000000 I-228.764236 J-390.261428
G02 X1058.149260 Y1076.910859 Z-1.000000 I-231.809259 J-384.684575
G02 X1062.790588 Y1073.996803 Z-1.000000 I-235.653277 J-380.487297
G02 X1067.390763 Y1071.029208 Z-1.000000 I-238.648503 J-374.986731
G00 Z5.000000

(End cutting path id: path3336)


(Footer)
M5
G00 X0.0000 Y0.0000
M2
(Using default footer. To add your own footer create file "footer" in the output dir.)
(end)
%