%
(Header)
(Generated by gcodetools from Inkscape.)
(Using default header. To add your own header create file "header" in the output dir.)
M3
(Header end.)
G21 (All units in mm)

(Start cutting path id: path5659)
(vplot gcode)
(Change tool to Default tool)

G00 Z5.000000
G00 X553.594951 Y819.062976

G01 Z-1.000000 F100.0(Penetrate)
G01 X553.594951 Y819.062976 Z-1.000000 F400.000000
G01 X553.594951 Y819.062976 Z-1.000000
G01 X553.594951 Y819.062976 Z-1.000000
G01 X553.594951 Y819.062976 Z-1.000000
G01 X553.594951 Y819.062976 Z-1.000000
G01 X553.594951 Y819.062976 Z-1.000000
G01 X553.594951 Y819.062976 Z-1.000000
G01 X553.594951 Y819.062976 Z-1.000000
G00 Z5.000000

(End cutting path id: path5659)


(Start cutting path id: path5657)
(vplot gcode)
(Change tool to Default tool)

G00 Z5.000000
G00 X568.400244 Y819.062976

G01 Z-1.000000 F100.0(Penetrate)
G01 X566.549572 Y819.062976 Z-1.000000 F400.000000
G01 X564.698928 Y819.062976 Z-1.000000
G01 X562.848255 Y819.062976 Z-1.000000
G01 X560.997611 Y819.062976 Z-1.000000
G01 X559.146939 Y819.062976 Z-1.000000
G01 X557.296267 Y819.062976 Z-1.000000
G01 X555.445623 Y819.062976 Z-1.000000
G01 X553.594951 Y819.062976 Z-1.000000
G00 Z5.000000

(End cutting path id: path5657)


(Start cutting path id: path5655)
(vplot gcode)
(Change tool to Default tool)

G00 Z5.000000
G00 X568.400244 Y928.281114

G01 Z-1.000000 F100.0(Penetrate)
G01 X568.400244 Y914.628840 Z-1.000000 F400.000000
G01 X568.400244 Y900.976593 Z-1.000000
G01 X568.400244 Y887.324319 Z-1.000000
G01 X568.400244 Y873.672045 Z-1.000000
G01 X568.400244 Y860.019771 Z-1.000000
G01 X568.400244 Y846.367496 Z-1.000000
G01 X568.400244 Y832.715250 Z-1.000000
G01 X568.400244 Y819.062976 Z-1.000000
G00 Z5.000000

(End cutting path id: path5655)


(Start cutting path id: path5653)
(vplot gcode)
(Change tool to Default tool)

G00 Z5.000000
G00 X553.594951 Y928.281114

G01 Z-1.000000 F100.0(Penetrate)
G01 X555.445623 Y928.281114 Z-1.000000 F400.000000
G01 X557.296267 Y928.281114 Z-1.000000
G01 X559.146939 Y928.281114 Z-1.000000
G01 X560.997611 Y928.281114 Z-1.000000
G01 X562.848255 Y928.281114 Z-1.000000
G01 X564.698928 Y928.281114 Z-1.000000
G01 X566.549572 Y928.281114 Z-1.000000
G01 X568.400244 Y928.281114 Z-1.000000
G00 Z5.000000

(End cutting path id: path5653)


(Start cutting path id: path5651)
(vplot gcode)
(Change tool to Default tool)

G00 Z5.000000
G00 X553.594951 Y882.082380

G01 Z-1.000000 F100.0(Penetrate)
G01 X553.594951 Y887.857211 Z-1.000000 F400.000000
G01 X553.594951 Y893.632071 Z-1.000000
G01 X553.594951 Y899.406902 Z-1.000000
G01 X553.594951 Y905.181761 Z-1.000000
G01 X553.594951 Y910.956592 Z-1.000000
G01 X553.594951 Y916.731423 Z-1.000000
G01 X553.594951 Y922.506283 Z-1.000000
G01 X553.594951 Y928.281114 Z-1.000000
G00 Z5.000000

(End cutting path id: path5651)


(Start cutting path id: path5649)
(vplot gcode)
(Change tool to Default tool)

G00 Z5.000000
G00 X494.528774 Y882.082380

G01 Z-1.000000 F100.0(Penetrate)
G01 X501.912046 Y882.082380 Z-1.000000 F400.000000
G01 X509.295318 Y882.082380 Z-1.000000
G01 X516.678590 Y882.082380 Z-1.000000
G01 X524.061862 Y882.082380 Z-1.000000
G01 X531.445134 Y882.082380 Z-1.000000
G01 X538.828406 Y882.082380 Z-1.000000
G01 X546.211679 Y882.082380 Z-1.000000
G01 X553.594951 Y882.082380 Z-1.000000
G00 Z5.000000

(End cutting path id: path5649)


(Start cutting path id: path5647)
(vplot gcode)
(Change tool to Default tool)

G00 Z5.000000
G00 X494.528774 Y928.281114

G01 Z-1.000000 F100.0(Penetrate)
G01 X494.528774 Y922.506283 Z-1.000000 F400.000000
G01 X494.528774 Y916.731423 Z-1.000000
G01 X494.528774 Y910.956592 Z-1.000000
G01 X494.528774 Y905.181761 Z-1.000000
G01 X494.528774 Y899.406902 Z-1.000000
G01 X494.528774 Y893.632071 Z-1.000000
G01 X494.528774 Y887.857211 Z-1.000000
G01 X494.528774 Y882.082380 Z-1.000000
G00 Z5.000000

(End cutting path id: path5647)


(Start cutting path id: path5645)
(vplot gcode)
(Change tool to Default tool)

G00 Z5.000000
G00 X479.723481 Y928.281114

G01 Z-1.000000 F100.0(Penetrate)
G01 X481.574153 Y928.281114 Z-1.000000 F400.000000
G01 X483.424797 Y928.281114 Z-1.000000
G01 X485.275469 Y928.281114 Z-1.000000
G01 X487.126142 Y928.281114 Z-1.000000
G01 X488.976786 Y928.281114 Z-1.000000
G01 X490.827458 Y928.281114 Z-1.000000
G01 X492.678102 Y928.281114 Z-1.000000
G01 X494.528774 Y928.281114 Z-1.000000
G00 Z5.000000

(End cutting path id: path5645)


(Start cutting path id: path5643)
(vplot gcode)
(Change tool to Default tool)

G00 Z5.000000
G00 X479.723481 Y819.062976

G01 Z-1.000000 F100.0(Penetrate)
G01 X479.723481 Y832.715250 Z-1.000000 F400.000000
G01 X479.723481 Y846.367524 Z-1.000000
G01 X479.723481 Y860.019771 Z-1.000000
G01 X479.723481 Y873.672045 Z-1.000000
G01 X479.723481 Y887.324319 Z-1.000000
G01 X479.723481 Y900.976593 Z-1.000000
G01 X479.723481 Y914.628840 Z-1.000000
G01 X479.723481 Y928.281114 Z-1.000000
G00 Z5.000000

(End cutting path id: path5643)


(Start cutting path id: path5641)
(vplot gcode)
(Change tool to Default tool)

G00 Z5.000000
G00 X494.528774 Y819.062976

G01 Z-1.000000 F100.0(Penetrate)
G01 X492.678102 Y819.062976 Z-1.000000 F400.000000
G01 X490.827458 Y819.062976 Z-1.000000
G01 X488.976786 Y819.062976 Z-1.000000
G01 X487.126142 Y819.062976 Z-1.000000
G01 X485.275469 Y819.062976 Z-1.000000
G01 X483.424797 Y819.062976 Z-1.000000
G01 X481.574153 Y819.062976 Z-1.000000
G01 X479.723481 Y819.062976 Z-1.000000
G00 Z5.000000

(End cutting path id: path5641)


(Start cutting path id: path5639)
(vplot gcode)
(Change tool to Default tool)

G00 Z5.000000
G00 X494.528774 Y869.680040

G01 Z-1.000000 F100.0(Penetrate)
G01 X494.528774 Y863.352900 Z-1.000000 F400.000000
G01 X494.528774 Y857.025760 Z-1.000000
G01 X494.528774 Y850.698648 Z-1.000000
G01 X494.528774 Y844.371508 Z-1.000000
G01 X494.528774 Y838.044368 Z-1.000000
G01 X494.528774 Y831.717228 Z-1.000000
G01 X494.528774 Y825.390116 Z-1.000000
G01 X494.528774 Y819.062976 Z-1.000000
G00 Z5.000000

(End cutting path id: path5639)


(Start cutting path id: path5637)
(vplot gcode)
(Change tool to Default tool)

G00 Z5.000000
G00 X553.594951 Y869.680040

G01 Z-1.000000 F100.0(Penetrate)
G01 X546.211679 Y869.680040 Z-1.000000 F400.000000
G01 X538.828406 Y869.680040 Z-1.000000
G01 X531.445134 Y869.680040 Z-1.000000
G01 X524.061862 Y869.680040 Z-1.000000
G01 X516.678590 Y869.680040 Z-1.000000
G01 X509.295318 Y869.680040 Z-1.000000
G01 X501.912046 Y869.680040 Z-1.000000
G01 X494.528774 Y869.680040 Z-1.000000
G00 Z5.000000

(End cutting path id: path5637)


(Start cutting path id: path5635)
(vplot gcode)
(Change tool to Default tool)

G00 Z5.000000
G00 X553.594951 Y819.062976

G01 Z-1.000000 F100.0(Penetrate)
G01 X553.594951 Y825.390116 Z-1.000000 F400.000000
G01 X553.594951 Y831.717228 Z-1.000000
G01 X553.594951 Y838.044368 Z-1.000000
G01 X553.594951 Y844.371508 Z-1.000000
G01 X553.594951 Y850.698648 Z-1.000000
G01 X553.594951 Y857.025760 Z-1.000000
G01 X553.594951 Y863.352900 Z-1.000000
G01 X553.594951 Y869.680040 Z-1.000000
G00 Z5.000000

(End cutting path id: path5635)


(Start cutting path id: path5633)
(vplot gcode)
(Change tool to Default tool)

G00 Z5.000000
G00 X594.445150 Y819.062976

G01 Z-1.000000 F100.0(Penetrate)
G01 X594.445150 Y819.062976 Z-1.000000 F400.000000
G01 X594.445150 Y819.062976 Z-1.000000
G01 X594.445150 Y819.062976 Z-1.000000
G01 X594.445150 Y819.062976 Z-1.000000
G01 X594.445150 Y819.062976 Z-1.000000
G01 X594.445150 Y819.062976 Z-1.000000
G01 X594.445150 Y819.062976 Z-1.000000
G01 X594.445150 Y819.062976 Z-1.000000
G00 Z5.000000

(End cutting path id: path5633)


(Start cutting path id: path5631)
(vplot gcode)
(Change tool to Default tool)

G00 Z5.000000
G00 X680.486409 Y819.062976

G01 Z-1.000000 F100.0(Penetrate)
G01 X669.731258 Y819.062976 Z-1.000000 F400.000000
G01 X658.976108 Y819.062976 Z-1.000000
G01 X648.220930 Y819.062976 Z-1.000000
G01 X637.465779 Y819.062976 Z-1.000000
G01 X626.710629 Y819.062976 Z-1.000000
G01 X615.955479 Y819.062976 Z-1.000000
G01 X605.200300 Y819.062976 Z-1.000000
G01 X594.445150 Y819.062976 Z-1.000000
G00 Z5.000000

(End cutting path id: path5631)


(Start cutting path id: path5629)
(vplot gcode)
(Change tool to Default tool)

G00 Z5.000000
G00 X680.486409 Y831.155267

G01 Z-1.000000 F100.0(Penetrate)
G01 X680.486409 Y829.643741 Z-1.000000 F400.000000
G01 X680.486409 Y828.132187 Z-1.000000
G01 X680.486409 Y826.620661 Z-1.000000
G01 X680.486409 Y825.109107 Z-1.000000
G01 X680.486409 Y823.597581 Z-1.000000
G01 X680.486409 Y822.086056 Z-1.000000
G01 X680.486409 Y820.574502 Z-1.000000
G01 X680.486409 Y819.062976 Z-1.000000
G00 Z5.000000

(End cutting path id: path5629)


(Start cutting path id: path5627)
(vplot gcode)
(Change tool to Default tool)

G00 Z5.000000
G00 X609.250443 Y831.155267

G01 Z-1.000000 F100.0(Penetrate)
G01 X618.154949 Y831.155267 Z-1.000000 F400.000000
G01 X627.059427 Y831.155267 Z-1.000000
G01 X635.963934 Y831.155267 Z-1.000000
G01 X644.868412 Y831.155267 Z-1.000000
G01 X653.772918 Y831.155267 Z-1.000000
G01 X662.677424 Y831.155267 Z-1.000000
G01 X671.581902 Y831.155267 Z-1.000000
G01 X680.486409 Y831.155267 Z-1.000000
G00 Z5.000000

(End cutting path id: path5627)


(Start cutting path id: path5625)
(vplot gcode)
(Change tool to Default tool)

G00 Z5.000000
G00 X609.250443 Y869.214966

G01 Z-1.000000 F100.0(Penetrate)
G01 X609.250443 Y864.457517 Z-1.000000 F400.000000
G01 X609.250443 Y859.700041 Z-1.000000
G01 X609.250443 Y854.942565 Z-1.000000
G01 X609.250443 Y850.185116 Z-1.000000
G01 X609.250443 Y845.427668 Z-1.000000
G01 X609.250443 Y840.670192 Z-1.000000
G01 X609.250443 Y835.912743 Z-1.000000
G01 X609.250443 Y831.155267 Z-1.000000
G00 Z5.000000

(End cutting path id: path5625)


(Start cutting path id: path5623)
(vplot gcode)
(Change tool to Default tool)

G00 Z5.000000
G00 X672.657451 Y869.214966

G01 Z-1.000000 F100.0(Penetrate)
G01 X664.731579 Y869.214966 Z-1.000000 F400.000000
G01 X656.805706 Y869.214966 Z-1.000000
G01 X648.879834 Y869.214966 Z-1.000000
G01 X640.953961 Y869.214966 Z-1.000000
G01 X633.028061 Y869.214966 Z-1.000000
G01 X625.102188 Y869.214966 Z-1.000000
G01 X617.176316 Y869.214966 Z-1.000000
G01 X609.250443 Y869.214966 Z-1.000000
G00 Z5.000000

(End cutting path id: path5623)


(Start cutting path id: path5621)
(vplot gcode)
(Change tool to Default tool)

G00 Z5.000000
G00 X672.657451 Y881.152204

G01 Z-1.000000 F100.0(Penetrate)
G01 X672.657451 Y879.660038 Z-1.000000 F400.000000
G01 X672.657451 Y878.167901 Z-1.000000
G01 X672.657451 Y876.675736 Z-1.000000
G01 X672.657451 Y875.183599 Z-1.000000
G01 X672.657451 Y873.691434 Z-1.000000
G01 X672.657451 Y872.199268 Z-1.000000
G01 X672.657451 Y870.707131 Z-1.000000
G01 X672.657451 Y869.214966 Z-1.000000
G00 Z5.000000

(End cutting path id: path5621)


(Start cutting path id: path5619)
(vplot gcode)
(Change tool to Default tool)

G00 Z5.000000
G00 X609.250443 Y881.152204

G01 Z-1.000000 F100.0(Penetrate)
G01 X617.176316 Y881.152204 Z-1.000000 F400.000000
G01 X625.102188 Y881.152204 Z-1.000000
G01 X633.028061 Y881.152204 Z-1.000000
G01 X640.953961 Y881.152204 Z-1.000000
G01 X648.879834 Y881.152204 Z-1.000000
G01 X656.805706 Y881.152204 Z-1.000000
G01 X664.731579 Y881.152204 Z-1.000000
G01 X672.657451 Y881.152204 Z-1.000000
G00 Z5.000000

(End cutting path id: path5619)


(Start cutting path id: path5617)
(vplot gcode)
(Change tool to Default tool)

G00 Z5.000000
G00 X609.250443 Y916.188823

G01 Z-1.000000 F100.0(Penetrate)
G01 X609.250443 Y911.809242 Z-1.000000 F400.000000
G01 X609.250443 Y907.429661 Z-1.000000
G01 X609.250443 Y903.050080 Z-1.000000
G01 X609.250443 Y898.670499 Z-1.000000
G01 X609.250443 Y894.290947 Z-1.000000
G01 X609.250443 Y889.911366 Z-1.000000
G01 X609.250443 Y885.531785 Z-1.000000
G01 X609.250443 Y881.152204 Z-1.000000
G00 Z5.000000

(End cutting path id: path5617)


(Start cutting path id: path5615)
(vplot gcode)
(Change tool to Default tool)

G00 Z5.000000
G00 X677.308332 Y916.188823

G01 Z-1.000000 F100.0(Penetrate)
G01 X668.801082 Y916.188823 Z-1.000000 F400.000000
G01 X660.293860 Y916.188823 Z-1.000000
G01 X651.786638 Y916.188823 Z-1.000000
G01 X643.279388 Y916.188823 Z-1.000000
G01 X634.772166 Y916.188823 Z-1.000000
G01 X626.264915 Y916.188823 Z-1.000000
G01 X617.757665 Y916.188823 Z-1.000000
G01 X609.250443 Y916.188823 Z-1.000000
G00 Z5.000000

(End cutting path id: path5615)


(Start cutting path id: path5613)
(vplot gcode)
(Change tool to Default tool)

G00 Z5.000000
G00 X677.308332 Y928.281114

G01 Z-1.000000 F100.0(Penetrate)
G01 X677.308332 Y926.769588 Z-1.000000 F400.000000
G01 X677.308332 Y925.258034 Z-1.000000
G01 X677.308332 Y923.746508 Z-1.000000
G01 X677.308332 Y922.234954 Z-1.000000
G01 X677.308332 Y920.723428 Z-1.000000
G01 X677.308332 Y919.211903 Z-1.000000
G01 X677.308332 Y917.700349 Z-1.000000
G01 X677.308332 Y916.188823 Z-1.000000
G00 Z5.000000

(End cutting path id: path5613)


(Start cutting path id: path5611)
(vplot gcode)
(Change tool to Default tool)

G00 Z5.000000
G00 X594.445150 Y928.281114

G01 Z-1.000000 F100.0(Penetrate)
G01 X604.803044 Y928.281114 Z-1.000000 F400.000000
G01 X615.160938 Y928.281114 Z-1.000000
G01 X625.518833 Y928.281114 Z-1.000000
G01 X635.876755 Y928.281114 Z-1.000000
G01 X646.234650 Y928.281114 Z-1.000000
G01 X656.592544 Y928.281114 Z-1.000000
G01 X666.950438 Y928.281114 Z-1.000000
G01 X677.308332 Y928.281114 Z-1.000000
G00 Z5.000000

(End cutting path id: path5611)


(Start cutting path id: path5609)
(vplot gcode)
(Change tool to Default tool)

G00 Z5.000000
G00 X594.445150 Y819.062976

G01 Z-1.000000 F100.0(Penetrate)
G01 X594.445150 Y832.715250 Z-1.000000 F400.000000
G01 X594.445150 Y846.367524 Z-1.000000
G01 X594.445150 Y860.019771 Z-1.000000
G01 X594.445150 Y873.672045 Z-1.000000
G01 X594.445150 Y887.324319 Z-1.000000
G01 X594.445150 Y900.976593 Z-1.000000
G01 X594.445150 Y914.628840 Z-1.000000
G01 X594.445150 Y928.281114 Z-1.000000
G00 Z5.000000

(End cutting path id: path5609)


(Start cutting path id: path5607)
(vplot gcode)
(Change tool to Default tool)

G00 Z5.000000
G00 X700.485212 Y819.062976

G01 Z-1.000000 F100.0(Penetrate)
G01 X700.485212 Y819.062976 Z-1.000000 F400.000000
G01 X700.485212 Y819.062976 Z-1.000000
G01 X700.485212 Y819.062976 Z-1.000000
G01 X700.485212 Y819.062976 Z-1.000000
G01 X700.485212 Y819.062976 Z-1.000000
G01 X700.485212 Y819.062976 Z-1.000000
G01 X700.485212 Y819.062976 Z-1.000000
G01 X700.485212 Y819.062976 Z-1.000000
G00 Z5.000000

(End cutting path id: path5607)


(Start cutting path id: path5605)
(vplot gcode)
(Change tool to Default tool)

G00 Z5.000000
G00 X770.480923 Y819.062976

G01 Z-1.000000 F100.0(Penetrate)
G01 X761.731470 Y819.062976 Z-1.000000 F400.000000
G01 X752.981988 Y819.062976 Z-1.000000
G01 X744.232535 Y819.062976 Z-1.000000
G01 X735.483053 Y819.062976 Z-1.000000
G01 X726.733600 Y819.062976 Z-1.000000
G01 X717.984147 Y819.062976 Z-1.000000
G01 X709.234665 Y819.062976 Z-1.000000
G01 X700.485212 Y819.062976 Z-1.000000
G00 Z5.000000

(End cutting path id: path5605)


(Start cutting path id: path5603)
(vplot gcode)
(Change tool to Default tool)

G00 Z5.000000
G00 X770.480923 Y831.155267

G01 Z-1.000000 F100.0(Penetrate)
G01 X770.480923 Y829.643741 Z-1.000000 F400.000000
G01 X770.480923 Y828.132187 Z-1.000000
G01 X770.480923 Y826.620661 Z-1.000000
G01 X770.480923 Y825.109107 Z-1.000000
G01 X770.480923 Y823.597581 Z-1.000000
G01 X770.480923 Y822.086056 Z-1.000000
G01 X770.480923 Y820.574502 Z-1.000000
G01 X770.480923 Y819.062976 Z-1.000000
G00 Z5.000000

(End cutting path id: path5603)


(Start cutting path id: path5601)
(vplot gcode)
(Change tool to Default tool)

G00 Z5.000000
G00 X715.290505 Y831.155267

G01 Z-1.000000 F100.0(Penetrate)
G01 X722.189314 Y831.155267 Z-1.000000 F400.000000
G01 X729.088124 Y831.155267 Z-1.000000
G01 X735.986905 Y831.155267 Z-1.000000
G01 X742.885714 Y831.155267 Z-1.000000
G01 X749.784523 Y831.155267 Z-1.000000
G01 X756.683305 Y831.155267 Z-1.000000
G01 X763.582114 Y831.155267 Z-1.000000
G01 X770.480923 Y831.155267 Z-1.000000
G00 Z5.000000

(End cutting path id: path5601)


(Start cutting path id: path5599)
(vplot gcode)
(Change tool to Default tool)

G00 Z5.000000
G00 X715.290505 Y928.281114

G01 Z-1.000000 F100.0(Penetrate)
G01 X715.290505 Y916.140394 Z-1.000000 F400.000000
G01 X715.290505 Y903.999645 Z-1.000000
G01 X715.290505 Y891.858925 Z-1.000000
G01 X715.290505 Y879.718176 Z-1.000000
G01 X715.290505 Y867.577456 Z-1.000000
G01 X715.290505 Y855.436736 Z-1.000000
G01 X715.290505 Y843.295987 Z-1.000000
G01 X715.290505 Y831.155267 Z-1.000000
G00 Z5.000000

(End cutting path id: path5599)


(Start cutting path id: path5597)
(vplot gcode)
(Change tool to Default tool)

G00 Z5.000000
G00 X700.485212 Y928.281114

G01 Z-1.000000 F100.0(Penetrate)
G01 X702.335884 Y928.281114 Z-1.000000 F400.000000
G01 X704.186528 Y928.281114 Z-1.000000
G01 X706.037200 Y928.281114 Z-1.000000
G01 X707.887844 Y928.281114 Z-1.000000
G01 X709.738516 Y928.281114 Z-1.000000
G01 X711.589189 Y928.281114 Z-1.000000
G01 X713.439833 Y928.281114 Z-1.000000
G01 X715.290505 Y928.281114 Z-1.000000
G00 Z5.000000

(End cutting path id: path5597)


(Start cutting path id: path5595)
(vplot gcode)
(Change tool to Default tool)

G00 Z5.000000
G00 X700.485212 Y819.062976

G01 Z-1.000000 F100.0(Penetrate)
G01 X700.485212 Y832.715250 Z-1.000000 F400.000000
G01 X700.485212 Y846.367524 Z-1.000000
G01 X700.485212 Y860.019771 Z-1.000000
G01 X700.485212 Y873.672045 Z-1.000000
G01 X700.485212 Y887.324319 Z-1.000000
G01 X700.485212 Y900.976593 Z-1.000000
G01 X700.485212 Y914.628840 Z-1.000000
G01 X700.485212 Y928.281114 Z-1.000000
G00 Z5.000000

(End cutting path id: path5595)


(Start cutting path id: path5593)
(vplot gcode)
(Change tool to Default tool)

G00 Z5.000000
G00 X788.851897 Y819.062976

G01 Z-1.000000 F100.0(Penetrate)
G01 X788.851897 Y819.062976 Z-1.000000 F400.000000
G01 X788.851897 Y819.062976 Z-1.000000
G01 X788.851897 Y819.062976 Z-1.000000
G01 X788.851897 Y819.062976 Z-1.000000
G01 X788.851897 Y819.062976 Z-1.000000
G01 X788.851897 Y819.062976 Z-1.000000
G01 X788.851897 Y819.062976 Z-1.000000
G01 X788.851897 Y819.062976 Z-1.000000
G00 Z5.000000

(End cutting path id: path5593)


(Start cutting path id: path5591)
(vplot gcode)
(Change tool to Default tool)

G00 Z5.000000
G00 X858.847637 Y819.062976

G01 Z-1.000000 F100.0(Penetrate)
G01 X850.098155 Y819.062976 Z-1.000000 F400.000000
G01 X841.348702 Y819.062976 Z-1.000000
G01 X832.599220 Y819.062976 Z-1.000000
G01 X823.849767 Y819.062976 Z-1.000000
G01 X815.100285 Y819.062976 Z-1.000000
G01 X806.350832 Y819.062976 Z-1.000000
G01 X797.601350 Y819.062976 Z-1.000000
G01 X788.851897 Y819.062976 Z-1.000000
G00 Z5.000000

(End cutting path id: path5591)


(Start cutting path id: path5589)
(vplot gcode)
(Change tool to Default tool)

G00 Z5.000000
G00 X858.847637 Y831.155267

G01 Z-1.000000 F100.0(Penetrate)
G01 X858.847637 Y829.643741 Z-1.000000 F400.000000
G01 X858.847637 Y828.132187 Z-1.000000
G01 X858.847637 Y826.620661 Z-1.000000
G01 X858.847637 Y825.109107 Z-1.000000
G01 X858.847637 Y823.597581 Z-1.000000
G01 X858.847637 Y822.086056 Z-1.000000
G01 X858.847637 Y820.574502 Z-1.000000
G01 X858.847637 Y819.062976 Z-1.000000
G00 Z5.000000

(End cutting path id: path5589)


(Start cutting path id: path5587)
(vplot gcode)
(Change tool to Default tool)

G00 Z5.000000
G00 X803.657190 Y831.155267

G01 Z-1.000000 F100.0(Penetrate)
G01 X810.555999 Y831.155267 Z-1.000000 F400.000000
G01 X817.454809 Y831.155267 Z-1.000000
G01 X824.353618 Y831.155267 Z-1.000000
G01 X831.252428 Y831.155267 Z-1.000000
G01 X838.151209 Y831.155267 Z-1.000000
G01 X845.050018 Y831.155267 Z-1.000000
G01 X851.948827 Y831.155267 Z-1.000000
G01 X858.847637 Y831.155267 Z-1.000000
G00 Z5.000000

(End cutting path id: path5587)


(Start cutting path id: path5585)
(vplot gcode)
(Change tool to Default tool)

G00 Z5.000000
G00 X803.657190 Y928.281114

G01 Z-1.000000 F100.0(Penetrate)
G01 X803.657190 Y916.140394 Z-1.000000 F400.000000
G01 X803.657190 Y903.999645 Z-1.000000
G01 X803.657190 Y891.858925 Z-1.000000
G01 X803.657190 Y879.718176 Z-1.000000
G01 X803.657190 Y867.577456 Z-1.000000
G01 X803.657190 Y855.436736 Z-1.000000
G01 X803.657190 Y843.295987 Z-1.000000
G01 X803.657190 Y831.155267 Z-1.000000
G00 Z5.000000

(End cutting path id: path5585)


(Start cutting path id: path5583)
(vplot gcode)
(Change tool to Default tool)

G00 Z5.000000
G00 X788.851897 Y928.281114

G01 Z-1.000000 F100.0(Penetrate)
G01 X790.702569 Y928.281114 Z-1.000000 F400.000000
G01 X792.553213 Y928.281114 Z-1.000000
G01 X794.403885 Y928.281114 Z-1.000000
G01 X796.254558 Y928.281114 Z-1.000000
G01 X798.105202 Y928.281114 Z-1.000000
G01 X799.955874 Y928.281114 Z-1.000000
G01 X801.806518 Y928.281114 Z-1.000000
G01 X803.657190 Y928.281114 Z-1.000000
G00 Z5.000000

(End cutting path id: path5583)


(Start cutting path id: path5581)
(vplot gcode)
(Change tool to Default tool)

G00 Z5.000000
G00 X788.851897 Y819.062976

G01 Z-1.000000 F100.0(Penetrate)
G01 X788.851897 Y832.715250 Z-1.000000 F400.000000
G01 X788.851897 Y846.367524 Z-1.000000
G01 X788.851897 Y860.019771 Z-1.000000
G01 X788.851897 Y873.672045 Z-1.000000
G01 X788.851897 Y887.324319 Z-1.000000
G01 X788.851897 Y900.976593 Z-1.000000
G01 X788.851897 Y914.628840 Z-1.000000
G01 X788.851897 Y928.281114 Z-1.000000
G00 Z5.000000

(End cutting path id: path5581)


(Start cutting path id: path5579)
(vplot gcode)
(Change tool to Default tool)

G00 Z5.000000
G00 X964.965169 Y874.175896

G01 Z-1.000000 F100.0(Penetrate)
G01 X964.965169 Y874.175896 Z-1.000000 F400.000000
G01 X964.965169 Y874.175896 Z-1.000000
G01 X964.965169 Y874.175896 Z-1.000000
G01 X964.965169 Y874.175896 Z-1.000000
G01 X964.965169 Y874.175896 Z-1.000000
G01 X964.965169 Y874.175896 Z-1.000000
G01 X964.965169 Y874.175896 Z-1.000000
G01 X964.965169 Y874.175896 Z-1.000000
G00 Z5.000000

(End cutting path id: path5579)


(Start cutting path id: path5577)
(vplot gcode)
(Change tool to Default tool)

G00 Z5.000000
G00 X964.965140 Y874.175868

G01 Z-1.000000 F100.0(Penetrate)
G01 X964.585975 Y871.652858 Z-1.000000 F400.000000
G01 X964.206809 Y869.129847 Z-1.000000
G01 X963.827644 Y866.606837 Z-1.000000
G01 X963.448478 Y864.083827 Z-1.000000
G01 X963.069312 Y861.560789 Z-1.000000
G01 X962.690147 Y859.037778 Z-1.000000
G01 X962.310981 Y856.514768 Z-1.000000
G01 X961.931816 Y853.991758 Z-1.000000
G00 Z5.000000

(End cutting path id: path5577)


(Start cutting path id: path5575)
(vplot gcode)
(Change tool to Default tool)

G00 Z5.000000
G00 X961.931816 Y853.991758

G01 Z-1.000000 F100.0(Penetrate)
G01 X961.041687 Y852.387127 Z-1.000000 F400.000000
G01 X960.151558 Y850.782468 Z-1.000000
G01 X959.261401 Y849.177837 Z-1.000000
G01 X958.371272 Y847.573206 Z-1.000000
G01 X957.481143 Y845.968575 Z-1.000000
G01 X956.591014 Y844.363944 Z-1.000000
G01 X955.700857 Y842.759285 Z-1.000000
G01 X954.810728 Y841.154654 Z-1.000000
G00 Z5.000000

(End cutting path id: path5575)


(Start cutting path id: path5573)
(vplot gcode)
(Change tool to Default tool)

G00 Z5.000000
G00 X954.810728 Y841.154654

G01 Z-1.000000 F100.0(Penetrate)
G01 X953.359570 Y840.120705 Z-1.000000 F400.000000
G01 X951.908440 Y839.086756 Z-1.000000
G01 X950.457281 Y838.052806 Z-1.000000
G01 X949.006151 Y837.018885 Z-1.000000
G01 X947.554992 Y835.984936 Z-1.000000
G01 X946.103834 Y834.950986 Z-1.000000
G01 X944.652704 Y833.917037 Z-1.000000
G01 X943.201545 Y832.883088 Z-1.000000
G00 Z5.000000

(End cutting path id: path5573)


(Start cutting path id: path5571)
(vplot gcode)
(Change tool to Default tool)

G00 Z5.000000
G00 X943.201602 Y832.883060

G01 Z-1.000000 F100.0(Penetrate)
G01 X941.028942 Y832.463621 Z-1.000000 F400.000000
G01 X938.856283 Y832.044154 Z-1.000000
G01 X936.683623 Y831.624715 Z-1.000000
G01 X934.510963 Y831.205248 Z-1.000000
G01 X932.338276 Y830.785781 Z-1.000000
G01 X930.165616 Y830.366343 Z-1.000000
G01 X927.992957 Y829.946876 Z-1.000000
G01 X925.820297 Y829.527437 Z-1.000000
G00 Z5.000000

(End cutting path id: path5571)


(Start cutting path id: path5569)
(vplot gcode)
(Change tool to Default tool)

G00 Z5.000000
G00 X925.820297 Y829.527465

G01 Z-1.000000 F100.0(Penetrate)
G01 X923.716810 Y829.949218 Z-1.000000 F400.000000
G01 X921.613351 Y830.370943 Z-1.000000
G01 X919.509864 Y830.792696 Z-1.000000
G01 X917.406378 Y831.214449 Z-1.000000
G01 X915.302919 Y831.636173 Z-1.000000
G01 X913.199432 Y832.057926 Z-1.000000
G01 X911.095973 Y832.479651 Z-1.000000
G01 X908.992486 Y832.901404 Z-1.000000
G00 Z5.000000

(End cutting path id: path5569)


(Start cutting path id: path5567)
(vplot gcode)
(Change tool to Default tool)

G00 Z5.000000
G00 X908.992458 Y832.901348

G01 Z-1.000000 F100.0(Penetrate)
G01 X907.501196 Y833.981468 Z-1.000000 F400.000000
G01 X906.009934 Y835.061561 Z-1.000000
G01 X904.518671 Y836.141682 Z-1.000000
G01 X903.027381 Y837.221775 Z-1.000000
G01 X901.536119 Y838.301867 Z-1.000000
G01 X900.044857 Y839.381988 Z-1.000000
G01 X898.553594 Y840.462081 Z-1.000000
G01 X897.062332 Y841.542202 Z-1.000000
G00 Z5.000000

(End cutting path id: path5567)


(Start cutting path id: path5565)
(vplot gcode)
(Change tool to Default tool)

G00 Z5.000000
G00 X897.062332 Y841.542202

G01 Z-1.000000 F100.0(Penetrate)
G01 X896.148299 Y843.191762 Z-1.000000 F400.000000
G01 X895.234266 Y844.841323 Z-1.000000
G01 X894.320233 Y846.490912 Z-1.000000
G01 X893.406200 Y848.140473 Z-1.000000
G01 X892.492195 Y849.790033 Z-1.000000
G01 X891.578162 Y851.439622 Z-1.000000
G01 X890.664129 Y853.089183 Z-1.000000
G01 X889.750095 Y854.738744 Z-1.000000
G00 Z5.000000

(End cutting path id: path5565)


(Start cutting path id: path5563)
(vplot gcode)
(Change tool to Default tool)

G00 Z5.000000
G00 X889.750124 Y854.738744

G01 Z-1.000000 F100.0(Penetrate)
G01 X889.375474 Y857.168395 Z-1.000000 F400.000000
G01 X889.000824 Y859.598018 Z-1.000000
G01 X888.626174 Y862.027669 Z-1.000000
G01 X888.251524 Y864.457292 Z-1.000000
G01 X887.876845 Y866.886943 Z-1.000000
G01 X887.502195 Y869.316594 Z-1.000000
G01 X887.127545 Y871.746217 Z-1.000000
G01 X886.752895 Y874.175868 Z-1.000000
G00 Z5.000000

(End cutting path id: path5563)


(Start cutting path id: path5561)
(vplot gcode)
(Change tool to Default tool)

G00 Z5.000000
G00 X886.752895 Y874.175868

G01 Z-1.000000 F100.0(Penetrate)
G01 X887.132004 Y876.618417 Z-1.000000 F400.000000
G01 X887.511085 Y879.060994 Z-1.000000
G01 X887.890166 Y881.503542 Z-1.000000
G01 X888.269275 Y883.946091 Z-1.000000
G01 X888.648385 Y886.388640 Z-1.000000
G01 X889.027465 Y888.831188 Z-1.000000
G01 X889.406575 Y891.273765 Z-1.000000
G01 X889.785655 Y893.716314 Z-1.000000
G00 Z5.000000

(End cutting path id: path5561)


(Start cutting path id: path5559)
(vplot gcode)
(Change tool to Default tool)

G00 Z5.000000
G00 X889.785655 Y893.716314

G01 Z-1.000000 F100.0(Penetrate)
G01 X890.685549 Y895.294839 Z-1.000000 F400.000000
G01 X891.585443 Y896.873336 Z-1.000000
G01 X892.485337 Y898.451862 Z-1.000000
G01 X893.385231 Y900.030359 Z-1.000000
G01 X894.285124 Y901.608884 Z-1.000000
G01 X895.185018 Y903.187409 Z-1.000000
G01 X896.084912 Y904.765907 Z-1.000000
G01 X896.984806 Y906.344432 Z-1.000000
G00 Z5.000000

(End cutting path id: path5559)


(Start cutting path id: path5557)
(vplot gcode)
(Change tool to Default tool)

G00 Z5.000000
G00 X896.984862 Y906.344432

G01 Z-1.000000 F100.0(Penetrate)
G01 X898.448410 Y907.366556 Z-1.000000 F400.000000
G01 X899.911958 Y908.388680 Z-1.000000
G01 X901.375506 Y909.410805 Z-1.000000
G01 X902.839054 Y910.432957 Z-1.000000
G01 X904.302574 Y911.455081 Z-1.000000
G01 X905.766122 Y912.477206 Z-1.000000
G01 X907.229670 Y913.499330 Z-1.000000
G01 X908.693218 Y914.521454 Z-1.000000
G00 Z5.000000

(End cutting path id: path5557)


(Start cutting path id: path5555)
(vplot gcode)
(Change tool to Default tool)

G00 Z5.000000
G00 X908.693190 Y914.521454

G01 Z-1.000000 F100.0(Penetrate)
G01 X910.853460 Y914.933357 Z-1.000000 F400.000000
G01 X913.013730 Y915.345232 Z-1.000000
G01 X915.174000 Y915.757136 Z-1.000000
G01 X917.334270 Y916.169011 Z-1.000000
G01 X919.494512 Y916.580914 Z-1.000000
G01 X921.654782 Y916.992818 Z-1.000000
G01 X923.815052 Y917.404693 Z-1.000000
G01 X925.975322 Y917.816596 Z-1.000000
G00 Z5.000000

(End cutting path id: path5555)


(Start cutting path id: path5553)
(vplot gcode)
(Change tool to Default tool)

G00 Z5.000000
G00 X925.975322 Y917.816596

G01 Z-1.000000 F100.0(Penetrate)
G01 X928.111941 Y917.400996 Z-1.000000 F400.000000
G01 X930.248561 Y916.985423 Z-1.000000
G01 X932.385181 Y916.569823 Z-1.000000
G01 X934.521801 Y916.154251 Z-1.000000
G01 X936.658421 Y915.738650 Z-1.000000
G01 X938.795040 Y915.323050 Z-1.000000
G01 X940.931660 Y914.907478 Z-1.000000
G01 X943.068280 Y914.491877 Z-1.000000
G00 Z5.000000

(End cutting path id: path5553)


(Start cutting path id: path5551)
(vplot gcode)
(Change tool to Default tool)

G00 Z5.000000
G00 X943.068280 Y914.491905

G01 Z-1.000000 F100.0(Penetrate)
G01 X944.526409 Y913.454090 Z-1.000000 F400.000000
G01 X945.984539 Y912.416274 Z-1.000000
G01 X947.442640 Y911.378458 Z-1.000000
G01 X948.900769 Y910.340670 Z-1.000000
G01 X950.358898 Y909.302855 Z-1.000000
G01 X951.817028 Y908.265039 Z-1.000000
G01 X953.275129 Y907.227223 Z-1.000000
G01 X954.733258 Y906.189407 Z-1.000000
G00 Z5.000000

(End cutting path id: path5551)


(Start cutting path id: path5549)
(vplot gcode)
(Change tool to Default tool)

G00 Z5.000000
G00 X954.733230 Y906.189435

G01 Z-1.000000 F100.0(Penetrate)
G01 X955.636962 Y904.594428 Z-1.000000 F400.000000
G01 X956.540694 Y902.999421 Z-1.000000
G01 X957.444426 Y901.404442 Z-1.000000
G01 X958.348186 Y899.809435 Z-1.000000
G01 X959.251918 Y898.214428 Z-1.000000
G01 X960.155650 Y896.619449 Z-1.000000
G01 X961.059382 Y895.024442 Z-1.000000
G01 X961.963114 Y893.429435 Z-1.000000
G00 Z5.000000

(End cutting path id: path5549)


(Start cutting path id: path5547)
(vplot gcode)
(Change tool to Default tool)

G00 Z5.000000
G00 X961.963114 Y893.429407

G01 Z-1.000000 F100.0(Penetrate)
G01 X962.338357 Y891.022729 Z-1.000000 F400.000000
G01 X962.713628 Y888.616022 Z-1.000000
G01 X963.088870 Y886.209344 Z-1.000000
G01 X963.464113 Y883.802637 Z-1.000000
G01 X963.839384 Y881.395959 Z-1.000000
G01 X964.214627 Y878.989253 Z-1.000000
G01 X964.589898 Y876.582574 Z-1.000000
G01 X964.965140 Y874.175868 Z-1.000000
G00 Z5.000000

(End cutting path id: path5547)


(Start cutting path id: path5545)
(vplot gcode)
(Change tool to Default tool)

G00 Z5.000000
G00 X980.080539 Y874.175896

G01 Z-1.000000 F100.0(Penetrate)
G01 X980.080539 Y874.175896 Z-1.000000 F400.000000
G01 X980.080539 Y874.175896 Z-1.000000
G01 X980.080539 Y874.175896 Z-1.000000
G01 X980.080539 Y874.175896 Z-1.000000
G01 X980.080539 Y874.175896 Z-1.000000
G01 X980.080539 Y874.175896 Z-1.000000
G01 X980.080539 Y874.175896 Z-1.000000
G01 X980.080539 Y874.175896 Z-1.000000
G00 Z5.000000

(End cutting path id: path5545)


(Start cutting path id: path5543)
(vplot gcode)
(Change tool to Default tool)

G00 Z5.000000
G00 X978.272370 Y890.945625

G01 Z-1.000000 F100.0(Penetrate)
G01 X978.498401 Y888.849420 Z-1.000000 F400.000000
G01 X978.724405 Y886.753186 Z-1.000000
G01 X978.950437 Y884.656952 Z-1.000000
G01 X979.176440 Y882.560747 Z-1.000000
G01 X979.402472 Y880.464541 Z-1.000000
G01 X979.628504 Y878.368307 Z-1.000000
G01 X979.854507 Y876.272102 Z-1.000000
G01 X980.080539 Y874.175868 Z-1.000000
G00 Z5.000000

(End cutting path id: path5543)


(Start cutting path id: path5541)
(vplot gcode)
(Change tool to Default tool)

G00 Z5.000000
G00 X973.569334 Y904.019062

G01 Z-1.000000 F100.0(Penetrate)
G01 X974.157231 Y902.384882 Z-1.000000 F400.000000
G01 X974.745100 Y900.750703 Z-1.000000
G01 X975.332969 Y899.116523 Z-1.000000
G01 X975.920866 Y897.482344 Z-1.000000
G01 X976.508763 Y895.848192 Z-1.000000
G01 X977.096632 Y894.214013 Z-1.000000
G01 X977.684529 Y892.579833 Z-1.000000
G01 X978.272398 Y890.945654 Z-1.000000
G00 Z5.000000

(End cutting path id: path5541)


(Start cutting path id: path5539)
(vplot gcode)
(Change tool to Default tool)

G00 Z5.000000
G00 X965.602088 Y915.154704

G01 Z-1.000000 F100.0(Penetrate)
G01 X966.597993 Y913.762756 Z-1.000000 F400.000000
G01 X967.593899 Y912.370808 Z-1.000000
G01 X968.589805 Y910.978831 Z-1.000000
G01 X969.585711 Y909.586883 Z-1.000000
G01 X970.581588 Y908.194935 Z-1.000000
G01 X971.577494 Y906.802987 Z-1.000000
G01 X972.573400 Y905.411010 Z-1.000000
G01 X973.569306 Y904.019062 Z-1.000000
G00 Z5.000000

(End cutting path id: path5539)


(Start cutting path id: path5537)
(vplot gcode)
(Change tool to Default tool)

G00 Z5.000000
G00 X954.888283 Y923.242629

G01 Z-1.000000 F100.0(Penetrate)
G01 X956.227512 Y922.231624 Z-1.000000 F400.000000
G01 X957.566741 Y921.220648 Z-1.000000
G01 X958.905970 Y920.209643 Z-1.000000
G01 X960.245199 Y919.198638 Z-1.000000
G01 X961.584428 Y918.187634 Z-1.000000
G01 X962.923658 Y917.176657 Z-1.000000
G01 X964.262887 Y916.165652 Z-1.000000
G01 X965.602116 Y915.154648 Z-1.000000
G00 Z5.000000

(End cutting path id: path5537)


(Start cutting path id: path5535)
(vplot gcode)
(Change tool to Default tool)

G00 Z5.000000
G00 X942.171914 Y928.065948

G01 Z-1.000000 F100.0(Penetrate)
G01 X943.761474 Y927.463036 Z-1.000000 F400.000000
G01 X945.351006 Y926.860125 Z-1.000000
G01 X946.940566 Y926.257214 Z-1.000000
G01 X948.530127 Y925.654330 Z-1.000000
G01 X950.119659 Y925.051419 Z-1.000000
G01 X951.709219 Y924.448508 Z-1.000000
G01 X953.298751 Y923.845596 Z-1.000000
G01 X954.888311 Y923.242685 Z-1.000000
G00 Z5.000000

(End cutting path id: path5535)


(Start cutting path id: path5533)
(vplot gcode)
(Change tool to Default tool)

G00 Z5.000000
G00 X925.975322 Y929.908915

G01 Z-1.000000 F100.0(Penetrate)
G01 X927.999899 Y929.678537 Z-1.000000 F400.000000
G01 X930.024477 Y929.448159 Z-1.000000
G01 X932.049026 Y929.217781 Z-1.000000
G01 X934.073604 Y928.987431 Z-1.000000
G01 X936.098181 Y928.757053 Z-1.000000
G01 X938.122759 Y928.526675 Z-1.000000
G01 X940.147308 Y928.296297 Z-1.000000
G01 X942.171886 Y928.065919 Z-1.000000
G00 Z5.000000

(End cutting path id: path5533)


(Start cutting path id: path5531)
(vplot gcode)
(Change tool to Default tool)

G00 Z5.000000
G00 X902.202671 Y925.642590

G01 Z-1.000000 F100.0(Penetrate)
G01 X905.174245 Y926.175877 Z-1.000000 F400.000000
G01 X908.145848 Y926.709192 Z-1.000000
G01 X911.117422 Y927.242480 Z-1.000000
G01 X914.088996 Y927.775767 Z-1.000000
G01 X917.060571 Y928.309054 Z-1.000000
G01 X920.032173 Y928.842369 Z-1.000000
G01 X923.003747 Y929.375656 Z-1.000000
G01 X925.975322 Y929.908943 Z-1.000000
G00 Z5.000000

(End cutting path id: path5531)


(Start cutting path id: path5529)
(vplot gcode)
(Change tool to Default tool)

G00 Z5.000000
G00 X886.055298 Y915.103622

G01 Z-1.000000 F100.0(Penetrate)
G01 X888.073724 Y916.420979 Z-1.000000 F400.000000
G01 X890.092149 Y917.738364 Z-1.000000
G01 X892.110574 Y919.055721 Z-1.000000
G01 X894.128999 Y920.373106 Z-1.000000
G01 X896.147424 Y921.690463 Z-1.000000
G01 X898.165849 Y923.007820 Z-1.000000
G01 X900.184274 Y924.325205 Z-1.000000
G01 X902.202699 Y925.642562 Z-1.000000
G00 Z5.000000

(End cutting path id: path5529)


(Start cutting path id: path5527)
(vplot gcode)
(Change tool to Default tool)

G00 Z5.000000
G00 X875.883925 Y898.681478

G01 Z-1.000000 F100.0(Penetrate)
G01 X877.155336 Y900.734249 Z-1.000000 F400.000000
G01 X878.426747 Y902.786993 Z-1.000000
G01 X879.698158 Y904.839764 Z-1.000000
G01 X880.969598 Y906.892536 Z-1.000000
G01 X882.241009 Y908.945307 Z-1.000000
G01 X883.512420 Y910.998079 Z-1.000000
G01 X884.783831 Y913.050822 Z-1.000000
G01 X886.055242 Y915.103594 Z-1.000000
G00 Z5.000000

(End cutting path id: path5527)


(Start cutting path id: path5525)
(vplot gcode)
(Change tool to Default tool)

G00 Z5.000000
G00 X871.715051 Y874.175868

G01 Z-1.000000 F100.0(Penetrate)
G01 X872.236174 Y877.239080 Z-1.000000 F400.000000
G01 X872.757270 Y880.302263 Z-1.000000
G01 X873.278393 Y883.365475 Z-1.000000
G01 X873.799488 Y886.428687 Z-1.000000
G01 X874.320611 Y889.491871 Z-1.000000
G01 X874.841706 Y892.555082 Z-1.000000
G01 X875.362830 Y895.618266 Z-1.000000
G01 X875.883925 Y898.681478 Z-1.000000
G00 Z5.000000

(End cutting path id: path5525)


(Start cutting path id: path5523)
(vplot gcode)
(Change tool to Default tool)

G00 Z5.000000
G00 X873.486616 Y857.383589

G01 Z-1.000000 F100.0(Penetrate)
G01 X873.265185 Y859.482617 Z-1.000000 F400.000000
G01 X873.043725 Y861.581673 Z-1.000000
G01 X872.822294 Y863.680701 Z-1.000000
G01 X872.600862 Y865.779729 Z-1.000000
G01 X872.379402 Y867.878756 Z-1.000000
G01 X872.157971 Y869.977812 Z-1.000000
G01 X871.936511 Y872.076840 Z-1.000000
G01 X871.715079 Y874.175868 Z-1.000000
G00 Z5.000000

(End cutting path id: path5523)


(Start cutting path id: path5521)
(vplot gcode)
(Change tool to Default tool)

G00 Z5.000000
G00 X878.148786 Y844.022709

G01 Z-1.000000 F100.0(Penetrate)
G01 X877.566026 Y845.692816 Z-1.000000 F400.000000
G01 X876.983237 Y847.362950 Z-1.000000
G01 X876.400476 Y849.033057 Z-1.000000
G01 X875.817687 Y850.703163 Z-1.000000
G01 X875.234927 Y852.373298 Z-1.000000
G01 X874.652138 Y854.043405 Z-1.000000
G01 X874.069377 Y855.713539 Z-1.000000
G01 X873.486588 Y857.383646 Z-1.000000
G00 Z5.000000

(End cutting path id: path5521)


(Start cutting path id: path5519)
(vplot gcode)
(Change tool to Default tool)

G00 Z5.000000
G00 X886.121846 Y832.623613

G01 Z-1.000000 F100.0(Penetrate)
G01 X885.125207 Y834.048496 Z-1.000000 F400.000000
G01 X884.128567 Y835.473380 Z-1.000000
G01 X883.131928 Y836.898263 Z-1.000000
G01 X882.135316 Y838.323147 Z-1.000000
G01 X881.138677 Y839.748030 Z-1.000000
G01 X880.142037 Y841.172914 Z-1.000000
G01 X879.145398 Y842.597798 Z-1.000000
G01 X878.148758 Y844.022681 Z-1.000000
G00 Z5.000000

(End cutting path id: path5519)


(Start cutting path id: path5517)
(vplot gcode)
(Change tool to Default tool)

G00 Z5.000000
G00 X896.752283 Y824.333956

G01 Z-1.000000 F100.0(Penetrate)
G01 X895.423468 Y825.370163 Z-1.000000 F400.000000
G01 X894.094681 Y826.406370 Z-1.000000
G01 X892.765866 Y827.442577 Z-1.000000
G01 X891.437051 Y828.478784 Z-1.000000
G01 X890.108264 Y829.514963 Z-1.000000
G01 X888.779449 Y830.551170 Z-1.000000
G01 X887.450662 Y831.587377 Z-1.000000
G01 X886.121846 Y832.623584 Z-1.000000
G00 Z5.000000

(End cutting path id: path5517)


(Start cutting path id: path5515)
(vplot gcode)
(Change tool to Default tool)

G00 Z5.000000
G00 X909.490524 Y819.403054

G01 Z-1.000000 F100.0(Penetrate)
G01 X907.898254 Y820.019427 Z-1.000000 F400.000000
G01 X906.305957 Y820.635800 Z-1.000000
G01 X904.713687 Y821.252174 Z-1.000000
G01 X903.121417 Y821.868519 Z-1.000000
G01 X901.529120 Y822.484892 Z-1.000000
G01 X899.936850 Y823.101265 Z-1.000000
G01 X898.344552 Y823.717639 Z-1.000000
G01 X896.752283 Y824.334012 Z-1.000000
G00 Z5.000000

(End cutting path id: path5515)


(Start cutting path id: path5513)
(vplot gcode)
(Change tool to Default tool)

G00 Z5.000000
G00 X925.820297 Y817.512701

G01 Z-1.000000 F100.0(Penetrate)
G01 X923.779068 Y817.749006 Z-1.000000 F400.000000
G01 X921.737868 Y817.985282 Z-1.000000
G01 X919.696639 Y818.221587 Z-1.000000
G01 X917.655439 Y818.457863 Z-1.000000
G01 X915.614210 Y818.694168 Z-1.000000
G01 X913.572981 Y818.930473 Z-1.000000
G01 X911.531781 Y819.166749 Z-1.000000
G01 X909.490552 Y819.403054 Z-1.000000
G00 Z5.000000

(End cutting path id: path5513)


(Start cutting path id: path5511)
(vplot gcode)
(Change tool to Default tool)

G00 Z5.000000
G00 X941.987115 Y819.414709

G01 Z-1.000000 F100.0(Penetrate)
G01 X939.966263 Y819.176965 Z-1.000000 F400.000000
G01 X937.945410 Y818.939193 Z-1.000000
G01 X935.924558 Y818.701449 Z-1.000000
G01 X933.903706 Y818.463677 Z-1.000000
G01 X931.882854 Y818.225905 Z-1.000000
G01 X929.862001 Y817.988161 Z-1.000000
G01 X927.841149 Y817.750389 Z-1.000000
G01 X925.820297 Y817.512645 Z-1.000000
G00 Z5.000000

(End cutting path id: path5511)


(Start cutting path id: path5509)
(vplot gcode)
(Change tool to Default tool)

G00 Z5.000000
G00 X954.733258 Y824.411482

G01 Z-1.000000 F100.0(Penetrate)
G01 X953.140001 Y823.786896 Z-1.000000 F400.000000
G01 X951.546715 Y823.162282 Z-1.000000
G01 X949.953458 Y822.537696 Z-1.000000
G01 X948.360172 Y821.913110 Z-1.000000
G01 X946.766915 Y821.288496 Z-1.000000
G01 X945.173629 Y820.663910 Z-1.000000
G01 X943.580372 Y820.039295 Z-1.000000
G01 X941.987087 Y819.414709 Z-1.000000
G00 Z5.000000

(End cutting path id: path5509)


(Start cutting path id: path5507)
(vplot gcode)
(Change tool to Default tool)

G00 Z5.000000
G00 X965.453639 Y832.770707

G01 Z-1.000000 F100.0(Penetrate)
G01 X964.113591 Y831.725807 Z-1.000000 F400.000000
G01 X962.773544 Y830.680908 Z-1.000000
G01 X961.433496 Y829.636008 Z-1.000000
G01 X960.093448 Y828.591109 Z-1.000000
G01 X958.753401 Y827.546209 Z-1.000000
G01 X957.413353 Y826.501309 Z-1.000000
G01 X956.073306 Y825.456410 Z-1.000000
G01 X954.733258 Y824.411510 Z-1.000000
G00 Z5.000000

(End cutting path id: path5507)


(Start cutting path id: path5505)
(vplot gcode)
(Change tool to Default tool)

G00 Z5.000000
G00 X973.491807 Y844.177706

G01 Z-1.000000 F100.0(Penetrate)
G01 X972.487040 Y842.751834 Z-1.000000 F400.000000
G01 X971.482272 Y841.325963 Z-1.000000
G01 X970.477505 Y839.900064 Z-1.000000
G01 X969.472737 Y838.474192 Z-1.000000
G01 X968.467970 Y837.048321 Z-1.000000
G01 X967.463202 Y835.622421 Z-1.000000
G01 X966.458435 Y834.196550 Z-1.000000
G01 X965.453667 Y832.770679 Z-1.000000
G00 Z5.000000

(End cutting path id: path5505)


(Start cutting path id: path5503)
(vplot gcode)
(Change tool to Default tool)

G00 Z5.000000
G00 X978.268814 Y857.482000

G01 Z-1.000000 F100.0(Penetrate)
G01 X977.671688 Y855.818949 Z-1.000000 F400.000000
G01 X977.074562 Y854.155927 Z-1.000000
G01 X976.477436 Y852.492904 Z-1.000000
G01 X975.880282 Y850.829853 Z-1.000000
G01 X975.283157 Y849.166802 Z-1.000000
G01 X974.686031 Y847.503779 Z-1.000000
G01 X974.088905 Y845.840757 Z-1.000000
G01 X973.491779 Y844.177706 Z-1.000000
G00 Z5.000000

(End cutting path id: path5503)


(Start cutting path id: path5501)
(vplot gcode)
(Change tool to Default tool)

G00 Z5.000000
G00 X980.080539 Y874.175868

G01 Z-1.000000 F100.0(Penetrate)
G01 X979.854084 Y872.089145 Z-1.000000 F400.000000
G01 X979.627601 Y870.002394 Z-1.000000
G01 X979.401146 Y867.915671 Z-1.000000
G01 X979.174691 Y865.828948 Z-1.000000
G01 X978.948235 Y863.742197 Z-1.000000
G01 X978.721752 Y861.655474 Z-1.000000
G01 X978.495297 Y859.568723 Z-1.000000
G01 X978.268842 Y857.482000 Z-1.000000
G00 Z5.000000

(End cutting path id: path5501)


(Start cutting path id: path5499)
(vplot gcode)
(Change tool to Default tool)

G00 Z5.000000
G00 X583.825664 Y620.625475

G01 Z-1.000000 F100.0(Penetrate)
G01 X583.825664 Y620.625475 Z-1.000000 F400.000000
G01 X583.825664 Y620.625475 Z-1.000000
G01 X583.825664 Y620.625475 Z-1.000000
G01 X583.825664 Y620.625475 Z-1.000000
G01 X583.825664 Y620.625475 Z-1.000000
G01 X583.825664 Y620.625475 Z-1.000000
G01 X583.825664 Y620.625475 Z-1.000000
G01 X583.825664 Y620.625475 Z-1.000000
G00 Z5.000000

(End cutting path id: path5499)


(Start cutting path id: path5497)
(vplot gcode)
(Change tool to Default tool)

G00 Z5.000000
G00 X615.994228 Y729.843613

G01 Z-1.000000 F100.0(Penetrate)
G01 X611.973154 Y716.191338 Z-1.000000 F400.000000
G01 X607.952080 Y702.539092 Z-1.000000
G01 X603.931006 Y688.886818 Z-1.000000
G01 X599.909932 Y675.234544 Z-1.000000
G01 X595.888886 Y661.582269 Z-1.000000
G01 X591.867812 Y647.929995 Z-1.000000
G01 X587.846738 Y634.277749 Z-1.000000
G01 X583.825664 Y620.625475 Z-1.000000
G00 Z5.000000

(End cutting path id: path5497)


(Start cutting path id: path5495)
(vplot gcode)
(Change tool to Default tool)

G00 Z5.000000
G00 X600.568808 Y729.843613

G01 Z-1.000000 F100.0(Penetrate)
G01 X602.496978 Y729.843613 Z-1.000000 F400.000000
G01 X604.425177 Y729.843613 Z-1.000000
G01 X606.353347 Y729.843613 Z-1.000000
G01 X608.281518 Y729.843613 Z-1.000000
G01 X610.209688 Y729.843613 Z-1.000000
G01 X612.137859 Y729.843613 Z-1.000000
G01 X614.066057 Y729.843613 Z-1.000000
G01 X615.994228 Y729.843613 Z-1.000000
G00 Z5.000000

(End cutting path id: path5495)


(Start cutting path id: path5493)
(vplot gcode)
(Change tool to Default tool)

G00 Z5.000000
G00 X580.218356 Y656.484800

G01 Z-1.000000 F100.0(Penetrate)
G01 X582.762166 Y665.654567 Z-1.000000 F400.000000
G01 X585.306004 Y674.824305 Z-1.000000
G01 X587.849814 Y683.994072 Z-1.000000
G01 X590.393624 Y693.163839 Z-1.000000
G01 X592.937462 Y702.333578 Z-1.000000
G01 X595.481272 Y711.503345 Z-1.000000
G01 X598.025111 Y720.673084 Z-1.000000
G01 X600.568921 Y729.842851 Z-1.000000
G00 Z5.000000

(End cutting path id: path5493)


(Start cutting path id: path5491)
(vplot gcode)
(Change tool to Default tool)

G00 Z5.000000
G00 X578.787207 Y650.856188

G01 Z-1.000000 F100.0(Penetrate)
G01 X578.966079 Y651.559881 Z-1.000000 F400.000000
G01 X579.144980 Y652.263574 Z-1.000000
G01 X579.323881 Y652.967267 Z-1.000000
G01 X579.502753 Y653.670960 Z-1.000000
G01 X579.681654 Y654.374652 Z-1.000000
G01 X579.860526 Y655.078345 Z-1.000000
G01 X580.039399 Y655.782038 Z-1.000000
G01 X580.218299 Y656.485731 Z-1.000000
G00 Z5.000000

(End cutting path id: path5491)


(Start cutting path id: path5489)
(vplot gcode)
(Change tool to Default tool)

G00 Z5.000000
G00 X577.471826 Y645.274425

G01 Z-1.000000 F100.0(Penetrate)
G01 X577.636276 Y645.972135 Z-1.000000 F400.000000
G01 X577.800727 Y646.669816 Z-1.000000
G01 X577.965178 Y647.367526 Z-1.000000
G01 X578.129629 Y648.065208 Z-1.000000
G01 X578.294052 Y648.762918 Z-1.000000
G01 X578.458503 Y649.460599 Z-1.000000
G01 X578.622954 Y650.158309 Z-1.000000
G01 X578.787404 Y650.855990 Z-1.000000
G00 Z5.000000

(End cutting path id: path5489)


(Start cutting path id: path5487)
(vplot gcode)
(Change tool to Default tool)

G00 Z5.000000
G00 X575.376326 Y636.361452

G01 Z-1.000000 F100.0(Penetrate)
G01 X575.638171 Y637.475581 Z-1.000000 F400.000000
G01 X575.900045 Y638.589709 Z-1.000000
G01 X576.161891 Y639.703838 Z-1.000000
G01 X576.423765 Y640.817967 Z-1.000000
G01 X576.685611 Y641.932096 Z-1.000000
G01 X576.947485 Y643.046224 Z-1.000000
G01 X577.209359 Y644.160353 Z-1.000000
G01 X577.471205 Y645.274482 Z-1.000000
G00 Z5.000000

(End cutting path id: path5487)


(Start cutting path id: path5485)
(vplot gcode)
(Change tool to Default tool)

G00 Z5.000000
G00 X574.678926 Y633.647942

G01 Z-1.000000 F100.0(Penetrate)
G01 X574.766133 Y633.987060 Z-1.000000 F400.000000
G01 X574.853340 Y634.326207 Z-1.000000
G01 X574.940546 Y634.665325 Z-1.000000
G01 X575.027753 Y635.004443 Z-1.000000
G01 X575.114931 Y635.343561 Z-1.000000
G01 X575.202138 Y635.682679 Z-1.000000
G01 X575.289345 Y636.021826 Z-1.000000
G01 X575.376551 Y636.360944 Z-1.000000
G00 Z5.000000

(End cutting path id: path5485)


(Start cutting path id: path5483)
(vplot gcode)
(Change tool to Default tool)

G00 Z5.000000
G00 X572.051014 Y645.162580

G01 Z-1.000000 F100.0(Penetrate)
G01 X572.379492 Y643.723247 Z-1.000000 F400.000000
G01 X572.707999 Y642.283914 Z-1.000000
G01 X573.036478 Y640.844580 Z-1.000000
G01 X573.364984 Y639.405247 Z-1.000000
G01 X573.693463 Y637.965942 Z-1.000000
G01 X574.021941 Y636.526609 Z-1.000000
G01 X574.350448 Y635.087275 Z-1.000000
G01 X574.678926 Y633.647942 Z-1.000000
G00 Z5.000000

(End cutting path id: path5483)


(Start cutting path id: path5481)
(vplot gcode)
(Change tool to Default tool)

G00 Z5.000000
G00 X567.857643 Y661.863250

G01 Z-1.000000 F100.0(Penetrate)
G01 X568.381815 Y659.775652 Z-1.000000 F400.000000
G01 X568.905986 Y657.688082 Z-1.000000
G01 X569.430157 Y655.600485 Z-1.000000
G01 X569.954357 Y653.512887 Z-1.000000
G01 X570.478528 Y651.425289 Z-1.000000
G01 X571.002700 Y649.337720 Z-1.000000
G01 X571.526871 Y647.250122 Z-1.000000
G01 X572.051042 Y645.162524 Z-1.000000
G00 Z5.000000

(End cutting path id: path5481)


(Start cutting path id: path5479)
(vplot gcode)
(Change tool to Default tool)

G00 Z5.000000
G00 X548.866543 Y729.843613

G01 Z-1.000000 F100.0(Penetrate)
G01 X551.240427 Y721.346071 Z-1.000000 F400.000000
G01 X553.614311 Y712.848529 Z-1.000000
G01 X555.988195 Y704.350987 Z-1.000000
G01 X558.362107 Y695.853445 Z-1.000000
G01 X560.735991 Y687.355904 Z-1.000000
G01 X563.109875 Y678.858362 Z-1.000000
G01 X565.483759 Y670.360820 Z-1.000000
G01 X567.857643 Y661.863278 Z-1.000000
G00 Z5.000000

(End cutting path id: path5479)


(Start cutting path id: path5477)
(vplot gcode)
(Change tool to Default tool)

G00 Z5.000000
G00 X534.681377 Y729.843613

G01 Z-1.000000 F100.0(Penetrate)
G01 X536.454522 Y729.843613 Z-1.000000 F400.000000
G01 X538.227668 Y729.843613 Z-1.000000
G01 X540.000814 Y729.843613 Z-1.000000
G01 X541.773960 Y729.843613 Z-1.000000
G01 X543.547106 Y729.843613 Z-1.000000
G01 X545.320251 Y729.843613 Z-1.000000
G01 X547.093397 Y729.843613 Z-1.000000
G01 X548.866543 Y729.843613 Z-1.000000
G00 Z5.000000

(End cutting path id: path5477)


(Start cutting path id: path5475)
(vplot gcode)
(Change tool to Default tool)

G00 Z5.000000
G00 X515.760860 Y662.288926

G01 Z-1.000000 F100.0(Penetrate)
G01 X518.125967 Y670.733381 Z-1.000000 F400.000000
G01 X520.491046 Y679.177837 Z-1.000000
G01 X522.856153 Y687.622293 Z-1.000000
G01 X525.221260 Y696.066749 Z-1.000000
G01 X527.586338 Y704.511177 Z-1.000000
G01 X529.951445 Y712.955632 Z-1.000000
G01 X532.316524 Y721.400088 Z-1.000000
G01 X534.681631 Y729.844544 Z-1.000000
G00 Z5.000000

(End cutting path id: path5475)


(Start cutting path id: path5473)
(vplot gcode)
(Change tool to Default tool)

G00 Z5.000000
G00 X513.132299 Y652.251438

G01 Z-1.000000 F100.0(Penetrate)
G01 X513.460890 Y653.506170 Z-1.000000 F400.000000
G01 X513.789453 Y654.760874 Z-1.000000
G01 X514.118045 Y656.015605 Z-1.000000
G01 X514.446636 Y657.270309 Z-1.000000
G01 X514.775199 Y658.525012 Z-1.000000
G01 X515.103790 Y659.779744 Z-1.000000
G01 X515.432353 Y661.034448 Z-1.000000
G01 X515.760945 Y662.289180 Z-1.000000
G00 Z5.000000

(End cutting path id: path5473)


(Start cutting path id: path5471)
(vplot gcode)
(Change tool to Default tool)

G00 Z5.000000
G00 X510.773824 Y642.164421

G01 Z-1.000000 F100.0(Penetrate)
G01 X511.068633 Y643.425305 Z-1.000000 F400.000000
G01 X511.363443 Y644.686161 Z-1.000000
G01 X511.658252 Y645.947045 Z-1.000000
G01 X511.953061 Y647.207930 Z-1.000000
G01 X512.247843 Y648.468786 Z-1.000000
G01 X512.542652 Y649.729670 Z-1.000000
G01 X512.837461 Y650.990526 Z-1.000000
G01 X513.132271 Y652.251410 Z-1.000000
G00 Z5.000000

(End cutting path id: path5471)


(Start cutting path id: path5469)
(vplot gcode)
(Change tool to Default tool)

G00 Z5.000000
G00 X508.868993 Y633.647942

G01 Z-1.000000 F100.0(Penetrate)
G01 X509.107104 Y634.712484 Z-1.000000 F400.000000
G01 X509.345215 Y635.777055 Z-1.000000
G01 X509.583326 Y636.841597 Z-1.000000
G01 X509.821409 Y637.906139 Z-1.000000
G01 X510.059520 Y638.970709 Z-1.000000
G01 X510.297631 Y640.035252 Z-1.000000
G01 X510.535741 Y641.099822 Z-1.000000
G01 X510.773852 Y642.164364 Z-1.000000
G00 Z5.000000

(End cutting path id: path5469)


(Start cutting path id: path5467)
(vplot gcode)
(Change tool to Default tool)

G00 Z5.000000
G00 X505.751200 Y647.404102

G01 Z-1.000000 F100.0(Penetrate)
G01 X506.140921 Y645.684579 Z-1.000000 F400.000000
G01 X506.530641 Y643.965083 Z-1.000000
G01 X506.920362 Y642.245560 Z-1.000000
G01 X507.310083 Y640.526036 Z-1.000000
G01 X507.699803 Y638.806513 Z-1.000000
G01 X508.089524 Y637.087017 Z-1.000000
G01 X508.479245 Y635.367494 Z-1.000000
G01 X508.868965 Y633.647970 Z-1.000000
G00 Z5.000000

(End cutting path id: path5467)


(Start cutting path id: path5465)
(vplot gcode)
(Change tool to Default tool)

G00 Z5.000000
G00 X502.435258 Y660.468028

G01 Z-1.000000 F100.0(Penetrate)
G01 X502.849758 Y658.835034 Z-1.000000 F400.000000
G01 X503.264258 Y657.202039 Z-1.000000
G01 X503.678729 Y655.569045 Z-1.000000
G01 X504.093229 Y653.936079 Z-1.000000
G01 X504.507729 Y652.303085 Z-1.000000
G01 X504.922228 Y650.670091 Z-1.000000
G01 X505.336700 Y649.037096 Z-1.000000
G01 X505.751200 Y647.404102 Z-1.000000
G00 Z5.000000

(End cutting path id: path5465)


(Start cutting path id: path5463)
(vplot gcode)
(Change tool to Default tool)

G00 Z5.000000
G00 X482.824059 Y729.843613

G01 Z-1.000000 F100.0(Penetrate)
G01 X485.275469 Y721.171658 Z-1.000000 F400.000000
G01 X487.726852 Y712.499702 Z-1.000000
G01 X490.178262 Y703.827747 Z-1.000000
G01 X492.629644 Y695.155820 Z-1.000000
G01 X495.081055 Y686.483865 Z-1.000000
G01 X497.532465 Y677.811910 Z-1.000000
G01 X499.983848 Y669.139955 Z-1.000000
G01 X502.435258 Y660.468000 Z-1.000000
G00 Z5.000000

(End cutting path id: path5463)


(Start cutting path id: path5461)
(vplot gcode)
(Change tool to Default tool)

G00 Z5.000000
G00 X467.398639 Y729.843613

G01 Z-1.000000 F100.0(Penetrate)
G01 X469.326809 Y729.843613 Z-1.000000 F400.000000
G01 X471.255008 Y729.843613 Z-1.000000
G01 X473.183179 Y729.843613 Z-1.000000
G01 X475.111349 Y729.843613 Z-1.000000
G01 X477.039519 Y729.843613 Z-1.000000
G01 X478.967690 Y729.843613 Z-1.000000
G01 X480.895889 Y729.843613 Z-1.000000
G01 X482.824059 Y729.843613 Z-1.000000
G00 Z5.000000

(End cutting path id: path5461)


(Start cutting path id: path5459)
(vplot gcode)
(Change tool to Default tool)

G00 Z5.000000
G00 X499.567231 Y620.625475

G01 Z-1.000000 F100.0(Penetrate)
G01 X495.546157 Y634.277749 Z-1.000000 F400.000000
G01 X491.525083 Y647.930023 Z-1.000000
G01 X487.504009 Y661.582269 Z-1.000000
G01 X483.482935 Y675.234544 Z-1.000000
G01 X479.461861 Y688.886818 Z-1.000000
G01 X475.440787 Y702.539092 Z-1.000000
G01 X471.419713 Y716.191338 Z-1.000000
G01 X467.398639 Y729.843613 Z-1.000000
G00 Z5.000000

(End cutting path id: path5459)


(Start cutting path id: path5457)
(vplot gcode)
(Change tool to Default tool)

G00 Z5.000000
G00 X517.240579 Y620.625475

G01 Z-1.000000 F100.0(Penetrate)
G01 X515.031400 Y620.625475 Z-1.000000 F400.000000
G01 X512.822249 Y620.625475 Z-1.000000
G01 X510.613070 Y620.625475 Z-1.000000
G01 X508.403891 Y620.625475 Z-1.000000
G01 X506.194740 Y620.625475 Z-1.000000
G01 X503.985561 Y620.625475 Z-1.000000
G01 X501.776410 Y620.625475 Z-1.000000
G01 X499.567231 Y620.625475 Z-1.000000
G00 Z5.000000

(End cutting path id: path5457)


(Start cutting path id: path5455)
(vplot gcode)
(Change tool to Default tool)

G00 Z5.000000
G00 X536.888213 Y692.278706

G01 Z-1.000000 F100.0(Penetrate)
G01 X534.432174 Y683.322017 Z-1.000000 F400.000000
G01 X531.976136 Y674.365356 Z-1.000000
G01 X529.520097 Y665.408667 Z-1.000000
G01 X527.064058 Y656.452006 Z-1.000000
G01 X524.607991 Y647.495345 Z-1.000000
G01 X522.151952 Y638.538655 Z-1.000000
G01 X519.695913 Y629.581995 Z-1.000000
G01 X517.239874 Y620.625305 Z-1.000000
G00 Z5.000000

(End cutting path id: path5455)


(Start cutting path id: path5453)
(vplot gcode)
(Change tool to Default tool)

G00 Z5.000000
G00 X538.402053 Y698.295147

G01 Z-1.000000 F100.0(Penetrate)
G01 X538.212908 Y697.543110 Z-1.000000 F400.000000
G01 X538.023763 Y696.791072 Z-1.000000
G01 X537.834617 Y696.039035 Z-1.000000
G01 X537.645500 Y695.287025 Z-1.000000
G01 X537.456355 Y694.534988 Z-1.000000
G01 X537.267210 Y693.782950 Z-1.000000
G01 X537.078064 Y693.030913 Z-1.000000
G01 X536.888919 Y692.278875 Z-1.000000
G00 Z5.000000

(End cutting path id: path5453)


(Start cutting path id: path5451)
(vplot gcode)
(Change tool to Default tool)

G00 Z5.000000
G00 X539.785986 Y704.343903

G01 Z-1.000000 F100.0(Penetrate)
G01 X539.613012 Y703.587802 Z-1.000000 F400.000000
G01 X539.440010 Y702.831729 Z-1.000000
G01 X539.267036 Y702.075627 Z-1.000000
G01 X539.094062 Y701.319525 Z-1.000000
G01 X538.921060 Y700.563424 Z-1.000000
G01 X538.748086 Y699.807351 Z-1.000000
G01 X538.575084 Y699.051249 Z-1.000000
G01 X538.402110 Y698.295147 Z-1.000000
G00 Z5.000000

(End cutting path id: path5451)


(Start cutting path id: path5449)
(vplot gcode)
(Change tool to Default tool)

G00 Z5.000000
G00 X541.812737 Y713.333048

G01 Z-1.000000 F100.0(Penetrate)
G01 X541.559386 Y712.209409 Z-1.000000 F400.000000
G01 X541.306035 Y711.085769 Z-1.000000
G01 X541.052684 Y709.962129 Z-1.000000
G01 X540.799362 Y708.838490 Z-1.000000
G01 X540.546011 Y707.714850 Z-1.000000
G01 X540.292660 Y706.591211 Z-1.000000
G01 X540.039309 Y705.467571 Z-1.000000
G01 X539.785958 Y704.343932 Z-1.000000
G00 Z5.000000

(End cutting path id: path5449)


(Start cutting path id: path5447)
(vplot gcode)
(Change tool to Default tool)

G00 Z5.000000
G00 X545.542022 Y696.552990

G01 Z-1.000000 F100.0(Penetrate)
G01 X545.075847 Y698.650493 Z-1.000000 F400.000000
G01 X544.609701 Y700.747997 Z-1.000000
G01 X544.143526 Y702.845501 Z-1.000000
G01 X543.677351 Y704.943005 Z-1.000000
G01 X543.211205 Y707.040480 Z-1.000000
G01 X542.745030 Y709.137984 Z-1.000000
G01 X542.278884 Y711.235488 Z-1.000000
G01 X541.812709 Y713.332992 Z-1.000000
G00 Z5.000000

(End cutting path id: path5447)


(Start cutting path id: path5445)
(vplot gcode)
(Change tool to Default tool)

G00 Z5.000000
G00 X547.238742 Y690.001088

G01 Z-1.000000 F100.0(Penetrate)
G01 X547.026652 Y690.820068 Z-1.000000 F400.000000
G01 X546.814562 Y691.639077 Z-1.000000
G01 X546.602472 Y692.458058 Z-1.000000
G01 X546.390382 Y693.277039 Z-1.000000
G01 X546.178292 Y694.096019 Z-1.000000
G01 X545.966202 Y694.915028 Z-1.000000
G01 X545.754112 Y695.734009 Z-1.000000
G01 X545.542022 Y696.552990 Z-1.000000
G00 Z5.000000

(End cutting path id: path5445)


(Start cutting path id: path5443)
(vplot gcode)
(Change tool to Default tool)

G00 Z5.000000
G00 X566.152316 Y620.625475

G01 Z-1.000000 F100.0(Penetrate)
G01 X563.788112 Y629.297430 Z-1.000000 F400.000000
G01 X561.423936 Y637.969385 Z-1.000000
G01 X559.059732 Y646.641340 Z-1.000000
G01 X556.695529 Y655.313295 Z-1.000000
G01 X554.331325 Y663.985222 Z-1.000000
G01 X551.967149 Y672.657177 Z-1.000000
G01 X549.602945 Y681.329133 Z-1.000000
G01 X547.238742 Y690.001088 Z-1.000000
G00 Z5.000000

(End cutting path id: path5443)


(Start cutting path id: path5441)
(vplot gcode)
(Change tool to Default tool)

G00 Z5.000000
G00 X583.825664 Y620.625475

G01 Z-1.000000 F100.0(Penetrate)
G01 X581.616485 Y620.625475 Z-1.000000 F400.000000
G01 X579.407334 Y620.625475 Z-1.000000
G01 X577.198155 Y620.625475 Z-1.000000
G01 X574.989004 Y620.625475 Z-1.000000
G01 X572.779825 Y620.625475 Z-1.000000
G01 X570.570646 Y620.625475 Z-1.000000
G01 X568.361495 Y620.625475 Z-1.000000
G01 X566.152316 Y620.625475 Z-1.000000
G00 Z5.000000

(End cutting path id: path5441)


(Start cutting path id: path5439)
(vplot gcode)
(Change tool to Default tool)

G00 Z5.000000
G00 X717.228356 Y675.738395

G01 Z-1.000000 F100.0(Penetrate)
G01 X717.228356 Y675.738395 Z-1.000000 F400.000000
G01 X717.228356 Y675.738395 Z-1.000000
G01 X717.228356 Y675.738395 Z-1.000000
G01 X717.228356 Y675.738395 Z-1.000000
G01 X717.228356 Y675.738395 Z-1.000000
G01 X717.228356 Y675.738395 Z-1.000000
G01 X717.228356 Y675.738395 Z-1.000000
G01 X717.228356 Y675.738395 Z-1.000000
G00 Z5.000000

(End cutting path id: path5439)


(Start cutting path id: path5437)
(vplot gcode)
(Change tool to Default tool)

G00 Z5.000000
G00 X717.228327 Y675.738367

G01 Z-1.000000 F100.0(Penetrate)
G01 X716.849162 Y673.215357 Z-1.000000 F400.000000
G01 X716.469996 Y670.692346 Z-1.000000
G01 X716.090831 Y668.169336 Z-1.000000
G01 X715.711665 Y665.646326 Z-1.000000
G01 X715.332499 Y663.123287 Z-1.000000
G01 X714.953334 Y660.600277 Z-1.000000
G01 X714.574168 Y658.077267 Z-1.000000
G01 X714.195003 Y655.554257 Z-1.000000
G00 Z5.000000

(End cutting path id: path5437)


(Start cutting path id: path5435)
(vplot gcode)
(Change tool to Default tool)

G00 Z5.000000
G00 X714.195003 Y655.554257

G01 Z-1.000000 F100.0(Penetrate)
G01 X713.304874 Y653.949626 Z-1.000000 F400.000000
G01 X712.414745 Y652.344967 Z-1.000000
G01 X711.524588 Y650.740336 Z-1.000000
G01 X710.634459 Y649.135705 Z-1.000000
G01 X709.744330 Y647.531074 Z-1.000000
G01 X708.854201 Y645.926443 Z-1.000000
G01 X707.964044 Y644.321784 Z-1.000000
G01 X707.073915 Y642.717153 Z-1.000000
G00 Z5.000000

(End cutting path id: path5435)


(Start cutting path id: path5433)
(vplot gcode)
(Change tool to Default tool)

G00 Z5.000000
G00 X707.073915 Y642.717153

G01 Z-1.000000 F100.0(Penetrate)
G01 X705.622757 Y641.683204 Z-1.000000 F400.000000
G01 X704.171627 Y640.649254 Z-1.000000
G01 X702.720468 Y639.615333 Z-1.000000
G01 X701.269310 Y638.581384 Z-1.000000
G01 X699.818151 Y637.547435 Z-1.000000
G01 X698.367021 Y636.513485 Z-1.000000
G01 X696.915862 Y635.479564 Z-1.000000
G01 X695.464704 Y634.445615 Z-1.000000
G00 Z5.000000

(End cutting path id: path5433)


(Start cutting path id: path5431)
(vplot gcode)
(Change tool to Default tool)

G00 Z5.000000
G00 X695.464760 Y634.445615

G01 Z-1.000000 F100.0(Penetrate)
G01 X693.292101 Y634.026148 Z-1.000000 F400.000000
G01 X691.119441 Y633.606709 Z-1.000000
G01 X688.946782 Y633.187242 Z-1.000000
G01 X686.774122 Y632.767804 Z-1.000000
G01 X684.601463 Y632.348365 Z-1.000000
G01 X682.428803 Y631.928898 Z-1.000000
G01 X680.256144 Y631.509459 Z-1.000000
G01 X678.083484 Y631.089993 Z-1.000000
G00 Z5.000000

(End cutting path id: path5431)


(Start cutting path id: path5429)
(vplot gcode)
(Change tool to Default tool)

G00 Z5.000000
G00 X678.083484 Y631.089936

G01 Z-1.000000 F100.0(Penetrate)
G01 X675.979997 Y631.511689 Z-1.000000 F400.000000
G01 X673.876510 Y631.933414 Z-1.000000
G01 X671.773051 Y632.355167 Z-1.000000
G01 X669.669565 Y632.776919 Z-1.000000
G01 X667.566078 Y633.198644 Z-1.000000
G01 X665.462619 Y633.620397 Z-1.000000
G01 X663.359132 Y634.042122 Z-1.000000
G01 X661.255645 Y634.463875 Z-1.000000
G00 Z5.000000

(End cutting path id: path5429)


(Start cutting path id: path5427)
(vplot gcode)
(Change tool to Default tool)

G00 Z5.000000
G00 X661.255645 Y634.463875

G01 Z-1.000000 F100.0(Penetrate)
G01 X659.764383 Y635.543967 Z-1.000000 F400.000000
G01 X658.273121 Y636.624088 Z-1.000000
G01 X656.781858 Y637.704181 Z-1.000000
G01 X655.290596 Y638.784302 Z-1.000000
G01 X653.799334 Y639.864394 Z-1.000000
G01 X652.308072 Y640.944487 Z-1.000000
G01 X650.816810 Y642.024608 Z-1.000000
G01 X649.325547 Y643.104701 Z-1.000000
G00 Z5.000000

(End cutting path id: path5427)


(Start cutting path id: path5425)
(vplot gcode)
(Change tool to Default tool)

G00 Z5.000000
G00 X649.325547 Y643.104729

G01 Z-1.000000 F100.0(Penetrate)
G01 X648.411514 Y644.754290 Z-1.000000 F400.000000
G01 X647.497481 Y646.403878 Z-1.000000
G01 X646.583476 Y648.053439 Z-1.000000
G01 X645.669443 Y649.703000 Z-1.000000
G01 X644.755410 Y651.352560 Z-1.000000
G01 X643.841377 Y653.002149 Z-1.000000
G01 X642.927372 Y654.651710 Z-1.000000
G01 X642.013339 Y656.301271 Z-1.000000
G00 Z5.000000

(End cutting path id: path5425)


(Start cutting path id: path5423)
(vplot gcode)
(Change tool to Default tool)

G00 Z5.000000
G00 X642.013339 Y656.301242

G01 Z-1.000000 F100.0(Penetrate)
G01 X641.638689 Y658.730894 Z-1.000000 F400.000000
G01 X641.264039 Y661.160517 Z-1.000000
G01 X640.889389 Y663.590168 Z-1.000000
G01 X640.514711 Y666.019791 Z-1.000000
G01 X640.140061 Y668.449442 Z-1.000000
G01 X639.765411 Y670.879093 Z-1.000000
G01 X639.390761 Y673.308716 Z-1.000000
G01 X639.016111 Y675.738367 Z-1.000000
G00 Z5.000000

(End cutting path id: path5423)


(Start cutting path id: path5421)
(vplot gcode)
(Change tool to Default tool)

G00 Z5.000000
G00 X639.016054 Y675.738367

G01 Z-1.000000 F100.0(Penetrate)
G01 X639.395163 Y678.180915 Z-1.000000 F400.000000
G01 X639.774244 Y680.623492 Z-1.000000
G01 X640.153353 Y683.066041 Z-1.000000
G01 X640.532462 Y685.508590 Z-1.000000
G01 X640.911543 Y687.951138 Z-1.000000
G01 X641.290652 Y690.393687 Z-1.000000
G01 X641.669733 Y692.836264 Z-1.000000
G01 X642.048842 Y695.278813 Z-1.000000
G00 Z5.000000

(End cutting path id: path5421)


(Start cutting path id: path5419)
(vplot gcode)
(Change tool to Default tool)

G00 Z5.000000
G00 X642.048842 Y695.278813

G01 Z-1.000000 F100.0(Penetrate)
G01 X642.948736 Y696.857338 Z-1.000000 F400.000000
G01 X643.848630 Y698.435835 Z-1.000000
G01 X644.748524 Y700.014361 Z-1.000000
G01 X645.648418 Y701.592858 Z-1.000000
G01 X646.548311 Y703.171383 Z-1.000000
G01 X647.448205 Y704.749908 Z-1.000000
G01 X648.348099 Y706.328405 Z-1.000000
G01 X649.247993 Y707.906931 Z-1.000000
G00 Z5.000000

(End cutting path id: path5419)


(Start cutting path id: path5417)
(vplot gcode)
(Change tool to Default tool)

G00 Z5.000000
G00 X649.248021 Y707.906959

G01 Z-1.000000 F100.0(Penetrate)
G01 X650.711569 Y708.929083 Z-1.000000 F400.000000
G01 X652.175117 Y709.951207 Z-1.000000
G01 X653.638665 Y710.973332 Z-1.000000
G01 X655.102213 Y711.995484 Z-1.000000
G01 X656.565733 Y713.017608 Z-1.000000
G01 X658.029281 Y714.039733 Z-1.000000
G01 X659.492829 Y715.061857 Z-1.000000
G01 X660.956377 Y716.083981 Z-1.000000
G00 Z5.000000

(End cutting path id: path5417)


(Start cutting path id: path5415)
(vplot gcode)
(Change tool to Default tool)

G00 Z5.000000
G00 X660.956405 Y716.083981

G01 Z-1.000000 F100.0(Penetrate)
G01 X663.116675 Y716.495884 Z-1.000000 F400.000000
G01 X665.276945 Y716.907759 Z-1.000000
G01 X667.437187 Y717.319663 Z-1.000000
G01 X669.597457 Y717.731538 Z-1.000000
G01 X671.757727 Y718.143441 Z-1.000000
G01 X673.917997 Y718.555345 Z-1.000000
G01 X676.078239 Y718.967220 Z-1.000000
G01 X678.238509 Y719.379123 Z-1.000000
G00 Z5.000000

(End cutting path id: path5415)


(Start cutting path id: path5413)
(vplot gcode)
(Change tool to Default tool)

G00 Z5.000000
G00 X678.238509 Y719.379095

G01 Z-1.000000 F100.0(Penetrate)
G01 X680.375128 Y718.963494 Z-1.000000 F400.000000
G01 X682.511748 Y718.547922 Z-1.000000
G01 X684.648368 Y718.132322 Z-1.000000
G01 X686.785016 Y717.716721 Z-1.000000
G01 X688.921636 Y717.301149 Z-1.000000
G01 X691.058256 Y716.885549 Z-1.000000
G01 X693.194875 Y716.469976 Z-1.000000
G01 X695.331495 Y716.054376 Z-1.000000
G00 Z5.000000

(End cutting path id: path5413)


(Start cutting path id: path5411)
(vplot gcode)
(Change tool to Default tool)

G00 Z5.000000
G00 X695.331467 Y716.054404

G01 Z-1.000000 F100.0(Penetrate)
G01 X696.789596 Y715.016588 Z-1.000000 F400.000000
G01 X698.247697 Y713.978801 Z-1.000000
G01 X699.705827 Y712.940985 Z-1.000000
G01 X701.163956 Y711.903169 Z-1.000000
G01 X702.622085 Y710.865353 Z-1.000000
G01 X704.080215 Y709.827566 Z-1.000000
G01 X705.538316 Y708.789750 Z-1.000000
G01 X706.996445 Y707.751934 Z-1.000000
G00 Z5.000000

(End cutting path id: path5411)


(Start cutting path id: path5409)
(vplot gcode)
(Change tool to Default tool)

G00 Z5.000000
G00 X706.996445 Y707.751906

G01 Z-1.000000 F100.0(Penetrate)
G01 X707.900177 Y706.156899 Z-1.000000 F400.000000
G01 X708.803909 Y704.561920 Z-1.000000
G01 X709.707641 Y702.966913 Z-1.000000
G01 X710.611401 Y701.371906 Z-1.000000
G01 X711.515133 Y699.776899 Z-1.000000
G01 X712.418865 Y698.181920 Z-1.000000
G01 X713.322597 Y696.586913 Z-1.000000
G01 X714.226329 Y694.991906 Z-1.000000
G00 Z5.000000

(End cutting path id: path5409)


(Start cutting path id: path5407)
(vplot gcode)
(Change tool to Default tool)

G00 Z5.000000
G00 X714.226329 Y694.991906

G01 Z-1.000000 F100.0(Penetrate)
G01 X714.601572 Y692.585227 Z-1.000000 F400.000000
G01 X714.976843 Y690.178521 Z-1.000000
G01 X715.352086 Y687.771843 Z-1.000000
G01 X715.727328 Y685.365136 Z-1.000000
G01 X716.102599 Y682.958458 Z-1.000000
G01 X716.477842 Y680.551752 Z-1.000000
G01 X716.853113 Y678.145073 Z-1.000000
G01 X717.228356 Y675.738367 Z-1.000000
G00 Z5.000000

(End cutting path id: path5407)


(Start cutting path id: path5405)
(vplot gcode)
(Change tool to Default tool)

G00 Z5.000000
G00 X732.343726 Y675.738395

G01 Z-1.000000 F100.0(Penetrate)
G01 X732.343726 Y675.738395 Z-1.000000 F400.000000
G01 X732.343726 Y675.738395 Z-1.000000
G01 X732.343726 Y675.738395 Z-1.000000
G01 X732.343726 Y675.738395 Z-1.000000
G01 X732.343726 Y675.738395 Z-1.000000
G01 X732.343726 Y675.738395 Z-1.000000
G01 X732.343726 Y675.738395 Z-1.000000
G01 X732.343726 Y675.738395 Z-1.000000
G00 Z5.000000

(End cutting path id: path5405)


(Start cutting path id: path5403)
(vplot gcode)
(Change tool to Default tool)

G00 Z5.000000
G00 X730.535557 Y692.508124

G01 Z-1.000000 F100.0(Penetrate)
G01 X730.761588 Y690.411919 Z-1.000000 F400.000000
G01 X730.987592 Y688.315685 Z-1.000000
G01 X731.213624 Y686.219451 Z-1.000000
G01 X731.439627 Y684.123246 Z-1.000000
G01 X731.665659 Y682.027040 Z-1.000000
G01 X731.891663 Y679.930806 Z-1.000000
G01 X732.117694 Y677.834601 Z-1.000000
G01 X732.343698 Y675.738367 Z-1.000000
G00 Z5.000000

(End cutting path id: path5403)


(Start cutting path id: path5401)
(vplot gcode)
(Change tool to Default tool)

G00 Z5.000000
G00 X725.832521 Y705.581561

G01 Z-1.000000 F100.0(Penetrate)
G01 X726.420418 Y703.947381 Z-1.000000 F400.000000
G01 X727.008287 Y702.313202 Z-1.000000
G01 X727.596156 Y700.679022 Z-1.000000
G01 X728.184053 Y699.044871 Z-1.000000
G01 X728.771922 Y697.410691 Z-1.000000
G01 X729.359819 Y695.776512 Z-1.000000
G01 X729.947716 Y694.142332 Z-1.000000
G01 X730.535585 Y692.508152 Z-1.000000
G00 Z5.000000

(End cutting path id: path5401)


(Start cutting path id: path5399)
(vplot gcode)
(Change tool to Default tool)

G00 Z5.000000
G00 X717.865275 Y716.717203

G01 Z-1.000000 F100.0(Penetrate)
G01 X718.861180 Y715.325255 Z-1.000000 F400.000000
G01 X719.857086 Y713.933278 Z-1.000000
G01 X720.852992 Y712.541330 Z-1.000000
G01 X721.848898 Y711.149382 Z-1.000000
G01 X722.844775 Y709.757434 Z-1.000000
G01 X723.840681 Y708.365485 Z-1.000000
G01 X724.836587 Y706.973509 Z-1.000000
G01 X725.832493 Y705.581561 Z-1.000000
G00 Z5.000000

(End cutting path id: path5399)


(Start cutting path id: path5397)
(vplot gcode)
(Change tool to Default tool)

G00 Z5.000000
G00 X707.151470 Y724.805128

G01 Z-1.000000 F100.0(Penetrate)
G01 X708.490699 Y723.794123 Z-1.000000 F400.000000
G01 X709.829928 Y722.783146 Z-1.000000
G01 X711.169157 Y721.772142 Z-1.000000
G01 X712.508358 Y720.761137 Z-1.000000
G01 X713.847587 Y719.750132 Z-1.000000
G01 X715.186816 Y718.739156 Z-1.000000
G01 X716.526046 Y717.728151 Z-1.000000
G01 X717.865275 Y716.717147 Z-1.000000
G00 Z5.000000

(End cutting path id: path5397)


(Start cutting path id: path5395)
(vplot gcode)
(Change tool to Default tool)

G00 Z5.000000
G00 X694.435073 Y729.628418

G01 Z-1.000000 F100.0(Penetrate)
G01 X696.024633 Y729.025507 Z-1.000000 F400.000000
G01 X697.614165 Y728.422596 Z-1.000000
G01 X699.203725 Y727.819684 Z-1.000000
G01 X700.793285 Y727.216773 Z-1.000000
G01 X702.382817 Y726.613862 Z-1.000000
G01 X703.972378 Y726.010950 Z-1.000000
G01 X705.561910 Y725.408039 Z-1.000000
G01 X707.151470 Y724.805128 Z-1.000000
G00 Z5.000000

(End cutting path id: path5395)


(Start cutting path id: path5393)
(vplot gcode)
(Change tool to Default tool)

G00 Z5.000000
G00 X678.238509 Y731.471386

G01 Z-1.000000 F100.0(Penetrate)
G01 X680.263086 Y731.241008 Z-1.000000 F400.000000
G01 X682.287664 Y731.010630 Z-1.000000
G01 X684.312241 Y730.780252 Z-1.000000
G01 X686.336819 Y730.549902 Z-1.000000
G01 X688.361368 Y730.319524 Z-1.000000
G01 X690.385946 Y730.089146 Z-1.000000
G01 X692.410523 Y729.858768 Z-1.000000
G01 X694.435101 Y729.628390 Z-1.000000
G00 Z5.000000

(End cutting path id: path5393)


(Start cutting path id: path5391)
(vplot gcode)
(Change tool to Default tool)

G00 Z5.000000
G00 X654.465858 Y727.205032

G01 Z-1.000000 F100.0(Penetrate)
G01 X657.437432 Y727.738320 Z-1.000000 F400.000000
G01 X660.409035 Y728.271635 Z-1.000000
G01 X663.380609 Y728.804922 Z-1.000000
G01 X666.352183 Y729.338209 Z-1.000000
G01 X669.323758 Y729.871496 Z-1.000000
G01 X672.295360 Y730.404812 Z-1.000000
G01 X675.266934 Y730.938099 Z-1.000000
G01 X678.238509 Y731.471386 Z-1.000000
G00 Z5.000000

(End cutting path id: path5391)


(Start cutting path id: path5389)
(vplot gcode)
(Change tool to Default tool)

G00 Z5.000000
G00 X638.318485 Y716.666121

G01 Z-1.000000 F100.0(Penetrate)
G01 X640.336911 Y717.983506 Z-1.000000 F400.000000
G01 X642.355336 Y719.300863 Z-1.000000
G01 X644.373761 Y720.618248 Z-1.000000
G01 X646.392186 Y721.935605 Z-1.000000
G01 X648.410583 Y723.252990 Z-1.000000
G01 X650.429008 Y724.570347 Z-1.000000
G01 X652.447433 Y725.887704 Z-1.000000
G01 X654.465858 Y727.205089 Z-1.000000
G00 Z5.000000

(End cutting path id: path5389)


(Start cutting path id: path5387)
(vplot gcode)
(Change tool to Default tool)

G00 Z5.000000
G00 X628.147084 Y700.243977

G01 Z-1.000000 F100.0(Penetrate)
G01 X629.418495 Y702.296748 Z-1.000000 F400.000000
G01 X630.689906 Y704.349491 Z-1.000000
G01 X631.961345 Y706.402263 Z-1.000000
G01 X633.232756 Y708.455035 Z-1.000000
G01 X634.504167 Y710.507806 Z-1.000000
G01 X635.775579 Y712.560578 Z-1.000000
G01 X637.047018 Y714.613321 Z-1.000000
G01 X638.318429 Y716.666093 Z-1.000000
G00 Z5.000000

(End cutting path id: path5387)


(Start cutting path id: path5385)
(vplot gcode)
(Change tool to Default tool)

G00 Z5.000000
G00 X623.978238 Y675.738367

G01 Z-1.000000 F100.0(Penetrate)
G01 X624.499361 Y678.801579 Z-1.000000 F400.000000
G01 X625.020457 Y681.864762 Z-1.000000
G01 X625.541580 Y684.927974 Z-1.000000
G01 X626.062675 Y687.991186 Z-1.000000
G01 X626.583798 Y691.054369 Z-1.000000
G01 X627.104893 Y694.117581 Z-1.000000
G01 X627.626017 Y697.180765 Z-1.000000
G01 X628.147112 Y700.243977 Z-1.000000
G00 Z5.000000

(End cutting path id: path5385)


(Start cutting path id: path5383)
(vplot gcode)
(Change tool to Default tool)

G00 Z5.000000
G00 X625.749775 Y658.946088

G01 Z-1.000000 F100.0(Penetrate)
G01 X625.528344 Y661.045116 Z-1.000000 F400.000000
G01 X625.306884 Y663.144172 Z-1.000000
G01 X625.085452 Y665.243200 Z-1.000000
G01 X624.863993 Y667.342227 Z-1.000000
G01 X624.642561 Y669.441255 Z-1.000000
G01 X624.421129 Y671.540311 Z-1.000000
G01 X624.199670 Y673.639339 Z-1.000000
G01 X623.978238 Y675.738367 Z-1.000000
G00 Z5.000000

(End cutting path id: path5383)


(Start cutting path id: path5381)
(vplot gcode)
(Change tool to Default tool)

G00 Z5.000000
G00 X630.411917 Y645.585152

G01 Z-1.000000 F100.0(Penetrate)
G01 X629.829156 Y647.255258 Z-1.000000 F400.000000
G01 X629.246367 Y648.925393 Z-1.000000
G01 X628.663607 Y650.595499 Z-1.000000
G01 X628.080846 Y652.265634 Z-1.000000
G01 X627.498057 Y653.935740 Z-1.000000
G01 X626.915297 Y655.605847 Z-1.000000
G01 X626.332508 Y657.275982 Z-1.000000
G01 X625.749747 Y658.946088 Z-1.000000
G00 Z5.000000

(End cutting path id: path5381)


(Start cutting path id: path5379)
(vplot gcode)
(Change tool to Default tool)

G00 Z5.000000
G00 X638.385033 Y634.186083

G01 Z-1.000000 F100.0(Penetrate)
G01 X637.388394 Y635.610967 Z-1.000000 F400.000000
G01 X636.391754 Y637.035850 Z-1.000000
G01 X635.395115 Y638.460734 Z-1.000000
G01 X634.398475 Y639.885617 Z-1.000000
G01 X633.401836 Y641.310501 Z-1.000000
G01 X632.405196 Y642.735385 Z-1.000000
G01 X631.408557 Y644.160268 Z-1.000000
G01 X630.411917 Y645.585152 Z-1.000000
G00 Z5.000000

(End cutting path id: path5379)


(Start cutting path id: path5377)
(vplot gcode)
(Change tool to Default tool)

G00 Z5.000000
G00 X649.015470 Y625.896483

G01 Z-1.000000 F100.0(Penetrate)
G01 X647.686655 Y626.932690 Z-1.000000 F400.000000
G01 X646.357868 Y627.968897 Z-1.000000
G01 X645.029053 Y629.005104 Z-1.000000
G01 X643.700238 Y630.041283 Z-1.000000
G01 X642.371451 Y631.077490 Z-1.000000
G01 X641.042636 Y632.113697 Z-1.000000
G01 X639.713849 Y633.149904 Z-1.000000
G01 X638.385033 Y634.186111 Z-1.000000
G00 Z5.000000

(End cutting path id: path5377)


(Start cutting path id: path5375)
(vplot gcode)
(Change tool to Default tool)

G00 Z5.000000
G00 X661.753683 Y620.965552

G01 Z-1.000000 F100.0(Penetrate)
G01 X660.161413 Y621.581926 Z-1.000000 F400.000000
G01 X658.569115 Y622.198299 Z-1.000000
G01 X656.976846 Y622.814673 Z-1.000000
G01 X655.384576 Y623.431018 Z-1.000000
G01 X653.792278 Y624.047391 Z-1.000000
G01 X652.200009 Y624.663764 Z-1.000000
G01 X650.607711 Y625.280138 Z-1.000000
G01 X649.015442 Y625.896511 Z-1.000000
G00 Z5.000000

(End cutting path id: path5375)


(Start cutting path id: path5373)
(vplot gcode)
(Change tool to Default tool)

G00 Z5.000000
G00 X678.083484 Y619.075200

G01 Z-1.000000 F100.0(Penetrate)
G01 X676.042255 Y619.311504 Z-1.000000 F400.000000
G01 X674.001055 Y619.547781 Z-1.000000
G01 X671.959826 Y619.784086 Z-1.000000
G01 X669.918597 Y620.020362 Z-1.000000
G01 X667.877369 Y620.256667 Z-1.000000
G01 X665.836140 Y620.492971 Z-1.000000
G01 X663.794940 Y620.729248 Z-1.000000
G01 X661.753711 Y620.965552 Z-1.000000
G00 Z5.000000

(End cutting path id: path5373)


(Start cutting path id: path5371)
(vplot gcode)
(Change tool to Default tool)

G00 Z5.000000
G00 X694.250274 Y620.977236

G01 Z-1.000000 F100.0(Penetrate)
G01 X692.229421 Y620.739492 Z-1.000000 F400.000000
G01 X690.208569 Y620.501720 Z-1.000000
G01 X688.187717 Y620.263976 Z-1.000000
G01 X686.166865 Y620.026204 Z-1.000000
G01 X684.146041 Y619.788460 Z-1.000000
G01 X682.125188 Y619.550716 Z-1.000000
G01 X680.104336 Y619.312944 Z-1.000000
G01 X678.083484 Y619.075200 Z-1.000000
G00 Z5.000000

(End cutting path id: path5371)


(Start cutting path id: path5369)
(vplot gcode)
(Change tool to Default tool)

G00 Z5.000000
G00 X706.996389 Y625.974009

G01 Z-1.000000 F100.0(Penetrate)
G01 X705.403131 Y625.349423 Z-1.000000 F400.000000
G01 X703.809846 Y624.724809 Z-1.000000
G01 X702.216589 Y624.100223 Z-1.000000
G01 X700.623303 Y623.475637 Z-1.000000
G01 X699.030046 Y622.851023 Z-1.000000
G01 X697.436760 Y622.226437 Z-1.000000
G01 X695.843503 Y621.601822 Z-1.000000
G01 X694.250217 Y620.977236 Z-1.000000
G00 Z5.000000

(End cutting path id: path5369)


(Start cutting path id: path5367)
(vplot gcode)
(Change tool to Default tool)

G00 Z5.000000
G00 X717.716798 Y634.333177

G01 Z-1.000000 F100.0(Penetrate)
G01 X716.376750 Y633.288278 Z-1.000000 F400.000000
G01 X715.036702 Y632.243378 Z-1.000000
G01 X713.696655 Y631.198479 Z-1.000000
G01 X712.356607 Y630.153579 Z-1.000000
G01 X711.016560 Y629.108651 Z-1.000000
G01 X709.676512 Y628.063752 Z-1.000000
G01 X708.336465 Y627.018852 Z-1.000000
G01 X706.996417 Y625.973953 Z-1.000000
G00 Z5.000000

(End cutting path id: path5367)


(Start cutting path id: path5365)
(vplot gcode)
(Change tool to Default tool)

G00 Z5.000000
G00 X725.754938 Y645.740233

G01 Z-1.000000 F100.0(Penetrate)
G01 X724.750170 Y644.314362 Z-1.000000 F400.000000
G01 X723.745403 Y642.888462 Z-1.000000
G01 X722.740635 Y641.462591 Z-1.000000
G01 X721.735868 Y640.036719 Z-1.000000
G01 X720.731072 Y638.610848 Z-1.000000
G01 X719.726304 Y637.184977 Z-1.000000
G01 X718.721537 Y635.759077 Z-1.000000
G01 X717.716769 Y634.333206 Z-1.000000
G00 Z5.000000

(End cutting path id: path5365)


(Start cutting path id: path5363)
(vplot gcode)
(Change tool to Default tool)

G00 Z5.000000
G00 X730.532001 Y659.044499

G01 Z-1.000000 F100.0(Penetrate)
G01 X729.934875 Y657.381448 Z-1.000000 F400.000000
G01 X729.337749 Y655.718425 Z-1.000000
G01 X728.740623 Y654.055403 Z-1.000000
G01 X728.143498 Y652.392352 Z-1.000000
G01 X727.546344 Y650.729301 Z-1.000000
G01 X726.949218 Y649.066278 Z-1.000000
G01 X726.352092 Y647.403256 Z-1.000000
G01 X725.754966 Y645.740205 Z-1.000000
G00 Z5.000000

(End cutting path id: path5363)


(Start cutting path id: path5361)
(vplot gcode)
(Change tool to Default tool)

G00 Z5.000000
G00 X732.343726 Y675.738367

G01 Z-1.000000 F100.0(Penetrate)
G01 X732.117271 Y673.651644 Z-1.000000 F400.000000
G01 X731.890816 Y671.564893 Z-1.000000
G01 X731.664333 Y669.478170 Z-1.000000
G01 X731.437878 Y667.391447 Z-1.000000
G01 X731.211422 Y665.304696 Z-1.000000
G01 X730.984967 Y663.217973 Z-1.000000
G01 X730.758484 Y661.131222 Z-1.000000
G01 X730.532029 Y659.044499 Z-1.000000
G00 Z5.000000

(End cutting path id: path5361)


(Start cutting path id: path5359)
(vplot gcode)
(Change tool to Default tool)

G00 Z5.000000
G00 X827.919270 Y698.450172

G01 Z-1.000000 F100.0(Penetrate)
G01 X827.919270 Y698.450172 Z-1.000000 F400.000000
G01 X827.919270 Y698.450172 Z-1.000000
G01 X827.919270 Y698.450172 Z-1.000000
G01 X827.919270 Y698.450172 Z-1.000000
G01 X827.919270 Y698.450172 Z-1.000000
G01 X827.919270 Y698.450172 Z-1.000000
G01 X827.919270 Y698.450172 Z-1.000000
G01 X827.919270 Y698.450172 Z-1.000000
G00 Z5.000000

(End cutting path id: path5359)


(Start cutting path id: path5357)
(vplot gcode)
(Change tool to Default tool)

G00 Z5.000000
G00 X827.919270 Y698.450172

G01 Z-1.000000 F100.0(Penetrate)
G01 X827.692759 Y697.323936 Z-1.000000 F400.000000
G01 X827.466275 Y696.197700 Z-1.000000
G01 X827.239764 Y695.071464 Z-1.000000
G01 X827.013252 Y693.945256 Z-1.000000
G01 X826.786741 Y692.819020 Z-1.000000
G01 X826.560257 Y691.692784 Z-1.000000
G01 X826.333746 Y690.566548 Z-1.000000
G01 X826.107234 Y689.440312 Z-1.000000
G00 Z5.000000

(End cutting path id: path5357)


(Start cutting path id: path5355)
(vplot gcode)
(Change tool to Default tool)

G00 Z5.000000
G00 X826.107206 Y689.440312

G01 Z-1.000000 F100.0(Penetrate)
G01 X825.529497 Y688.648058 Z-1.000000 F400.000000
G01 X824.951788 Y687.855804 Z-1.000000
G01 X824.374079 Y687.063550 Z-1.000000
G01 X823.796399 Y686.271295 Z-1.000000
G01 X823.218690 Y685.479041 Z-1.000000
G01 X822.640981 Y684.686787 Z-1.000000
G01 X822.063272 Y683.894533 Z-1.000000
G01 X821.485563 Y683.102278 Z-1.000000
G00 Z5.000000

(End cutting path id: path5355)


(Start cutting path id: path5353)
(vplot gcode)
(Change tool to Default tool)

G00 Z5.000000
G00 X821.485563 Y683.102307

G01 Z-1.000000 F100.0(Penetrate)
G01 X820.615811 Y682.628032 Z-1.000000 F400.000000
G01 X819.746058 Y682.153758 Z-1.000000
G01 X818.876306 Y681.679483 Z-1.000000
G01 X818.006553 Y681.205181 Z-1.000000
G01 X817.136829 Y680.730906 Z-1.000000
G01 X816.267077 Y680.256632 Z-1.000000
G01 X815.397324 Y679.782357 Z-1.000000
G01 X814.527572 Y679.308083 Z-1.000000
G00 Z5.000000

(End cutting path id: path5353)


(Start cutting path id: path5351)
(vplot gcode)
(Change tool to Default tool)

G00 Z5.000000
G00 X814.527600 Y679.308055

G01 Z-1.000000 F100.0(Penetrate)
G01 X813.139744 Y679.104093 Z-1.000000 F400.000000
G01 X811.751860 Y678.900102 Z-1.000000
G01 X810.364004 Y678.696140 Z-1.000000
G01 X808.976148 Y678.492150 Z-1.000000
G01 X807.588263 Y678.288188 Z-1.000000
G01 X806.200407 Y678.084226 Z-1.000000
G01 X804.812523 Y677.880236 Z-1.000000
G01 X803.424667 Y677.676274 Z-1.000000
G00 Z5.000000

(End cutting path id: path5351)


(Start cutting path id: path5349)
(vplot gcode)
(Change tool to Default tool)

G00 Z5.000000
G00 X767.690395 Y677.676246

G01 Z-1.000000 F100.0(Penetrate)
G01 X772.157182 Y677.676246 Z-1.000000 F400.000000
G01 X776.623942 Y677.676246 Z-1.000000
G01 X781.090729 Y677.676246 Z-1.000000
G01 X785.557517 Y677.676246 Z-1.000000
G01 X790.024304 Y677.676246 Z-1.000000
G01 X794.491092 Y677.676246 Z-1.000000
G01 X798.957851 Y677.676246 Z-1.000000
G01 X803.424639 Y677.676246 Z-1.000000
G00 Z5.000000

(End cutting path id: path5349)


(Start cutting path id: path5347)
(vplot gcode)
(Change tool to Default tool)

G00 Z5.000000
G00 X767.690395 Y717.983873

G01 Z-1.000000 F100.0(Penetrate)
G01 X767.690395 Y712.945416 Z-1.000000 F400.000000
G01 X767.690395 Y707.906959 Z-1.000000
G01 X767.690395 Y702.868502 Z-1.000000
G01 X767.690395 Y697.830045 Z-1.000000
G01 X767.690395 Y692.791616 Z-1.000000
G01 X767.690395 Y687.753160 Z-1.000000
G01 X767.690395 Y682.714703 Z-1.000000
G01 X767.690395 Y677.676246 Z-1.000000
G00 Z5.000000

(End cutting path id: path5347)


(Start cutting path id: path5345)
(vplot gcode)
(Change tool to Default tool)

G00 Z5.000000
G00 X802.804540 Y717.983873

G01 Z-1.000000 F100.0(Penetrate)
G01 X798.415279 Y717.983873 Z-1.000000 F400.000000
G01 X794.026018 Y717.983873 Z-1.000000
G01 X789.636729 Y717.983873 Z-1.000000
G01 X785.247467 Y717.983873 Z-1.000000
G01 X780.858206 Y717.983873 Z-1.000000
G01 X776.468945 Y717.983873 Z-1.000000
G01 X772.079656 Y717.983873 Z-1.000000
G01 X767.690395 Y717.983873 Z-1.000000
G00 Z5.000000

(End cutting path id: path5345)


(Start cutting path id: path5343)
(vplot gcode)
(Change tool to Default tool)

G00 Z5.000000
G00 X802.804540 Y717.983845

G01 Z-1.000000 F100.0(Penetrate)
G01 X804.259029 Y717.790381 Z-1.000000 F400.000000
G01 X805.713518 Y717.596890 Z-1.000000
G01 X807.167978 Y717.403426 Z-1.000000
G01 X808.622467 Y717.209963 Z-1.000000
G01 X810.076955 Y717.016471 Z-1.000000
G01 X811.531444 Y716.823008 Z-1.000000
G01 X812.985905 Y716.629517 Z-1.000000
G01 X814.440393 Y716.436053 Z-1.000000
G00 Z5.000000

(End cutting path id: path5343)


(Start cutting path id: path5341)
(vplot gcode)
(Change tool to Default tool)

G00 Z5.000000
G00 X814.440393 Y716.436053

G01 Z-1.000000 F100.0(Penetrate)
G01 X815.311359 Y715.999738 Z-1.000000 F400.000000
G01 X816.182297 Y715.563394 Z-1.000000
G01 X817.053263 Y715.127078 Z-1.000000
G01 X817.924229 Y714.690735 Z-1.000000
G01 X818.795195 Y714.254391 Z-1.000000
G01 X819.666133 Y713.818075 Z-1.000000
G01 X820.537099 Y713.381731 Z-1.000000
G01 X821.408065 Y712.945416 Z-1.000000
G00 Z5.000000

(End cutting path id: path5341)


(Start cutting path id: path5339)
(vplot gcode)
(Change tool to Default tool)

G00 Z5.000000
G00 X821.408065 Y712.945416

G01 Z-1.000000 F100.0(Penetrate)
G01 X821.991079 Y712.210961 Z-1.000000 F400.000000
G01 X822.574094 Y711.476477 Z-1.000000
G01 X823.157109 Y710.742022 Z-1.000000
G01 X823.740152 Y710.007567 Z-1.000000
G01 X824.323166 Y709.273084 Z-1.000000
G01 X824.906181 Y708.538629 Z-1.000000
G01 X825.489196 Y707.804145 Z-1.000000
G01 X826.072210 Y707.069690 Z-1.000000
G00 Z5.000000

(End cutting path id: path5339)


(Start cutting path id: path5337)
(vplot gcode)
(Change tool to Default tool)

G00 Z5.000000
G00 X826.072267 Y707.069690

G01 Z-1.000000 F100.0(Penetrate)
G01 X826.303153 Y705.992251 Z-1.000000 F400.000000
G01 X826.534039 Y704.914811 Z-1.000000
G01 X826.764897 Y703.837371 Z-1.000000
G01 X826.995783 Y702.759931 Z-1.000000
G01 X827.226669 Y701.682491 Z-1.000000
G01 X827.457555 Y700.605052 Z-1.000000
G01 X827.688412 Y699.527612 Z-1.000000
G01 X827.919298 Y698.450172 Z-1.000000
G00 Z5.000000

(End cutting path id: path5337)


(Start cutting path id: path5335)
(vplot gcode)
(Change tool to Default tool)

G00 Z5.000000
G00 X830.089700 Y620.625475

G01 Z-1.000000 F100.0(Penetrate)
G01 X830.089700 Y620.625475 Z-1.000000 F400.000000
G01 X830.089700 Y620.625475 Z-1.000000
G01 X830.089700 Y620.625475 Z-1.000000
G01 X830.089700 Y620.625475 Z-1.000000
G01 X830.089700 Y620.625475 Z-1.000000
G01 X830.089700 Y620.625475 Z-1.000000
G01 X830.089700 Y620.625475 Z-1.000000
G01 X830.089700 Y620.625475 Z-1.000000
G00 Z5.000000

(End cutting path id: path5335)


(Start cutting path id: path5333)
(vplot gcode)
(Change tool to Default tool)

G00 Z5.000000
G00 X847.142922 Y620.625475

G01 Z-1.000000 F100.0(Penetrate)
G01 X845.011269 Y620.625475 Z-1.000000 F400.000000
G01 X842.879616 Y620.625475 Z-1.000000
G01 X840.747964 Y620.625475 Z-1.000000
G01 X838.616311 Y620.625475 Z-1.000000
G01 X836.484658 Y620.625475 Z-1.000000
G01 X834.353006 Y620.625475 Z-1.000000
G01 X832.221353 Y620.625475 Z-1.000000
G01 X830.089700 Y620.625475 Z-1.000000
G00 Z5.000000

(End cutting path id: path5333)


(Start cutting path id: path5331)
(vplot gcode)
(Change tool to Default tool)

G00 Z5.000000
G00 X816.137057 Y667.676858

G01 Z-1.000000 F100.0(Penetrate)
G01 X820.012786 Y661.795432 Z-1.000000 F400.000000
G01 X823.888516 Y655.914005 Z-1.000000
G01 X827.764245 Y650.032579 Z-1.000000
G01 X831.640003 Y644.151181 Z-1.000000
G01 X835.515733 Y638.269754 Z-1.000000
G01 X839.391462 Y632.388328 Z-1.000000
G01 X843.267192 Y626.506901 Z-1.000000
G01 X847.142922 Y620.625475 Z-1.000000
G00 Z5.000000

(End cutting path id: path5331)


(Start cutting path id: path5329)
(vplot gcode)
(Change tool to Default tool)

G00 Z5.000000
G00 X827.599145 Y671.628562

G01 Z-1.000000 F100.0(Penetrate)
G01 X826.166388 Y671.134617 Z-1.000000 F400.000000
G01 X824.733630 Y670.640643 Z-1.000000
G01 X823.300873 Y670.146670 Z-1.000000
G01 X821.868115 Y669.652724 Z-1.000000
G01 X820.435329 Y669.158751 Z-1.000000
G01 X819.002572 Y668.664805 Z-1.000000
G01 X817.569814 Y668.170832 Z-1.000000
G01 X816.137057 Y667.676887 Z-1.000000
G00 Z5.000000

(End cutting path id: path5329)


(Start cutting path id: path5327)
(vplot gcode)
(Change tool to Default tool)

G00 Z5.000000
G00 X835.670758 Y678.141348

G01 Z-1.000000 F100.0(Penetrate)
G01 X834.661813 Y677.327250 Z-1.000000 F400.000000
G01 X833.652869 Y676.513151 Z-1.000000
G01 X832.643896 Y675.699053 Z-1.000000
G01 X831.634952 Y674.884955 Z-1.000000
G01 X830.626007 Y674.070857 Z-1.000000
G01 X829.617063 Y673.256759 Z-1.000000
G01 X828.608090 Y672.442660 Z-1.000000
G01 X827.599145 Y671.628562 Z-1.000000
G00 Z5.000000

(End cutting path id: path5327)


(Start cutting path id: path5325)
(vplot gcode)
(Change tool to Default tool)

G00 Z5.000000
G00 X840.863957 Y687.154058

G01 Z-1.000000 F100.0(Penetrate)
G01 X840.214818 Y686.027484 Z-1.000000 F400.000000
G01 X839.565650 Y684.900881 Z-1.000000
G01 X838.916511 Y683.774278 Z-1.000000
G01 X838.267343 Y682.647703 Z-1.000000
G01 X837.618204 Y681.521128 Z-1.000000
G01 X836.969064 Y680.394526 Z-1.000000
G01 X836.319897 Y679.267923 Z-1.000000
G01 X835.670758 Y678.141348 Z-1.000000
G00 Z5.000000

(End cutting path id: path5325)


(Start cutting path id: path5323)
(vplot gcode)
(Change tool to Default tool)

G00 Z5.000000
G00 X842.802118 Y698.605197

G01 Z-1.000000 F100.0(Penetrate)
G01 X842.559858 Y697.173794 Z-1.000000 F400.000000
G01 X842.317599 Y695.742419 Z-1.000000
G01 X842.075311 Y694.311016 Z-1.000000
G01 X841.833052 Y692.879642 Z-1.000000
G01 X841.590792 Y691.448239 Z-1.000000
G01 X841.348504 Y690.016836 Z-1.000000
G01 X841.106245 Y688.585461 Z-1.000000
G01 X840.863985 Y687.154058 Z-1.000000
G00 Z5.000000

(End cutting path id: path5323)


(Start cutting path id: path5321)
(vplot gcode)
(Change tool to Default tool)

G00 Z5.000000
G00 X839.990705 Y711.997855

G01 Z-1.000000 F100.0(Penetrate)
G01 X840.342128 Y710.323769 Z-1.000000 F400.000000
G01 X840.693551 Y708.649683 Z-1.000000
G01 X841.044974 Y706.975597 Z-1.000000
G01 X841.396397 Y705.301540 Z-1.000000
G01 X841.747792 Y703.627454 Z-1.000000
G01 X842.099215 Y701.953368 Z-1.000000
G01 X842.450638 Y700.279283 Z-1.000000
G01 X842.802062 Y698.605197 Z-1.000000
G00 Z5.000000

(End cutting path id: path5321)


(Start cutting path id: path5319)
(vplot gcode)
(Change tool to Default tool)

G00 Z5.000000
G00 X832.725204 Y721.549553

G01 Z-1.000000 F100.0(Penetrate)
G01 X833.633395 Y720.355584 Z-1.000000 F400.000000
G01 X834.541586 Y719.161643 Z-1.000000
G01 X835.449778 Y717.967673 Z-1.000000
G01 X836.357969 Y716.773732 Z-1.000000
G01 X837.266160 Y715.579763 Z-1.000000
G01 X838.174351 Y714.385793 Z-1.000000
G01 X839.082542 Y713.191852 Z-1.000000
G01 X839.990733 Y711.997883 Z-1.000000
G00 Z5.000000

(End cutting path id: path5319)


(Start cutting path id: path5317)
(vplot gcode)
(Change tool to Default tool)

G00 Z5.000000
G00 X821.821915 Y727.338185

G01 Z-1.000000 F100.0(Penetrate)
G01 X823.184823 Y726.614624 Z-1.000000 F400.000000
G01 X824.547731 Y725.891034 Z-1.000000
G01 X825.910638 Y725.167473 Z-1.000000
G01 X827.273546 Y724.443883 Z-1.000000
G01 X828.636453 Y723.720322 Z-1.000000
G01 X829.999361 Y722.996732 Z-1.000000
G01 X831.362268 Y722.273171 Z-1.000000
G01 X832.725176 Y721.549581 Z-1.000000
G00 Z5.000000

(End cutting path id: path5317)


(Start cutting path id: path5315)
(vplot gcode)
(Change tool to Default tool)

G00 Z5.000000
G00 X804.277317 Y729.843613

G01 Z-1.000000 F100.0(Penetrate)
G01 X806.470409 Y729.530431 Z-1.000000 F400.000000
G01 X808.663474 Y729.217249 Z-1.000000
G01 X810.856566 Y728.904067 Z-1.000000
G01 X813.049630 Y728.590885 Z-1.000000
G01 X815.242723 Y728.277731 Z-1.000000
G01 X817.435787 Y727.964549 Z-1.000000
G01 X819.628879 Y727.651367 Z-1.000000
G01 X821.821944 Y727.338185 Z-1.000000
G00 Z5.000000

(End cutting path id: path5315)


(Start cutting path id: path5313)
(vplot gcode)
(Change tool to Default tool)

G00 Z5.000000
G00 X752.885101 Y729.843613

G01 Z-1.000000 F100.0(Penetrate)
G01 X759.309128 Y729.843613 Z-1.000000 F400.000000
G01 X765.733155 Y729.843613 Z-1.000000
G01 X772.157182 Y729.843613 Z-1.000000
G01 X778.581209 Y729.843613 Z-1.000000
G01 X785.005236 Y729.843613 Z-1.000000
G01 X791.429263 Y729.843613 Z-1.000000
G01 X797.853290 Y729.843613 Z-1.000000
G01 X804.277317 Y729.843613 Z-1.000000
G00 Z5.000000

(End cutting path id: path5313)


(Start cutting path id: path5311)
(vplot gcode)
(Change tool to Default tool)

G00 Z5.000000
G00 X752.885101 Y620.625475

G01 Z-1.000000 F100.0(Penetrate)
G01 X752.885101 Y634.277749 Z-1.000000 F400.000000
G01 X752.885101 Y647.930023 Z-1.000000
G01 X752.885101 Y661.582269 Z-1.000000
G01 X752.885101 Y675.234544 Z-1.000000
G01 X752.885101 Y688.886818 Z-1.000000
G01 X752.885101 Y702.539092 Z-1.000000
G01 X752.885101 Y716.191338 Z-1.000000
G01 X752.885101 Y729.843613 Z-1.000000
G00 Z5.000000

(End cutting path id: path5311)


(Start cutting path id: path5309)
(vplot gcode)
(Change tool to Default tool)

G00 Z5.000000
G00 X767.690395 Y620.625475

G01 Z-1.000000 F100.0(Penetrate)
G01 X765.839722 Y620.625475 Z-1.000000 F400.000000
G01 X763.989078 Y620.625475 Z-1.000000
G01 X762.138406 Y620.625475 Z-1.000000
G01 X760.287762 Y620.625475 Z-1.000000
G01 X758.437090 Y620.625475 Z-1.000000
G01 X756.586418 Y620.625475 Z-1.000000
G01 X754.735774 Y620.625475 Z-1.000000
G01 X752.885101 Y620.625475 Z-1.000000
G00 Z5.000000

(End cutting path id: path5309)


(Start cutting path id: path5307)
(vplot gcode)
(Change tool to Default tool)

G00 Z5.000000
G00 X767.690395 Y665.971531

G01 Z-1.000000 F100.0(Penetrate)
G01 X767.690395 Y660.303267 Z-1.000000 F400.000000
G01 X767.690395 Y654.635031 Z-1.000000
G01 X767.690395 Y648.966767 Z-1.000000
G01 X767.690395 Y643.298503 Z-1.000000
G01 X767.690395 Y637.630239 Z-1.000000
G01 X767.690395 Y631.962003 Z-1.000000
G01 X767.690395 Y626.293739 Z-1.000000
G01 X767.690395 Y620.625475 Z-1.000000
G00 Z5.000000

(End cutting path id: path5307)


(Start cutting path id: path5305)
(vplot gcode)
(Change tool to Default tool)

G00 Z5.000000
G00 X801.719339 Y665.971531

G01 Z-1.000000 F100.0(Penetrate)
G01 X797.465714 Y665.971531 Z-1.000000 F400.000000
G01 X793.212089 Y665.971531 Z-1.000000
G01 X788.958492 Y665.971531 Z-1.000000
G01 X784.704867 Y665.971531 Z-1.000000
G01 X780.451242 Y665.971531 Z-1.000000
G01 X776.197645 Y665.971531 Z-1.000000
G01 X771.944020 Y665.971531 Z-1.000000
G01 X767.690395 Y665.971531 Z-1.000000
G00 Z5.000000

(End cutting path id: path5305)


(Start cutting path id: path5303)
(vplot gcode)
(Change tool to Default tool)

G00 Z5.000000
G00 X830.089700 Y620.625475

G01 Z-1.000000 F100.0(Penetrate)
G01 X826.543409 Y626.293739 Z-1.000000 F400.000000
G01 X822.997117 Y631.962003 Z-1.000000
G01 X819.450825 Y637.630239 Z-1.000000
G01 X815.904534 Y643.298503 Z-1.000000
G01 X812.358214 Y648.966767 Z-1.000000
G01 X808.811922 Y654.635031 Z-1.000000
G01 X805.265631 Y660.303267 Z-1.000000
G01 X801.719339 Y665.971531 Z-1.000000
G00 Z5.000000

(End cutting path id: path5303)


(Start cutting path id: path5301)
(vplot gcode)
(Change tool to Default tool)

G00 Z5.000000
G00 X867.606770 Y620.625475

G01 Z-1.000000 F100.0(Penetrate)
G01 X867.606770 Y620.625475 Z-1.000000 F400.000000
G01 X867.606770 Y620.625475 Z-1.000000
G01 X867.606770 Y620.625475 Z-1.000000
G01 X867.606770 Y620.625475 Z-1.000000
G01 X867.606770 Y620.625475 Z-1.000000
G01 X867.606770 Y620.625475 Z-1.000000
G01 X867.606770 Y620.625475 Z-1.000000
G01 X867.606770 Y620.625475 Z-1.000000
G00 Z5.000000

(End cutting path id: path5301)


(Start cutting path id: path5299)
(vplot gcode)
(Change tool to Default tool)

G00 Z5.000000
G00 X937.602510 Y620.625475

G01 Z-1.000000 F100.0(Penetrate)
G01 X928.853057 Y620.625475 Z-1.000000 F400.000000
G01 X920.103575 Y620.625475 Z-1.000000
G01 X911.354094 Y620.625475 Z-1.000000
G01 X902.604640 Y620.625475 Z-1.000000
G01 X893.855159 Y620.625475 Z-1.000000
G01 X885.105705 Y620.625475 Z-1.000000
G01 X876.356224 Y620.625475 Z-1.000000
G01 X867.606770 Y620.625475 Z-1.000000
G00 Z5.000000

(End cutting path id: path5299)


(Start cutting path id: path5297)
(vplot gcode)
(Change tool to Default tool)

G00 Z5.000000
G00 X937.602510 Y632.717766

G01 Z-1.000000 F100.0(Penetrate)
G01 X937.602510 Y631.206240 Z-1.000000 F400.000000
G01 X937.602510 Y629.694686 Z-1.000000
G01 X937.602510 Y628.183160 Z-1.000000
G01 X937.602510 Y626.671606 Z-1.000000
G01 X937.602510 Y625.160080 Z-1.000000
G01 X937.602510 Y623.648555 Z-1.000000
G01 X937.602510 Y622.137001 Z-1.000000
G01 X937.602510 Y620.625475 Z-1.000000
G00 Z5.000000

(End cutting path id: path5297)


(Start cutting path id: path5295)
(vplot gcode)
(Change tool to Default tool)

G00 Z5.000000
G00 X882.412092 Y632.717766

G01 Z-1.000000 F100.0(Penetrate)
G01 X889.310901 Y632.717766 Z-1.000000 F400.000000
G01 X896.209711 Y632.717766 Z-1.000000
G01 X903.108492 Y632.717766 Z-1.000000
G01 X910.007301 Y632.717766 Z-1.000000
G01 X916.906110 Y632.717766 Z-1.000000
G01 X923.804920 Y632.717766 Z-1.000000
G01 X930.703701 Y632.717766 Z-1.000000
G01 X937.602510 Y632.717766 Z-1.000000
G00 Z5.000000

(End cutting path id: path5295)


(Start cutting path id: path5293)
(vplot gcode)
(Change tool to Default tool)

G00 Z5.000000
G00 X882.412092 Y729.843613

G01 Z-1.000000 F100.0(Penetrate)
G01 X882.412092 Y717.702892 Z-1.000000 F400.000000
G01 X882.412092 Y705.562144 Z-1.000000
G01 X882.412092 Y693.421424 Z-1.000000
G01 X882.412092 Y681.280675 Z-1.000000
G01 X882.412092 Y669.139955 Z-1.000000
G01 X882.412092 Y656.999234 Z-1.000000
G01 X882.412092 Y644.858486 Z-1.000000
G01 X882.412092 Y632.717766 Z-1.000000
G00 Z5.000000

(End cutting path id: path5293)


(Start cutting path id: path5291)
(vplot gcode)
(Change tool to Default tool)

G00 Z5.000000
G00 X867.606770 Y729.843613

G01 Z-1.000000 F100.0(Penetrate)
G01 X869.457443 Y729.843613 Z-1.000000 F400.000000
G01 X871.308087 Y729.843613 Z-1.000000
G01 X873.158759 Y729.843613 Z-1.000000
G01 X875.009431 Y729.843613 Z-1.000000
G01 X876.860103 Y729.843613 Z-1.000000
G01 X878.710776 Y729.843613 Z-1.000000
G01 X880.561420 Y729.843613 Z-1.000000
G01 X882.412092 Y729.843613 Z-1.000000
G00 Z5.000000

(End cutting path id: path5291)


(Start cutting path id: path5289)
(vplot gcode)
(Change tool to Default tool)

G00 Z5.000000
G00 X867.606770 Y620.625475

G01 Z-1.000000 F100.0(Penetrate)
G01 X867.606770 Y634.277749 Z-1.000000 F400.000000
G01 X867.606770 Y647.930023 Z-1.000000
G01 X867.606770 Y661.582269 Z-1.000000
G01 X867.606770 Y675.234544 Z-1.000000
G01 X867.606770 Y688.886818 Z-1.000000
G01 X867.606770 Y702.539092 Z-1.000000
G01 X867.606770 Y716.191338 Z-1.000000
G01 X867.606770 Y729.843613 Z-1.000000
G00 Z5.000000

(End cutting path id: path5289)


(Start cutting path id: path5287)
(vplot gcode)
(Change tool to Default tool)

G00 Z5.000000
G00 X1035.115933 Y676.358494

G01 Z-1.000000 F100.0(Penetrate)
G01 X1035.115933 Y676.358494 Z-1.000000 F400.000000
G01 X1035.115933 Y676.358494 Z-1.000000
G01 X1035.115933 Y676.358494 Z-1.000000
G01 X1035.115933 Y676.358494 Z-1.000000
G01 X1035.115933 Y676.358494 Z-1.000000
G01 X1035.115933 Y676.358494 Z-1.000000
G01 X1035.115933 Y676.358494 Z-1.000000
G01 X1035.115933 Y676.358494 Z-1.000000
G00 Z5.000000

(End cutting path id: path5287)


(Start cutting path id: path5285)
(vplot gcode)
(Change tool to Default tool)

G00 Z5.000000
G00 X1035.115961 Y676.358494

G01 Z-1.000000 F100.0(Penetrate)
G01 X1034.946064 Y674.712094 Z-1.000000 F400.000000
G01 X1034.776166 Y673.065694 Z-1.000000
G01 X1034.606268 Y671.419294 Z-1.000000
G01 X1034.436370 Y669.772923 Z-1.000000
G01 X1034.266472 Y668.126523 Z-1.000000
G01 X1034.096575 Y666.480123 Z-1.000000
G01 X1033.926677 Y664.833723 Z-1.000000
G01 X1033.756779 Y663.187324 Z-1.000000
G00 Z5.000000

(End cutting path id: path5285)


(Start cutting path id: path5283)
(vplot gcode)
(Change tool to Default tool)

G00 Z5.000000
G00 X1033.756751 Y663.187352

G01 Z-1.000000 F100.0(Penetrate)
G01 X1033.316230 Y661.907587 Z-1.000000 F400.000000
G01 X1032.875681 Y660.627794 Z-1.000000
G01 X1032.435161 Y659.348029 Z-1.000000
G01 X1031.994640 Y658.068236 Z-1.000000
G01 X1031.554091 Y656.788471 Z-1.000000
G01 X1031.113570 Y655.508678 Z-1.000000
G01 X1030.673022 Y654.228913 Z-1.000000
G01 X1030.232501 Y652.949120 Z-1.000000
G00 Z5.000000

(End cutting path id: path5283)


